;FLAVOR:Marlin
;TIME:1497
;Filament used: 1.48126m
;Layer height: 0.2
;Generated with Cura_SteamEngine 3.4.1
M190 S65
M104 S220
M109 S220
M82 ;absolute extrusion mode
G28 ;Home
G1 Z15.0 F6000 ;Move the platform down 15mm
;Prime the extruder
G92 E0
G1 F200 E3
G92 E0
G92 E0
G1 F2400 E-5
;LAYER_COUNT:51
;LAYER:0
M106 S191.3
M204 S5000
M205 X30 Y30
G0 F3600 X73.882 Y86.537 Z0.2
M204 S500
M205 X20 Y20
;TYPE:SKIRT
G1 F2400 E0
G1 F1800 X74.618 Y85.928 E0.03177
G1 X75.402 Y85.383 E0.06353
G1 X76.229 Y84.906 E0.09528
G1 X77.093 Y84.499 E0.12705
G1 X77.988 Y84.167 E0.1588
G1 X78.908 Y83.91 E0.19057
G1 X79.845 Y83.731 E0.2223
G1 X80.795 Y83.631 E0.25407
G1 X81.499 Y83.609 E0.2775
G1 X90.782 Y83.6 E0.58625
G1 X91.646 Y83.632 E0.61501
G1 X95.611 Y83.93 E0.74726
G1 X100.757 Y84.146 E0.91856
G1 X105.763 Y84.075 E1.08508
G1 X111.661 Y83.641 E1.28178
G1 X112.496 Y83.61 E1.30957
G1 X127.49 Y83.609 E1.80827
G1 X128.444 Y83.649 E1.84003
G1 X129.391 Y83.769 E1.87178
G1 X130.325 Y83.967 E1.90354
G1 X131.239 Y84.243 E1.93529
G1 X132.127 Y84.594 E1.96705
G1 X132.982 Y85.019 E1.99881
G1 X133.799 Y85.513 E2.03056
G1 X134.572 Y86.074 E2.06233
G1 X135.294 Y86.698 E2.09407
G1 X135.962 Y87.38 E2.12582
G1 X136.571 Y88.116 E2.15759
G1 X137.116 Y88.9 E2.18935
G1 X137.593 Y89.727 E2.2211
G1 X138 Y90.591 E2.25287
G1 X138.333 Y91.486 E2.28463
G1 X138.59 Y92.405 E2.31637
G1 X138.769 Y93.343 E2.34813
G1 X138.868 Y94.293 E2.3799
G1 X138.89 Y95.138 E2.40801
G1 X138.762 Y106.43 E2.78361
G1 X138.87 Y109.768 E2.89469
G1 X138.876 Y110.104 E2.90587
G1 X138.89 Y114.957 E3.06728
G1 X138.853 Y115.911 E3.09903
G1 X138.736 Y116.859 E3.1308
G1 X138.54 Y117.793 E3.16255
G1 X138.267 Y118.708 E3.1943
G1 X137.918 Y119.597 E3.22607
G1 X137.496 Y120.453 E3.25781
G1 X137.003 Y121.271 E3.28958
G1 X136.444 Y122.045 E3.32133
G1 X135.823 Y122.77 E3.35308
G1 X135.142 Y123.44 E3.38486
G1 X134.408 Y124.051 E3.41662
G1 X133.626 Y124.598 E3.44836
G1 X132.801 Y125.078 E3.48011
G1 X131.938 Y125.487 E3.51187
G1 X131.044 Y125.822 E3.54363
G1 X130.125 Y126.081 E3.57538
G1 X129.188 Y126.263 E3.60713
G1 X128.238 Y126.365 E3.63891
G1 X127.49 Y126.39 E3.6638
G1 X112.51 Y126.39 E4.16204
G1 X111.676 Y126.359 E4.1898
G1 X105.739 Y125.923 E4.38779
G1 X100.74 Y125.854 E4.55408
G1 X95.66 Y126.07 E4.72319
G1 X92.483 Y126.348 E4.82926
G1 X91.488 Y126.391 E4.86239
G1 X81.507 Y126.389 E5.19436
G1 X80.553 Y126.349 E5.22611
G1 X79.606 Y126.229 E5.25786
G1 X78.672 Y126.03 E5.28963
G1 X77.758 Y125.754 E5.32138
G1 X76.87 Y125.402 E5.35315
G1 X76.015 Y124.978 E5.38489
G1 X75.198 Y124.483 E5.41667
G1 X74.426 Y123.922 E5.44841
G1 X73.703 Y123.298 E5.48017
G1 X73.036 Y122.615 E5.51192
G1 X72.427 Y121.88 E5.54367
G1 X71.882 Y121.095 E5.57546
G1 X71.405 Y120.268 E5.60721
G1 X70.999 Y119.404 E5.63896
G1 X70.666 Y118.509 E5.67072
G1 X70.41 Y117.59 E5.70245
G1 X70.231 Y116.652 E5.73421
G1 X70.131 Y115.702 E5.76599
G1 X70.109 Y114.988 E5.78974
G1 X70.11 Y95.008 E6.45428
G1 X70.15 Y94.054 E6.48604
G1 X70.27 Y93.107 E6.51779
G1 X70.468 Y92.173 E6.54954
G1 X70.744 Y91.259 E6.5813
G1 X71.096 Y90.372 E6.61304
G1 X71.52 Y89.516 E6.64481
G1 X72.015 Y88.7 E6.67655
G1 X72.576 Y87.927 E6.70832
G1 X73.2 Y87.205 E6.74006
G1 X73.882 Y86.537 E6.77181
M204 S5000
M205 X30 Y30
G0 F3600 X74.274 Y86.724
M204 S500
M205 X20 Y20
G1 F1800 X75.006 Y86.138 E6.803
G1 X75.786 Y85.616 E6.83422
G1 X76.607 Y85.162 E6.86542
G1 X77.463 Y84.78 E6.8966
G1 X78.349 Y84.473 E6.92778
G1 X79.258 Y84.242 E6.95898
G1 X80.184 Y84.089 E6.9902
G1 X81.499 Y84.009 E7.03401
G1 X90.782 Y84 E7.34277
G1 X91.616 Y84.031 E7.37053
G1 X95.595 Y84.33 E7.50324
G1 X100.746 Y84.547 E7.67472
G1 X105.781 Y84.475 E7.8422
G1 X111.69 Y84.04 E8.03926
G1 X112.496 Y84.01 E8.06609
G1 X127.49 Y84.009 E8.56479
G1 X128.427 Y84.049 E8.59599
G1 X129.358 Y84.169 E8.62721
G1 X130.274 Y84.367 E8.65838
G1 X131.171 Y84.643 E8.68959
G1 X132.04 Y84.994 E8.72076
G1 X132.877 Y85.418 E8.75197
G1 X133.674 Y85.911 E8.78314
G1 X134.427 Y86.471 E8.81435
G1 X135.129 Y87.093 E8.84555
G1 X135.775 Y87.772 E8.87672
G1 X136.362 Y88.504 E8.90793
G1 X136.884 Y89.284 E8.93914
G1 X137.337 Y90.105 E8.97033
G1 X137.719 Y90.961 E9.00151
G1 X138.027 Y91.847 E9.03271
G1 X138.258 Y92.756 E9.0639
G1 X138.411 Y93.681 E9.09508
G1 X138.484 Y94.616 E9.12628
G1 X138.49 Y95.134 E9.14351
G1 X138.362 Y106.438 E9.5195
G1 X138.47 Y109.781 E9.63075
G1 X138.476 Y110.105 E9.64153
G1 X138.49 Y114.958 E9.80294
G1 X138.453 Y115.895 E9.83413
G1 X138.336 Y116.826 E9.86534
G1 X138.14 Y117.743 E9.89653
G1 X137.867 Y118.64 E9.92771
G1 X137.518 Y119.511 E9.95892
G1 X137.096 Y120.349 E9.99013
G1 X136.605 Y121.148 E10.02132
G1 X136.047 Y121.902 E10.05252
G1 X135.428 Y122.605 E10.08367
G1 X134.75 Y123.254 E10.11489
G1 X134.02 Y123.842 E10.14606
G1 X133.242 Y124.366 E10.17726
G1 X132.422 Y124.822 E10.20847
G1 X131.567 Y125.207 E10.23966
G1 X130.682 Y125.517 E10.27085
G1 X129.773 Y125.75 E10.30206
G1 X128.848 Y125.906 E10.33326
G1 X127.49 Y125.99 E10.37851
G1 X112.51 Y125.99 E10.87675
G1 X111.705 Y125.961 E10.90354
G1 X105.74 Y125.523 E11.10247
G1 X100.728 Y125.453 E11.26919
G1 X95.63 Y125.671 E11.4389
G1 X92.448 Y125.949 E11.54514
G1 X91.488 Y125.991 E11.5771
G1 X81.507 Y125.989 E11.90907
G1 X80.57 Y125.949 E11.94026
G1 X79.64 Y125.829 E11.97145
G1 X78.723 Y125.63 E12.00266
G1 X77.827 Y125.354 E12.03384
G1 X76.957 Y125.003 E12.06504
G1 X76.121 Y124.579 E12.09622
G1 X75.323 Y124.085 E12.12744
G1 X74.571 Y123.525 E12.15862
G1 X73.869 Y122.903 E12.18982
G1 X73.223 Y122.223 E12.22101
G1 X72.637 Y121.491 E12.2522
G1 X72.115 Y120.712 E12.28339
G1 X71.662 Y119.891 E12.31458
G1 X71.28 Y119.034 E12.34578
G1 X70.972 Y118.148 E12.37698
G1 X70.742 Y117.239 E12.40817
G1 X70.589 Y116.314 E12.43935
G1 X70.509 Y114.988 E12.48353
G1 X70.51 Y95.008 E13.14807
G1 X70.55 Y94.071 E13.17927
G1 X70.67 Y93.141 E13.21045
G1 X70.868 Y92.225 E13.24162
G1 X71.144 Y91.328 E13.27284
G1 X71.495 Y90.459 E13.30401
G1 X71.919 Y89.622 E13.33522
G1 X72.413 Y88.825 E13.3664
G1 X72.973 Y88.072 E13.39762
G1 X73.595 Y87.37 E13.42881
G1 X74.274 Y86.724 E13.45998
M204 S5000
M205 X30 Y30
G0 F3600 X74.666 Y86.915
M204 S500
M205 X20 Y20
G1 F1800 X75.394 Y86.352 E13.49059
G1 X76.168 Y85.853 E13.52122
G1 X76.983 Y85.424 E13.55185
G1 X77.831 Y85.068 E13.58244
G1 X78.708 Y84.786 E13.61308
G1 X79.606 Y84.581 E13.64372
G1 X80.518 Y84.456 E13.67434
G1 X81.5 Y84.409 E13.70704
G1 X90.783 Y84.4 E14.01579
G1 X91.587 Y84.43 E14.04255
G1 X95.551 Y84.728 E14.17476
G1 X100.752 Y84.947 E14.3479
G1 X105.8 Y84.874 E14.51582
G1 X111.72 Y84.439 E14.71325
G1 X112.496 Y84.41 E14.73908
G1 X127.49 Y84.409 E15.23778
G1 X128.41 Y84.449 E15.26841
G1 X129.323 Y84.569 E15.29904
G1 X130.222 Y84.767 E15.32965
G1 X131.1 Y85.042 E15.36025
G1 X131.952 Y85.393 E15.3909
G1 X132.769 Y85.817 E15.42152
G1 X133.547 Y86.309 E15.45213
G1 X134.279 Y86.868 E15.48277
G1 X134.96 Y87.487 E15.51338
G1 X135.584 Y88.164 E15.544
G1 X136.148 Y88.892 E15.57463
G1 X136.646 Y89.666 E15.60524
G1 X137.075 Y90.481 E15.63587
G1 X137.432 Y91.329 E15.66648
G1 X137.714 Y92.206 E15.69712
G1 X137.918 Y93.103 E15.72771
G1 X138.044 Y94.015 E15.75833
G1 X138.09 Y95.129 E15.79542
G1 X137.962 Y106.446 E16.17185
G1 X138.07 Y109.794 E16.28326
G1 X138.076 Y110.106 E16.29364
G1 X138.09 Y114.959 E16.45505
G1 X138.053 Y115.879 E16.48567
G1 X137.936 Y116.793 E16.51632
G1 X137.74 Y117.692 E16.54692
G1 X137.467 Y118.571 E16.57754
G1 X137.118 Y119.423 E16.60816
G1 X136.697 Y120.242 E16.63879
G1 X136.207 Y121.021 E16.6694
G1 X135.651 Y121.755 E16.70002
G1 X135.033 Y122.438 E16.73066
G1 X134.358 Y123.064 E16.76128
G1 X133.632 Y123.629 E16.79188
G1 X132.859 Y124.13 E16.82251
G1 X132.045 Y124.561 E16.85315
G1 X131.198 Y124.92 E16.88375
G1 X130.322 Y125.205 E16.91439
G1 X129.425 Y125.412 E16.945
G1 X128.513 Y125.54 E16.97563
G1 X127.49 Y125.59 E17.0097
G1 X112.51 Y125.59 E17.50794
G1 X111.734 Y125.562 E17.53376
G1 X105.758 Y125.124 E17.73306
G1 X100.717 Y125.053 E17.90074
G1 X95.623 Y125.27 E18.07032
G1 X92.413 Y125.551 E18.17749
G1 X91.488 Y125.591 E18.20829
G1 X81.507 Y125.589 E18.54026
G1 X80.587 Y125.549 E18.57089
G1 X79.674 Y125.429 E18.60151
G1 X78.775 Y125.23 E18.63214
G1 X77.897 Y124.955 E18.66274
G1 X77.046 Y124.604 E18.69336
G1 X76.228 Y124.18 E18.724
G1 X75.451 Y123.687 E18.75461
G1 X74.719 Y123.129 E18.78522
G1 X74.038 Y122.509 E18.81585
G1 X73.414 Y121.832 E18.84648
G1 X72.851 Y121.104 E18.87709
G1 X72.353 Y120.33 E18.9077
G1 X71.924 Y119.515 E18.93833
G1 X71.567 Y118.666 E18.96896
G1 X71.286 Y117.79 E18.99956
G1 X71.081 Y116.892 E19.0302
G1 X70.955 Y115.98 E19.06082
G1 X70.909 Y114.988 E19.09385
G1 X70.91 Y95.008 E19.75839
G1 X70.95 Y94.089 E19.78898
G1 X71.07 Y93.176 E19.81961
G1 X71.268 Y92.277 E19.85023
G1 X71.544 Y91.398 E19.88087
G1 X71.895 Y90.547 E19.91149
G1 X72.318 Y89.73 E19.94209
G1 X72.811 Y88.952 E19.97272
G1 X73.369 Y88.22 E20.00333
G1 X73.989 Y87.539 E20.03396
G1 X74.666 Y86.915 E20.06459
M204 S5000
M205 X30 Y30
G0 F3600 X74.383 Y87.712
M204 S500
M205 X20 Y20
G1 F1800 X75.056 Y87.11 E20.09462
G1 X75.78 Y86.57 E20.12466
G1 X76.549 Y86.097 E20.15469
G1 X77.357 Y85.693 E20.18473
G1 X78.197 Y85.362 E20.21476
G1 X79.063 Y85.107 E20.24479
G1 X79.949 Y84.929 E20.27485
G1 X80.847 Y84.831 E20.30489
G1 X81.5 Y84.809 E20.32662
G1 X90.783 Y84.8 E20.63538
G1 X91.557 Y84.829 E20.66114
G1 X95.534 Y85.128 E20.79379
G1 X100.741 Y85.347 E20.96713
G1 X105.8 Y85.274 E21.13541
G1 X111.749 Y84.837 E21.3338
G1 X112.496 Y84.81 E21.35867
G1 X127.49 Y84.809 E21.85737
G1 X128.393 Y84.849 E21.88743
G1 X129.288 Y84.968 E21.91746
G1 X130.169 Y85.167 E21.9475
G1 X131.029 Y85.442 E21.97753
G1 X131.861 Y85.793 E22.00757
G1 X132.659 Y86.215 E22.03759
G1 X133.417 Y86.707 E22.06765
G1 X134.128 Y87.264 E22.09769
G1 X134.787 Y87.881 E22.12771
G1 X135.389 Y88.554 E22.15775
G1 X135.929 Y89.278 E22.18779
G1 X136.403 Y90.047 E22.21783
G1 X136.807 Y90.855 E22.24788
G1 X137.138 Y91.695 E22.27791
G1 X137.393 Y92.561 E22.30793
G1 X137.571 Y93.447 E22.33799
G1 X137.669 Y94.344 E22.368
G1 X137.69 Y95.125 E22.39399
G1 X137.562 Y106.432 E22.77009
G1 X137.671 Y109.807 E22.8824
G1 X137.676 Y110.108 E22.89241
G1 X137.69 Y114.961 E23.05382
G1 X137.653 Y115.863 E23.08385
G1 X137.536 Y116.758 E23.11387
G1 X137.34 Y117.64 E23.14392
G1 X137.067 Y118.501 E23.17396
G1 X136.719 Y119.334 E23.20399
G1 X136.298 Y120.133 E23.23403
G1 X135.809 Y120.892 E23.26406
G1 X135.254 Y121.605 E23.29411
G1 X134.638 Y122.266 E23.32416
G1 X133.967 Y122.87 E23.35419
G1 X133.245 Y123.412 E23.38421
G1 X132.477 Y123.888 E23.41427
G1 X131.67 Y124.294 E23.44431
G1 X130.831 Y124.627 E23.47434
G1 X129.966 Y124.885 E23.50436
G1 X129.081 Y125.065 E23.5344
G1 X128.183 Y125.166 E23.56445
G1 X127.49 Y125.19 E23.58752
G1 X112.51 Y125.19 E24.08575
G1 X111.764 Y125.163 E24.11058
G1 X105.777 Y124.724 E24.31024
G1 X100.723 Y124.653 E24.47836
G1 X95.571 Y124.873 E24.64987
G1 X92.378 Y125.152 E24.75647
G1 X91.488 Y125.191 E24.7861
G1 X81.507 Y125.189 E25.11807
G1 X80.605 Y125.149 E25.1481
G1 X79.71 Y125.029 E25.17814
G1 X78.829 Y124.831 E25.20817
G1 X77.969 Y124.555 E25.23821
G1 X77.136 Y124.204 E25.26828
G1 X76.338 Y123.781 E25.29832
G1 X75.581 Y123.289 E25.32834
G1 X74.87 Y122.733 E25.35836
G1 X74.211 Y122.115 E25.38841
G1 X73.609 Y121.442 E25.41845
G1 X73.07 Y120.718 E25.44847
G1 X72.596 Y119.949 E25.47851
G1 X72.192 Y119.141 E25.50856
G1 X71.861 Y118.3 E25.53862
G1 X71.606 Y117.434 E25.56864
G1 X71.429 Y116.549 E25.59866
G1 X71.33 Y115.651 E25.62871
G1 X71.309 Y114.988 E25.65077
G1 X71.31 Y95.008 E26.31531
G1 X71.35 Y94.106 E26.34534
G1 X71.47 Y93.211 E26.37538
G1 X71.668 Y92.33 E26.40541
G1 X71.944 Y91.47 E26.43545
G1 X72.294 Y90.638 E26.46547
G1 X72.717 Y89.84 E26.49551
G1 X73.209 Y89.082 E26.52557
G1 X73.765 Y88.371 E26.55559
G1 X74.383 Y87.712 E26.58563
M204 S5000
M205 X30 Y30
G1 F2400 E21.58563
G0 F3600 X82.114 Y94.335
G0 X82.114 Y95.614
G0 X90.5 Y101
M204 S500
M205 X20 Y20
;TYPE:WALL-INNER
G1 F2400 E26.58563
G1 F1800 X93.177 Y101 E26.67467
G1 X94.088 Y98.72 E26.75633
G1 X97.5 Y99.744 E26.87482
G1 X97.5 Y110.256 E27.22445
G1 X94.088 Y111.28 E27.34293
G1 X93.177 Y109 E27.4246
G1 X90.5 Y109 E27.51363
G1 X90.5 Y114 E27.67993
G1 X82.5 Y114 E27.94602
G1 X82.5 Y96 E28.5447
G1 X90.5 Y96 E28.81078
G1 X90.5 Y101 E28.97708
M204 S5000
M205 X30 Y30
G0 F3600 X90.9 Y100.6
M204 S500
M205 X20 Y20
G1 F1800 X92.906 Y100.6 E29.0438
G1 X93.853 Y98.232 E29.12862
G1 X97.9 Y99.446 E29.26915
G1 X97.9 Y110.554 E29.63861
G1 X93.853 Y111.768 E29.77914
G1 X92.906 Y109.4 E29.86396
G1 X90.9 Y109.4 E29.93068
G1 X90.9 Y114.4 E30.09698
G1 X82.1 Y114.4 E30.38967
G1 X82.1 Y95.6 E31.01496
G1 X90.9 Y95.6 E31.30765
G1 X90.9 Y100.6 E31.47395
M204 S5000
M205 X30 Y30
G0 F3600 X91.3 Y100.2
M204 S500
M205 X20 Y20
;TYPE:WALL-OUTER
G1 F1800 X92.635 Y100.2 E31.51835
G1 X93.618 Y97.744 E31.60634
G1 X98.3 Y99.149 E31.76892
G1 X98.3 Y110.851 E32.15813
G1 X93.618 Y112.256 E32.32072
G1 X92.635 Y109.8 E32.40871
G1 X91.3 Y109.8 E32.45311
G1 X91.3 Y114.8 E32.61941
G1 X81.7 Y114.8 E32.93871
G1 X81.7 Y95.2 E33.5906
G1 X91.3 Y95.2 E33.9099
G1 X91.3 Y100.2 E34.0762
M204 S5000
M205 X30 Y30
G0 F3600 X91.5 Y100.2
G0 X91.5 Y100.7
G0 X90.11 Y101.39
M204 S500
M205 X20 Y20
;TYPE:SKIN
G1 F1800 X93.441 Y101.39 E34.18699
G1 X94.318 Y99.196 E34.26558
G1 X97.11 Y100.034 E34.36253
G1 X97.11 Y109.966 E34.69287
G1 X94.318 Y110.804 E34.78983
G1 X93.441 Y108.61 E34.86842
G1 X90.11 Y108.61 E34.9792
G1 X90.11 Y113.61 E35.14551
G1 X82.89 Y113.61 E35.38564
G1 X82.89 Y96.39 E35.95838
G1 X90.11 Y96.39 E36.19852
G1 X90.11 Y101.39 E36.36482
M204 S5000
M205 X30 Y30
G0 F3600 X86.51 Y104.99
M204 S500
M205 X20 Y20
G1 F1800 X93.51 Y104.99 E36.59764
G1 X93.51 Y105.01 E36.59831
G1 X86.51 Y105.01 E36.83113
G1 X86.51 Y110.01 E36.99743
G1 X86.49 Y110.01 E36.99809
G1 X86.49 Y99.99 E37.33136
G1 X86.51 Y99.99 E37.33203
G1 X86.51 Y104.99 E37.49833
M204 S5000
M205 X30 Y30
G0 F3600 X86.91 Y104.59
M204 S500
M205 X20 Y20
G1 F1800 X93.91 Y104.59 E37.73115
G1 X93.91 Y105.41 E37.75842
G1 X86.91 Y105.41 E37.99124
G1 X86.91 Y110.41 E38.15754
G1 X86.09 Y110.41 E38.18482
G1 X86.09 Y99.59 E38.54469
G1 X86.91 Y99.59 E38.57196
G1 X86.91 Y104.59 E38.73827
M204 S5000
M205 X30 Y30
G0 F3600 X87.31 Y104.19
M204 S500
M205 X20 Y20
G1 F1800 X94.31 Y104.19 E38.97109
G1 X94.31 Y105.81 E39.02497
G1 X87.31 Y105.81 E39.25779
G1 X87.31 Y110.81 E39.42409
G1 X85.69 Y110.81 E39.47797
G1 X85.69 Y99.19 E39.86445
G1 X87.31 Y99.19 E39.91833
G1 X87.31 Y104.19 E40.08464
M204 S5000
M205 X30 Y30
G0 F3600 X87.71 Y103.79
M204 S500
M205 X20 Y20
G1 F1800 X94.71 Y103.79 E40.31746
G1 X94.71 Y106.21 E40.39795
G1 X87.71 Y106.21 E40.63077
G1 X87.71 Y111.21 E40.79707
G1 X85.29 Y111.21 E40.87756
G1 X85.29 Y98.79 E41.29065
G1 X87.71 Y98.79 E41.37114
G1 X87.71 Y103.79 E41.53744
M204 S5000
M205 X30 Y30
G0 F3600 X88.11 Y103.39
M204 S500
M205 X20 Y20
G1 F1800 X94.795 Y103.39 E41.75978
G1 X95.11 Y102.6 E41.78807
G1 X95.11 Y107.4 E41.94772
G1 X94.795 Y106.61 E41.97601
G1 X88.11 Y106.61 E42.19835
G1 X88.11 Y111.61 E42.36465
G1 X84.89 Y111.61 E42.47175
G1 X84.89 Y98.39 E42.91145
G1 X88.11 Y98.39 E43.01854
G1 X88.11 Y103.39 E43.18484
M204 S5000
M205 X30 Y30
G0 F3600 X88.51 Y102.99
M204 S500
M205 X20 Y20
G1 F1800 X94.524 Y102.99 E43.38487
G1 X95.259 Y101.149 E43.4508
G1 X95.51 Y101.224 E43.45952
G1 X95.51 Y108.776 E43.7107
G1 X95.259 Y108.851 E43.71941
G1 X94.524 Y107.01 E43.78534
G1 X88.51 Y107.01 E43.98537
G1 X88.51 Y112.01 E44.15167
G1 X84.49 Y112.01 E44.28537
G1 X84.49 Y97.99 E44.75168
G1 X88.51 Y97.99 E44.88539
G1 X88.51 Y102.99 E45.05169
M204 S5000
M205 X30 Y30
G0 F3600 X88.91 Y102.59
M204 S500
M205 X20 Y20
G1 F1800 X94.253 Y102.59 E45.2294
G1 X95.024 Y100.661 E45.29849
G1 X95.91 Y100.927 E45.32926
G1 X95.91 Y109.073 E45.60019
G1 X95.024 Y109.339 E45.63096
G1 X94.253 Y107.41 E45.70006
G1 X88.91 Y107.41 E45.87777
G1 X88.91 Y112.41 E46.04407
G1 X84.09 Y112.41 E46.20438
G1 X84.09 Y97.59 E46.6973
G1 X88.91 Y97.59 E46.85761
G1 X88.91 Y102.59 E47.02391
M204 S5000
M205 X30 Y30
G0 F3600 X89.31 Y102.19
M204 S500
M205 X20 Y20
G1 F1800 X93.982 Y102.19 E47.1793
G1 X94.789 Y100.173 E47.25156
G1 X96.31 Y100.629 E47.30437
G1 X96.31 Y109.371 E47.59513
