;FLAVOR:Marlin
;TIME:1268
;Filament used: 1.22918m
;Layer height: 0.2
;Generated with Cura_SteamEngine 3.4.1
M190 S65
M104 S220
M109 S220
M82 ;absolute extrusion mode
G28 ;Home
G1 Z15.0 F6000 ;Move the platform down 15mm
;Prime the extruder
G92 E0
G1 F200 E3
G92 E0
G92 E0
G1 F2400 E-5
;LAYER_COUNT:41
;LAYER:0
M106 S191.3
M204 S5000
M205 X30 Y30
G0 F3600 X74.882 Y86.537 Z0.2
M204 S500
M205 X20 Y20
;TYPE:SKIRT
G1 F2400 E0
G1 F1800 X75.618 Y85.928 E0.03177
G1 X76.402 Y85.383 E0.06353
G1 X77.229 Y84.906 E0.09528
G1 X78.093 Y84.499 E0.12705
G1 X78.988 Y84.167 E0.1588
G1 X79.908 Y83.91 E0.19057
G1 X80.845 Y83.731 E0.2223
G1 X81.795 Y83.631 E0.25407
G1 X82.515 Y83.609 E0.27803
G1 X97.619 Y83.615 E0.78039
G1 X98.09 Y83.625 E0.79606
G1 X103.174 Y83.838 E0.9653
G1 X108.283 Y83.765 E1.13525
G1 X110.9 Y83.625 E1.22241
G1 X111.511 Y83.609 E1.24274
G1 X121.497 Y83.61 E1.57488
G1 X122.451 Y83.65 E1.60663
G1 X123.398 Y83.77 E1.63838
G1 X124.332 Y83.968 E1.67014
G1 X125.246 Y84.245 E1.7019
G1 X126.134 Y84.596 E1.73366
G1 X127.198 Y85.139 E1.77339
G1 X134.159 Y89.16 E2.04077
G1 X134.965 Y89.671 E2.07251
G1 X135.726 Y90.249 E2.10429
G1 X136.435 Y90.888 E2.13604
G1 X137.088 Y91.584 E2.16778
G1 X137.681 Y92.332 E2.19953
G1 X138.21 Y93.128 E2.23132
G1 X138.669 Y93.965 E2.26307
G1 X139.057 Y94.837 E2.29481
G1 X139.371 Y95.739 E2.32658
G1 X139.608 Y96.663 E2.35831
G1 X139.767 Y97.605 E2.39008
G1 X139.857 Y98.999 E2.43654
G1 X139.89 Y110.885 E2.83187
G1 X139.853 Y111.839 E2.86363
G1 X139.736 Y112.787 E2.8954
G1 X139.54 Y113.721 E2.92714
G1 X139.266 Y114.636 E2.95891
G1 X138.917 Y115.525 E2.99067
G1 X138.495 Y116.381 E3.02241
G1 X138.003 Y117.199 E3.05416
G1 X137.722 Y117.605 E3.07059
G1 X137.651 Y117.703 E3.07461
G1 X137.059 Y118.452 E3.10636
G1 X136.406 Y119.149 E3.13813
G1 X135.697 Y119.789 E3.1699
G1 X134.938 Y120.367 E3.20163
G1 X134.097 Y120.901 E3.23476
G1 X127.176 Y124.876 E3.50022
G1 X126.329 Y125.316 E3.53197
G1 X125.448 Y125.684 E3.56372
G1 X124.539 Y125.977 E3.59549
G1 X123.609 Y126.193 E3.62724
G1 X122.664 Y126.33 E3.659
G1 X121.498 Y126.39 E3.69784
G1 X111.502 Y126.39 E4.0303
G1 X110.865 Y126.372 E4.0515
G1 X108.378 Y126.233 E4.13435
G1 X103.272 Y126.161 E4.30419
G1 X97.653 Y126.39 E4.49123
G1 X97.182 Y126.399 E4.5069
G1 X82.501 Y126.389 E4.99519
G1 X81.547 Y126.348 E5.02695
G1 X80.6 Y126.228 E5.0587
G1 X79.666 Y126.029 E5.09047
G1 X78.753 Y125.752 E5.1222
G1 X77.865 Y125.4 E5.15397
G1 X77.01 Y124.975 E5.18573
G1 X76.194 Y124.48 E5.21747
G1 X75.422 Y123.918 E5.24923
G1 X74.699 Y123.294 E5.28099
G1 X74.032 Y122.611 E5.31275
G1 X73.424 Y121.875 E5.3445
G1 X72.879 Y121.091 E5.37626
G1 X72.403 Y120.264 E5.40799
G1 X71.997 Y119.399 E5.43977
G1 X71.665 Y118.504 E5.47152
G1 X71.408 Y117.584 E5.5033
G1 X71.23 Y116.646 E5.53505
G1 X71.131 Y115.697 E5.56679
G1 X71.109 Y114.988 E5.59038
G1 X71.11 Y95.008 E6.25492
G1 X71.15 Y94.054 E6.28667
G1 X71.27 Y93.107 E6.31842
G1 X71.468 Y92.173 E6.35018
G1 X71.744 Y91.259 E6.38193
G1 X72.096 Y90.372 E6.41367
G1 X72.52 Y89.516 E6.44545
G1 X73.015 Y88.7 E6.47719
G1 X73.576 Y87.927 E6.50896
G1 X74.2 Y87.205 E6.5407
G1 X74.882 Y86.537 E6.57245
M204 S5000
M205 X30 Y30
G0 F3600 X75.274 Y86.724
M204 S500
M205 X20 Y20
G1 F1800 X76.006 Y86.138 E6.60363
G1 X76.786 Y85.616 E6.63485
G1 X77.607 Y85.162 E6.66605
G1 X78.463 Y84.78 E6.69723
G1 X79.349 Y84.473 E6.72842
G1 X80.258 Y84.242 E6.75961
G1 X81.184 Y84.089 E6.79083
G1 X82.514 Y84.009 E6.83515
G1 X97.618 Y84.015 E7.33751
G1 X98.073 Y84.025 E7.35264
G1 X103.163 Y84.238 E7.52209
G1 X108.31 Y84.165 E7.69329
G1 X110.921 Y84.025 E7.78026
G1 X111.511 Y84.009 E7.79989
G1 X121.497 Y84.01 E8.13203
G1 X122.434 Y84.05 E8.16322
G1 X123.364 Y84.17 E8.19441
G1 X124.281 Y84.368 E8.22561
G1 X125.177 Y84.644 E8.25679
G1 X126.047 Y84.996 E8.28801
G1 X126.998 Y85.485 E8.32358
G1 X133.959 Y89.506 E8.59095
G1 X134.75 Y90.009 E8.62213
G1 X135.496 Y90.578 E8.65333
G1 X136.191 Y91.208 E8.68453
G1 X136.829 Y91.896 E8.71574
G1 X137.406 Y92.635 E8.74692
G1 X137.919 Y93.42 E8.77811
G1 X138.362 Y94.247 E8.80932
G1 X138.734 Y95.108 E8.84051
G1 X139.03 Y95.997 E8.87168
G1 X139.25 Y96.909 E8.90288
G1 X139.392 Y97.836 E8.93407
G1 X139.457 Y99 E8.97285
G1 X139.49 Y110.886 E9.36818
G1 X139.453 Y111.824 E9.3994
G1 X139.336 Y112.754 E9.43058
G1 X139.14 Y113.671 E9.46177
G1 X138.866 Y114.568 E9.49296
G1 X138.518 Y115.439 E9.52416
G1 X138.096 Y116.277 E9.55536
G1 X137.398 Y117.371 E9.59853
G1 X137.327 Y117.469 E9.60255
G1 X136.745 Y118.204 E9.63373
G1 X136.102 Y118.887 E9.66493
G1 X135.404 Y119.513 E9.69612
G1 X134.654 Y120.077 E9.72733
G1 X133.897 Y120.554 E9.75709
G1 X126.976 Y124.529 E10.02255
G1 X126.144 Y124.961 E10.05373
G1 X125.278 Y125.32 E10.08491
G1 X124.384 Y125.605 E10.11612
G1 X123.469 Y125.812 E10.14732
G1 X122.54 Y125.941 E10.17851
G1 X121.498 Y125.99 E10.21321
G1 X111.502 Y125.99 E10.54568
G1 X110.887 Y125.973 E10.56614
G1 X108.382 Y125.833 E10.64959
G1 X103.261 Y125.761 E10.81993
G1 X97.637 Y125.99 E11.00714
G1 X97.183 Y125.999 E11.02224
G1 X82.502 Y125.989 E11.51053
G1 X81.565 Y125.948 E11.54173
G1 X80.634 Y125.828 E11.57295
G1 X79.718 Y125.629 E11.60413
G1 X78.822 Y125.353 E11.63531
G1 X77.952 Y125.001 E11.66653
G1 X77.116 Y124.576 E11.69772
G1 X76.319 Y124.082 E11.7289
G1 X75.567 Y123.522 E11.76009
G1 X74.865 Y122.899 E11.79131
G1 X74.219 Y122.219 E11.8225
G1 X73.633 Y121.487 E11.85369
G1 X73.112 Y120.707 E11.88489
G1 X72.659 Y119.886 E11.91608
G1 X72.278 Y119.029 E11.94727
G1 X71.971 Y118.143 E11.97846
G1 X71.741 Y117.234 E12.00964
G1 X71.588 Y116.308 E12.04086
G1 X71.509 Y114.988 E12.08484
G1 X71.51 Y95.008 E12.74938
G1 X71.55 Y94.071 E12.78057
G1 X71.67 Y93.141 E12.81176
G1 X71.868 Y92.225 E12.84293
G1 X72.144 Y91.328 E12.87414
G1 X72.495 Y90.459 E12.90532
G1 X72.919 Y89.622 E12.93652
G1 X73.413 Y88.825 E12.96771
G1 X73.973 Y88.072 E12.99892
G1 X74.595 Y87.37 E13.03012
G1 X75.274 Y86.724 E13.06129
M204 S5000
M205 X30 Y30
G0 F3600 X75.666 Y86.915
M204 S500
M205 X20 Y20
G1 F1800 X76.394 Y86.352 E13.0919
G1 X77.168 Y85.853 E13.12253
G1 X77.983 Y85.424 E13.15316
G1 X78.831 Y85.068 E13.18375
G1 X79.708 Y84.786 E13.21439
G1 X80.606 Y84.581 E13.24503
G1 X81.518 Y84.456 E13.27564
G1 X82.514 Y84.409 E13.30881
G1 X97.618 Y84.415 E13.81117
G1 X98.057 Y84.424 E13.82577
G1 X103.17 Y84.638 E13.99598
G1 X108.312 Y84.565 E14.16702
G1 X110.943 Y84.424 E14.25465
G1 X111.511 Y84.409 E14.27355
G1 X121.497 Y84.41 E14.60569
G1 X122.417 Y84.45 E14.63632
G1 X123.33 Y84.57 E14.66694
G1 X124.229 Y84.768 E14.69756
G1 X125.107 Y85.044 E14.72817
G1 X125.958 Y85.395 E14.75879
G1 X126.798 Y85.831 E14.79027
G1 X133.759 Y89.852 E15.05764
G1 X134.535 Y90.347 E15.08826
G1 X135.266 Y90.907 E15.11888
G1 X135.945 Y91.529 E15.14951
G1 X136.568 Y92.207 E15.18014
G1 X137.13 Y92.936 E15.21075
G1 X137.626 Y93.712 E15.24138
G1 X138.053 Y94.527 E15.27199
G1 X138.407 Y95.377 E15.30261
G1 X138.687 Y96.254 E15.33323
G1 X138.889 Y97.152 E15.36384
G1 X139.013 Y98.065 E15.39449
G1 X139.057 Y99.002 E15.42569
G1 X139.09 Y110.888 E15.82102
G1 X139.053 Y111.807 E15.85161
G1 X138.935 Y112.721 E15.88226
G1 X138.74 Y113.62 E15.91286
G1 X138.466 Y114.499 E15.94348
G1 X138.118 Y115.352 E15.97412
G1 X137.697 Y116.17 E16.00472
G1 X137.074 Y117.136 E16.04295
G1 X137.003 Y117.234 E16.04698
G1 X136.431 Y117.955 E16.07759
G1 X135.798 Y118.624 E16.10822
G1 X135.11 Y119.236 E16.13885
G1 X134.372 Y119.786 E16.16946
G1 X133.698 Y120.207 E16.19589
G1 X126.777 Y124.182 E16.46135
G1 X125.96 Y124.605 E16.49195
G1 X125.109 Y124.956 E16.52257
G1 X124.23 Y125.232 E16.55321
G1 X123.331 Y125.43 E16.58383
G1 X122.418 Y125.55 E16.61446
G1 X121.498 Y125.59 E16.64508
G1 X111.502 Y125.59 E16.97755
G1 X110.91 Y125.573 E16.99725
G1 X108.41 Y125.433 E17.08053
G1 X103.251 Y125.361 E17.25214
G1 X97.621 Y125.59 E17.43955
G1 X97.183 Y125.599 E17.45412
G1 X82.502 Y125.589 E17.94241
G1 X81.582 Y125.548 E17.97304
G1 X80.669 Y125.428 E18.00367
G1 X79.77 Y125.229 E18.03429
G1 X78.892 Y124.953 E18.0649
G1 X78.041 Y124.601 E18.09553
G1 X77.224 Y124.177 E18.12615
G1 X76.447 Y123.684 E18.15675
G1 X75.715 Y123.125 E18.18739
G1 X75.035 Y122.505 E18.21799
G1 X74.411 Y121.828 E18.24862
G1 X73.848 Y121.1 E18.27923
G1 X73.35 Y120.325 E18.30987
G1 X72.922 Y119.51 E18.34048
G1 X72.565 Y118.661 E18.37112
G1 X72.284 Y117.785 E18.40171
G1 X72.08 Y116.887 E18.43234
G1 X71.955 Y115.975 E18.46296
G1 X71.909 Y114.988 E18.49582
G1 X71.91 Y95.008 E19.16036
G1 X71.95 Y94.089 E19.19096
G1 X72.07 Y93.176 E19.22158
G1 X72.268 Y92.277 E19.2522
G1 X72.544 Y91.398 E19.28284
G1 X72.895 Y90.547 E19.31346
G1 X73.318 Y89.73 E19.34406
G1 X73.811 Y88.952 E19.37469
G1 X74.369 Y88.22 E19.40531
G1 X74.989 Y87.539 E19.43594
G1 X75.666 Y86.915 E19.46656
M204 S5000
M205 X30 Y30
G0 F3600 X75.383 Y87.712
M204 S500
M205 X20 Y20
G1 F1800 X76.056 Y87.11 E19.4966
G1 X76.78 Y86.57 E19.52664
G1 X77.549 Y86.097 E19.55666
G1 X78.357 Y85.693 E19.58671
G1 X79.197 Y85.362 E19.61674
G1 X80.063 Y85.107 E19.64677
G1 X80.949 Y84.929 E19.67682
G1 X81.847 Y84.831 E19.70687
G1 X82.514 Y84.809 E19.72906
G1 X97.618 Y84.815 E20.23143
G1 X98.04 Y84.824 E20.24546
G1 X103.159 Y85.038 E20.41587
G1 X108.339 Y84.965 E20.58818
G1 X110.964 Y84.824 E20.67561
G1 X111.511 Y84.809 E20.69381
G1 X121.497 Y84.81 E21.02595
G1 X122.399 Y84.85 E21.05598
G1 X123.294 Y84.97 E21.08601
G1 X124.175 Y85.168 E21.11604
G1 X125.035 Y85.444 E21.14608
G1 X125.868 Y85.794 E21.17614
G1 X126.598 Y86.178 E21.20357
G1 X133.559 Y90.199 E21.47094
G1 X134.32 Y90.685 E21.50098
G1 X135.035 Y91.236 E21.531
G1 X135.699 Y91.848 E21.56103
G1 X136.306 Y92.517 E21.59108
G1 X136.852 Y93.237 E21.62113
G1 X137.331 Y94.002 E21.65115
G1 X137.741 Y94.807 E21.6812
G1 X138.078 Y95.645 E21.71124
G1 X138.34 Y96.509 E21.74127
G1 X138.525 Y97.393 E21.77131
G1 X138.63 Y98.29 E21.80135
G1 X138.657 Y99.003 E21.82508
G1 X138.69 Y110.889 E22.22041
G1 X138.652 Y111.791 E22.25044
G1 X138.535 Y112.686 E22.28046
G1 X138.339 Y113.568 E22.31051
G1 X138.066 Y114.429 E22.34055
G1 X137.718 Y115.262 E22.37058
G1 X137.298 Y116.061 E22.4006
G1 X136.75 Y116.901 E22.43396
G1 X136.679 Y116.999 E22.43799
G1 X136.117 Y117.706 E22.46802
G1 X135.495 Y118.361 E22.49807
G1 X134.818 Y118.958 E22.52809
G1 X134.09 Y119.493 E22.55814
G1 X133.499 Y119.86 E22.58128
G1 X126.578 Y123.835 E22.84673
G1 X125.776 Y124.25 E22.87677
G1 X124.94 Y124.592 E22.90681
G1 X124.077 Y124.859 E22.93686
G1 X123.194 Y125.048 E22.96689
G1 X122.298 Y125.159 E22.99692
G1 X121.498 Y125.19 E23.02355
G1 X111.502 Y125.19 E23.35602
G1 X110.932 Y125.174 E23.37498
G1 X108.414 Y125.033 E23.45886
G1 X103.259 Y124.961 E23.63033
G1 X97.605 Y125.191 E23.81854
G1 X97.183 Y125.199 E23.83258
G1 X82.502 Y125.189 E24.32087
G1 X81.6 Y125.148 E24.35091
G1 X80.705 Y125.028 E24.38094
G1 X79.824 Y124.829 E24.41098
G1 X78.964 Y124.553 E24.44102
G1 X78.132 Y124.202 E24.47105
G1 X77.334 Y123.779 E24.50109
G1 X76.577 Y123.287 E24.53112
G1 X75.866 Y122.729 E24.56118
G1 X75.208 Y122.111 E24.59121
G1 X74.606 Y121.438 E24.62124
G1 X74.067 Y120.713 E24.65129
G1 X73.594 Y119.944 E24.68132
G1 X73.19 Y119.136 E24.71136
G1 X72.86 Y118.296 E24.74138
G1 X72.605 Y117.429 E24.77144
G1 X72.428 Y116.544 E24.80146
G1 X72.33 Y115.646 E24.8315
G1 X72.309 Y114.988 E24.8534
G1 X72.31 Y95.008 E25.51793
G1 X72.35 Y94.106 E25.54796
G1 X72.47 Y93.211 E25.578
G1 X72.668 Y92.33 E25.60803
G1 X72.944 Y91.47 E25.63807
G1 X73.294 Y90.638 E25.66809
G1 X73.717 Y89.84 E25.69813
G1 X74.209 Y89.082 E25.72819
G1 X74.765 Y88.371 E25.75821
G1 X75.383 Y87.712 E25.78826
M204 S5000
M205 X30 Y30
G1 F2400 E20.78826
G0 F3600 X83.114 Y94.335
G0 X83.114 Y95.614
G0 X89.668 Y111.619
G0 X96.208 Y113.964
M204 S500
M205 X20 Y20
;TYPE:WALL-INNER
G1 F2400 E25.78826
G1 F1800 X96.235 Y113.895 E25.79072
G1 X96.5 Y113.234 E25.81441
G1 X96.5 Y113.964 E25.82318
G1 X96.5 Y114 E25.82385
G1 X96.208 Y114 E25.83032
G1 X94.967 Y114 E25.87159
G1 X83.5 Y114 E26.25299
G1 X83.5 Y96 E26.85167
G1 X94.967 Y96 E27.23306
G1 X96.208 Y96 E27.27434
G1 X96.5 Y96 E27.28405
G1 X96.5 Y96.036
G1 X96.5 Y96.766 E27.30833
G1 X96.236 Y96.106 E27.31646
G1 X96.208 Y96.036
G1 X95.02 Y96.392 E27.33914
G1 X89.3 Y98.106 E27.53775
G1 X89.3 Y111.894 E27.99634
G1 X95.02 Y113.608 E28.19494
G1 X96.208 Y113.964 E28.21762
M204 S5000
M205 X30 Y30
G0 F3600 X89.668 Y111.619
G0 X89.668 Y98.381
G0 X96.015 Y96.434
G0 X95.972 Y96.524
M204 S500
M205 X20 Y20
G1 F1800 X89.7 Y98.404 E28.4354
G1 X89.7 Y111.596 E28.87417
G1 X95.972 Y113.476 E29.09194
G1 X96.514 Y112.12 E29.14051
G1 X96.899 Y111.156 E29.17504
G1 X96.899 Y112.194 E29.19262
G1 X96.9 Y114.2 E29.25934
G1 X96.9 Y114.4 E29.26599
G1 X96.7 Y114.4 E29.2703
G1 X83.1 Y114.4 E29.72263
G1 X83.1 Y95.6 E30.34792
G1 X96.7 Y95.6 E30.80026
G1 X96.9 Y95.6 E30.80691
G1 X96.9 Y95.8 E30.81122
G1 X96.899 Y97.806 E30.87794
G1 X96.899 Y98.844 E30.91247
G1 X96.514 Y97.88 E30.93004
G1 X95.972 Y96.524 E30.97861
M204 S5000
M205 X30 Y30
G0 F3600 X95.736 Y97.012
M204 S500
M205 X20 Y20
;TYPE:WALL-OUTER
G1 F1800 X90.1 Y98.702 E31.17431
G1 X90.1 Y111.298 E31.59326
G1 X95.736 Y112.988 E31.78896
G1 X96.731 Y110.5 E31.87808
G1 X97.299 Y110.503 E31.89697
G1 X97.3 Y114.6 E32.03324
G1 X97.3 Y114.8 E32.03989
G1 X97.1 Y114.8 E32.0442
G1 X82.7 Y114.8 E32.52315
G1 X82.7 Y95.2 E33.17505
G1 X97.1 Y95.2 E33.65399
G1 X97.3 Y95.2 E33.66064
G1 X97.3 Y95.4 E33.66495
G1 X97.299 Y99.498 E33.80125
G1 X96.731 Y99.5 E33.82014
G1 X95.736 Y97.012 E33.90927
M204 S5000
M205 X30 Y30
G0 F3600 X95.545 Y97.069
G0 X95.403 Y96.591
G0 X93.668 Y96.39
M204 S500
M205 X20 Y20
;TYPE:SKIN
G1 F1800 X88.91 Y97.816 E34.07447
G1 X88.91 Y112.184 E34.55235
G1 X93.668 Y113.61 E34.71756
G1 X83.89 Y113.61 E35.04278
G1 X83.89 Y96.39 E35.61552
G1 X93.668 Y96.39 E35.94073
M204 S5000
M205 X30 Y30
G0 F3600 X89.668 Y98.381
G0 X86.51 Y111.21
M204 S500
M205 X20 Y20
G1 F1800 X86.29 Y111.21 E35.94805
G1 X86.29 Y98.79 E36.36114
G1 X86.51 Y98.79 E36.36846
G1 X86.51 Y111.21 E36.78155
M204 S5000
M205 X30 Y30
G0 F3600 X86.91 Y111.61
M204 S500
M205 X20 Y20
G1 F1800 X85.89 Y111.61 E36.81548
G1 X85.89 Y98.39 E37.25518
G1 X86.91 Y98.39 E37.2891
G1 X86.91 Y111.61 E37.7288
M204 S5000
M205 X30 Y30
G0 F3600 X87.31 Y112.01
M204 S500
M205 X20 Y20
G1 F1800 X85.49 Y112.01 E37.78933
G1 X85.49 Y97.99 E38.25564
G1 X87.31 Y97.99 E38.31617
G1 X87.31 Y112.01 E38.78248
M204 S5000
M205 X30 Y30
G0 F3600 X87.71 Y112.41
M204 S500
M205 X20 Y20
G1 F1800 X85.09 Y112.41 E38.86962
G1 X85.09 Y97.59 E39.36254
G1 X87.71 Y97.59 E39.44968
G1 X87.71 Y112.41 E39.94259
M204 S5000
M205 X30 Y30
G0 F3600 X88.11 Y112.78
M204 S500
M205 X20 Y20
G1 F1800 X88.21 Y112.81 E39.94607
G1 X84.69 Y112.81 E40.06314
G1 X84.69 Y97.19 E40.58267
G1 X88.21 Y97.19 E40.69974
G1 X88.11 Y97.22 E40.70321
G1 X88.11 Y112.78 E41.22074
M204 S5000
M205 X30 Y30
G0 F3600 X88.51 Y112.482
M204 S500
M205 X20 Y20
G1 F1800 X90.938 Y113.21 E41.30505
G1 X84.29 Y113.21 E41.52616
G1 X84.29 Y96.79 E42.07229
G1 X90.938 Y96.79 E42.29341
G1 X88.51 Y97.518 E42.37771
G1 X88.51 Y112.482 E42.87542
M204 S5000
M205 X30 Y30
G0 F3600 X88.545 Y112.87
G1 F1800 X88.841 Y112.883 E42.88094
G1 X89.184 Y112.943 E42.8847
G0 F3600 X89.235 Y112.994
G0 X91.154 Y113.216
G0 X91.25 Y113.312
G1 F1800 X91.486 Y113.265 E42.89036
G1 X91.829 Y113.325 E42.89569
G1 X92.173 Y113.386 E42.89816
G0 F3600 X92.196 Y113.409
G0 X89.668 Y111.619
G0 X89.668 Y98.381
G0 X91.248 Y96.905
G0 X91.203 Y96.86
G1 F1800 X91.34 Y96.714 E42.90214
G1 X91.59 Y96.681 E42.90723
G1 X91.841 Y96.649 E42.91081
G1 X92.09 Y96.616 E42.91284
G0 F3600 X92.118 Y96.643
G0 X89.173 Y97.093
G0 X89.128 Y97.048
G1 F1800 X88.879 Y97.081 E42.91566
G1 X88.628 Y97.113 E42.92003
G1 X88.465 Y97.233 E42.92389
G0 F3600 X88.52 Y97.288
G1 F2400 E37.92389
G0 F3600 X95.989 Y96.488
G0 X96.896 Y98.825
G0 X98.165 Y98.825
G0 X110.835 Y98.825
G0 X112.12 Y98.825
G0 X120.5 Y101
M204 S500
M205 X20 Y20
;TYPE:WALL-INNER
G1 F2400 E42.92389
G1 F1800 X123.177 Y101 E43.01292
G1 X124.088 Y98.72 E43.09459
G1 X127.5 Y99.744 E43.21307
G1 X127.5 Y110.256 E43.5627
G1 X124.088 Y111.28 E43.68119
G1 X123.177 Y109 E43.76285
G1 X120.5 Y109 E43.85189
G1 X120.5 Y114 E44.01819
G1 X112.5 Y114 E44.28427
G1 X112.5 Y96 E44.88295
G1 X120.5 Y96 E45.14903
