;FLAVOR:Marlin
;TIME:724
;Filament used: 0.657852m
;Layer height: 0.2
;Generated with Cura_SteamEngine 3.4.1
M190 S65
M104 S220
M109 S220
M82 ;absolute extrusion mode
G28 ;Home
G1 Z15.0 F6000 ;Move the platform down 15mm
;Prime the extruder
G92 E0
G1 F200 E3
G92 E0
G92 E0
G1 F2400 E-5
;LAYER_COUNT:51
;LAYER:0
M107
M204 S5000
M205 X30 Y30
G0 F3600 X92.577 Y90.328 Z0.2
M204 S500
M205 X20 Y20
;TYPE:SKIRT
G1 F2400 E0
G1 F1800 X93.113 Y89.821 E0.02454
G1 X93.7 Y89.376 E0.04904
G1 X94.333 Y88.996 E0.07359
G1 X95.002 Y88.688 E0.09809
G1 X95.701 Y88.454 E0.12261
G1 X96.422 Y88.296 E0.14716
G1 X97.509 Y88.209 E0.18343
G1 X112.491 Y88.21 E0.68173
G1 X113.228 Y88.25 E0.70628
G1 X113.955 Y88.37 E0.73079
G1 X114.666 Y88.567 E0.75533
G1 X115.35 Y88.84 E0.77982
G1 X116.001 Y89.186 E0.80434
G1 X116.611 Y89.6 E0.82886
G1 X117.173 Y90.078 E0.8534
G1 X117.679 Y90.614 E0.87792
G1 X118.125 Y91.202 E0.90246
G1 X118.504 Y91.834 E0.92697
G1 X118.812 Y92.504 E0.9515
G1 X119.046 Y93.203 E0.97602
G1 X119.204 Y93.923 E1.00053
G1 X119.282 Y94.656 E1.02505
G1 X119.291 Y95.089 E1.03946
G1 X119.16 Y106.398 E1.41562
G1 X119.282 Y110.028 E1.53642
G1 X119.286 Y110.25 E1.54381
G1 X119.291 Y114.984 E1.70126
G1 X119.252 Y115.72 E1.72577
G1 X119.133 Y116.448 E1.75031
G1 X118.936 Y117.158 E1.77482
G1 X118.664 Y117.843 E1.79933
G1 X118.319 Y118.495 E1.82386
G1 X117.905 Y119.105 E1.84838
G1 X117.428 Y119.667 E1.8729
G1 X116.893 Y120.174 E1.89742
G1 X116.306 Y120.62 E1.92194
G1 X115.674 Y121 E1.94646
G1 X115.004 Y121.309 E1.971
G1 X114.305 Y121.544 E1.99553
G1 X113.585 Y121.702 E2.02005
G1 X112.491 Y121.791 E2.05655
G1 X97.509 Y121.791 E2.55486
G1 X96.773 Y121.751 E2.57937
G1 X96.045 Y121.632 E2.60391
G1 X95.335 Y121.434 E2.62842
G1 X94.65 Y121.161 E2.65295
G1 X93.999 Y120.815 E2.67747
G1 X93.389 Y120.401 E2.70199
G1 X92.828 Y119.923 E2.7265
G1 X92.321 Y119.387 E2.75104
G1 X91.876 Y118.8 E2.77554
G1 X91.496 Y118.167 E2.8001
G1 X91.188 Y117.498 E2.8246
G1 X90.954 Y116.799 E2.84911
G1 X90.796 Y116.078 E2.87366
G1 X90.709 Y114.991 E2.90993
G1 X90.709 Y95.009 E3.57454
G1 X90.749 Y94.273 E3.59905
G1 X90.868 Y93.545 E3.62359
G1 X91.066 Y92.835 E3.6481
G1 X91.339 Y92.15 E3.67263
G1 X91.685 Y91.499 E3.69715
G1 X92.099 Y90.889 E3.72167
G1 X92.577 Y90.328 E3.74618
M204 S5000
M205 X30 Y30
G0 F3600 X92.971 Y90.496
M204 S500
M205 X20 Y20
G1 F1800 X93.503 Y90.017 E3.76999
G1 X94.085 Y89.602 E3.79377
G1 X94.71 Y89.253 E3.81757
G1 X95.37 Y88.977 E3.84137
G1 X96.056 Y88.776 E3.86514
G1 X96.761 Y88.653 E3.88895
G1 X97.509 Y88.609 E3.91387
G1 X112.491 Y88.61 E4.41217
G1 X113.206 Y88.65 E4.43599
G1 X113.911 Y88.769 E4.45977
G1 X114.598 Y88.967 E4.48355
G1 X115.259 Y89.24 E4.50734
G1 X115.886 Y89.585 E4.53114
G1 X116.47 Y89.997 E4.55491
G1 X117.005 Y90.473 E4.57873
G1 X117.483 Y91.005 E4.60252
G1 X117.899 Y91.587 E4.62631
G1 X118.247 Y92.212 E4.6501
G1 X118.523 Y92.871 E4.67386
G1 X118.724 Y93.558 E4.69767
G1 X118.847 Y94.262 E4.72144
G1 X118.891 Y95.084 E4.74882
G1 X118.759 Y106.407 E5.12545
G1 X118.882 Y110.041 E5.24639
G1 X118.886 Y110.25 E5.25334
G1 X118.891 Y114.984 E5.41079
G1 X118.852 Y115.698 E5.43458
G1 X118.733 Y116.404 E5.45839
G1 X118.536 Y117.091 E5.48216
G1 X118.264 Y117.753 E5.50597
G1 X117.92 Y118.38 E5.52975
G1 X117.508 Y118.965 E5.55355
G1 X117.033 Y119.5 E5.57735
G1 X116.502 Y119.978 E5.60111
G1 X115.92 Y120.395 E5.62492
G1 X115.296 Y120.744 E5.6487
G1 X114.637 Y121.021 E5.67248
G1 X113.95 Y121.222 E5.69629
G1 X113.246 Y121.346 E5.72006
G1 X112.491 Y121.391 E5.74522
G1 X97.509 Y121.391 E6.24352
G1 X96.795 Y121.351 E6.2673
G1 X96.09 Y121.232 E6.29109
G1 X95.402 Y121.034 E6.3149
G1 X94.741 Y120.761 E6.33868
G1 X94.114 Y120.417 E6.36247
G1 X93.53 Y120.004 E6.38626
G1 X92.996 Y119.529 E6.41003
G1 X92.517 Y118.997 E6.43384
G1 X92.102 Y118.415 E6.45761
G1 X91.753 Y117.79 E6.48142
G1 X91.477 Y117.13 E6.50522
G1 X91.276 Y116.444 E6.52899
G1 X91.153 Y115.739 E6.5528
G1 X91.109 Y114.991 E6.57772
G1 X91.109 Y95.009 E7.24232
G1 X91.149 Y94.295 E7.26611
G1 X91.268 Y93.59 E7.28989
G1 X91.466 Y92.902 E7.3137
G1 X91.739 Y92.241 E7.33748
G1 X92.083 Y91.614 E7.36127
G1 X92.496 Y91.03 E7.38506
G1 X92.971 Y90.496 E7.40883
M204 S5000
M205 X30 Y30
G0 F3600 X93.365 Y90.67
M204 S500
M205 X20 Y20
G1 F1800 X93.893 Y90.221 E7.43188
G1 X94.468 Y89.836 E7.4549
G1 X95.085 Y89.521 E7.47794
G1 X95.733 Y89.278 E7.50096
G1 X96.406 Y89.111 E7.52402
G1 X97.092 Y89.023 E7.54703
G1 X97.509 Y89.009 E7.5609
G1 X112.491 Y89.01 E8.05921
G1 X113.183 Y89.05 E8.08226
G1 X113.865 Y89.169 E8.10529
G1 X114.529 Y89.367 E8.12833
G1 X115.165 Y89.639 E8.15134
G1 X115.767 Y89.983 E8.1744
G1 X116.324 Y90.394 E8.19742
G1 X116.83 Y90.866 E8.22044
G1 X117.279 Y91.394 E8.24349
G1 X117.664 Y91.97 E8.26653
G1 X117.98 Y92.586 E8.28956
G1 X118.222 Y93.235 E8.3126
G1 X118.389 Y93.907 E8.33563
G1 X118.477 Y94.594 E8.35867
G1 X118.491 Y95.08 E8.37484
G1 X118.36 Y106.394 E8.75117
G1 X118.483 Y110.055 E8.873
G1 X118.486 Y110.251 E8.87952
G1 X118.491 Y114.985 E9.03698
G1 X118.452 Y115.676 E9.05999
G1 X118.333 Y116.358 E9.08302
G1 X118.137 Y117.022 E9.10605
G1 X117.865 Y117.659 E9.12908
G1 X117.522 Y118.261 E9.15213
G1 X117.111 Y118.819 E9.17518
G1 X116.64 Y119.326 E9.1982
G1 X116.112 Y119.775 E9.22125
G1 X115.537 Y120.16 E9.24426
G1 X114.921 Y120.477 E9.26731
G1 X114.273 Y120.72 E9.29032
G1 X113.601 Y120.887 E9.31336
G1 X112.914 Y120.976 E9.3364
G1 X112.491 Y120.991 E9.35047
G1 X97.509 Y120.991 E9.84878
G1 X96.818 Y120.951 E9.8718
G1 X96.135 Y120.832 E9.89486
G1 X95.472 Y120.634 E9.91787
G1 X94.835 Y120.362 E9.94091
G1 X94.234 Y120.018 E9.96394
G1 X93.676 Y119.607 E9.98699
G1 X93.17 Y119.135 E10.01001
G1 X92.721 Y118.607 E10.03306
G1 X92.336 Y118.032 E10.05607
G1 X92.021 Y117.415 E10.07912
G1 X91.778 Y116.767 E10.10213
G1 X91.611 Y116.094 E10.1252
G1 X91.523 Y115.408 E10.1482
G1 X91.509 Y114.991 E10.16208
G1 X91.509 Y95.009 E10.82668
G1 X91.549 Y94.318 E10.8497
G1 X91.668 Y93.635 E10.87276
G1 X91.866 Y92.972 E10.89577
G1 X92.138 Y92.335 E10.91881
G1 X92.482 Y91.734 E10.94184
G1 X92.893 Y91.176 E10.96489
G1 X93.365 Y90.67 E10.98791
M204 S5000
M205 X30 Y30
G0 F3600 X93.289 Y91.328
M204 S500
M205 X20 Y20
G1 F1800 X93.758 Y90.851 E11.01016
G1 X94.28 Y90.433 E11.0324
G1 X94.849 Y90.081 E11.05465
G1 X95.456 Y89.799 E11.07692
G1 X96.092 Y89.591 E11.09917
G1 X96.748 Y89.461 E11.12141
G1 X97.509 Y89.409 E11.14678
G1 X112.491 Y89.41 E11.64509
G1 X113.159 Y89.45 E11.66735
G1 X113.818 Y89.569 E11.68962
G1 X114.457 Y89.766 E11.71186
G1 X115.068 Y90.038 E11.7341
G1 X115.643 Y90.381 E11.75637
G1 X116.172 Y90.79 E11.77861
G1 X116.649 Y91.259 E11.80086
G1 X117.067 Y91.782 E11.82313
G1 X117.419 Y92.35 E11.84536
G1 X117.701 Y92.957 E11.86762
G1 X117.909 Y93.593 E11.88987
G1 X118.039 Y94.249 E11.91212
G1 X118.091 Y95.075 E11.93964
G1 X117.959 Y106.402 E12.31641
G1 X118.083 Y110.068 E12.43841
G1 X118.086 Y110.251 E12.44449
G1 X118.091 Y114.985 E12.60195
G1 X118.052 Y115.653 E12.6242
G1 X117.933 Y116.311 E12.64644
G1 X117.737 Y116.951 E12.66871
G1 X117.466 Y117.563 E12.69097
G1 X117.123 Y118.137 E12.71321
G1 X116.715 Y118.667 E12.73545
G1 X116.247 Y119.145 E12.7577
G1 X115.724 Y119.563 E12.77997
G1 X115.156 Y119.916 E12.80222
G1 X114.55 Y120.199 E12.82446
G1 X113.914 Y120.407 E12.84672
G1 X113.258 Y120.538 E12.86897
G1 X112.491 Y120.591 E12.89454
G1 X97.509 Y120.591 E13.39284
G1 X96.841 Y120.551 E13.4151
G1 X96.183 Y120.432 E13.43734
G1 X95.543 Y120.235 E13.45961
G1 X94.932 Y119.963 E13.48186
G1 X94.358 Y119.62 E13.5041
G1 X93.828 Y119.211 E13.52636
G1 X93.351 Y118.742 E13.54861
G1 X92.933 Y118.22 E13.57085
G1 X92.581 Y117.651 E13.59311
G1 X92.299 Y117.044 E13.61537
G1 X92.091 Y116.408 E13.63762
G1 X91.961 Y115.752 E13.65987
G1 X91.909 Y114.991 E13.68524
G1 X91.909 Y95.009 E14.34984
G1 X91.949 Y94.341 E14.3721
G1 X92.068 Y93.683 E14.39434
G1 X92.265 Y93.043 E14.41661
G1 X92.537 Y92.432 E14.43886
G1 X92.88 Y91.858 E14.4611
G1 X93.289 Y91.328 E14.48336
M204 S5000
M205 X30 Y30
G0 F3600 X93.684 Y91.486
M204 S500
M205 X20 Y20
G1 F1800 X94.149 Y91.04 E14.50479
G1 X94.666 Y90.655 E14.52623
G1 X95.227 Y90.336 E14.5477
G1 X95.823 Y90.09 E14.56914
G1 X96.444 Y89.919 E14.59056
G1 X97.082 Y89.827 E14.612
G1 X97.509 Y89.809 E14.62622
G1 X112.491 Y89.81 E15.12452
G1 X113.135 Y89.85 E15.14598
G1 X113.768 Y89.969 E15.16741
G1 X114.382 Y90.166 E15.18885
G1 X114.967 Y90.437 E15.2103
G1 X115.514 Y90.779 E15.23175
G1 X116.014 Y91.185 E15.25317
G1 X116.46 Y91.651 E15.27463
G1 X116.845 Y92.168 E15.29607
G1 X117.164 Y92.728 E15.3175
G1 X117.41 Y93.324 E15.33895
G1 X117.581 Y93.946 E15.3604
G1 X117.673 Y94.584 E15.38184
G1 X117.691 Y95.07 E15.39802
G1 X117.559 Y106.411 E15.77525
G1 X117.683 Y110.082 E15.89742
G1 X117.686 Y110.252 E15.90307
G1 X117.691 Y114.986 E16.06052
G1 X117.652 Y115.629 E16.08195
G1 X117.533 Y116.263 E16.10341
G1 X117.337 Y116.877 E16.12484
G1 X117.066 Y117.462 E16.14629
G1 X116.726 Y118.009 E16.16771
G1 X116.32 Y118.51 E16.18916
G1 X115.855 Y118.957 E16.21061
G1 X115.338 Y119.342 E16.23205
G1 X114.778 Y119.661 E16.25348
G1 X114.182 Y119.908 E16.27494
G1 X113.561 Y120.08 E16.29637
G1 X112.923 Y120.173 E16.31782
G1 X112.491 Y120.191 E16.3322
G1 X97.509 Y120.191 E16.8305
G1 X96.866 Y120.151 E16.85193
G1 X96.232 Y120.032 E16.87338
G1 X95.618 Y119.835 E16.89483
G1 X95.033 Y119.564 E16.91628
G1 X94.486 Y119.222 E16.93773
G1 X93.986 Y118.816 E16.95915
G1 X93.54 Y118.351 E16.98058
G1 X93.155 Y117.834 E17.00202
G1 X92.836 Y117.273 E17.02349
G1 X92.59 Y116.677 E17.04493
G1 X92.419 Y116.056 E17.06636
G1 X92.327 Y115.418 E17.0878
G1 X92.309 Y114.991 E17.10201
G1 X92.309 Y95.009 E17.76662
G1 X92.349 Y94.366 E17.78804
G1 X92.468 Y93.732 E17.8095
G1 X92.665 Y93.118 E17.83095
G1 X92.936 Y92.533 E17.85239
G1 X93.278 Y91.986 E17.87385
G1 X93.684 Y91.486 E17.89527
M204 S5000
M205 X30 Y30
G1 F2400 E12.89527
G0 F3600 X96.835 Y95.614
G0 X98.114 Y95.614
G0 X104.1 Y98.166
M204 S500
M205 X20 Y20
;TYPE:WALL-INNER
G1 F2400 E17.89527
G1 F1800 X104.1 Y111.834 E18.34987
G1 X110.02 Y113.609 E18.55543
G1 X111.325 Y114 E18.60074
G1 X109.963 Y114 E18.62363
G1 X109.962 Y114 E18.62366
G1 X98.5 Y114 E19.00489
G1 X98.5 Y96 E19.60357
G1 X109.962 Y96 E19.9848
G1 X109.963 Y96 E19.98483
G1 X111.325 Y96 E20.03013
G1 X110.02 Y96.391 E20.05303
G1 X104.1 Y98.166 E20.25859
M204 S5000
M205 X30 Y30
G0 F3600 X111.42 Y96.031
M204 S500
M205 X20 Y20
G1 F1800 X111.407 Y96 E20.25971
G1 X111.5 Y96 E20.26117
G1 X111.5 Y96.233 E20.26623
G1 X111.42 Y96.031 E20.26688
M204 S5000
M205 X30 Y30
G0 F3600 X104.468 Y98.441
G0 X104.468 Y111.559
G0 X111.5 Y114
M204 S500
M205 X20 Y20
G1 F1800 X111.407 Y114 E20.26997
G1 X111.419 Y113.969
G1 X111.5 Y113.767 E20.27425
G1 X111.5 Y114 E20.27544
M204 S5000
M205 X30 Y30
G0 F3600 X104.468 Y111.559
G0 X104.468 Y98.441
G0 X111.206 Y96.376
G0 X111.163 Y96.466
M204 S500
M205 X20 Y20
G1 F1800 X104.5 Y98.464 E20.5068
G1 X104.5 Y111.536 E20.94157
G1 X111.163 Y113.534 E21.17293
G1 X111.515 Y112.655 E21.20443
G1 X111.9 Y111.693 E21.23889
G1 X111.9 Y112.729 E21.25644
G1 X111.9 Y112.73 E21.25647
G1 X111.9 Y114.4 E21.31201
G1 X98.1 Y114.4 E21.771
G1 X98.1 Y95.6 E22.39629
G1 X111.9 Y95.6 E22.85528
G1 X111.9 Y97.27 E22.91083
G1 X111.9 Y97.271 E22.91086
G1 X111.9 Y98.307 E22.94532
G1 X111.515 Y97.345 E22.96287
G1 X111.163 Y96.466 E22.99436
M204 S5000
M205 X30 Y30
G0 F3600 X110.928 Y96.954
M204 S500
M205 X20 Y20
;TYPE:WALL-OUTER
G1 F1800 X104.9 Y98.762 E23.20368
G1 X104.9 Y111.238 E23.61863
G1 X110.928 Y113.046 E23.82794
G1 X111.901 Y110.616 E23.91501
G1 X111.907 Y110.6 E23.91557
G1 X112.3 Y110.6 E23.92865
G1 X112.3 Y110.618 E23.92924
G1 X112.3 Y114.8 E24.06833
G1 X97.7 Y114.8 E24.55393
G1 X97.7 Y95.2 E25.20583
G1 X112.3 Y95.2 E25.69143
G1 X112.3 Y99.382 E25.83052
G1 X112.3 Y99.4 E25.83112
G1 X111.907 Y99.4 E25.84419
G1 X111.901 Y99.384 E25.84475
G1 X110.928 Y96.954 E25.93181
M204 S5000
M205 X30 Y30
G0 F3600 X110.737 Y97.011
G0 X110.595 Y96.533
G0 X108.665 Y96.39
M204 S500
M205 X20 Y20
;TYPE:SKIN
G1 F1800 X103.71 Y97.876 E26.10387
G1 X103.71 Y112.124 E26.57776
G1 X108.665 Y113.61 E26.74982
G1 X98.89 Y113.61 E27.07493
G1 X98.89 Y96.39 E27.64767
G1 X108.665 Y96.39 E27.97279
M204 S5000
M205 X30 Y30
G0 F3600 X104.468 Y98.441
G0 X101.31 Y111.21
M204 S500
M205 X20 Y20
G1 F1800 X101.29 Y111.21 E27.97346
G1 X101.29 Y98.79 E28.38655
G1 X101.31 Y98.79 E28.38721
G1 X101.31 Y111.21 E28.8003
M204 S5000
M205 X30 Y30
G0 F3600 X101.71 Y111.61
M204 S500
M205 X20 Y20
G1 F1800 X100.89 Y111.61 E28.82758
G1 X100.89 Y98.39 E29.26728
G1 X101.71 Y98.39 E29.29455
G1 X101.71 Y111.61 E29.73425
M204 S5000
M205 X30 Y30
G0 F3600 X102.11 Y112.01
M204 S500
M205 X20 Y20
G1 F1800 X100.49 Y112.01 E29.78813
G1 X100.49 Y97.99 E30.25444
G1 X102.11 Y97.99 E30.30832
G1 X102.11 Y112.01 E30.77463
M204 S5000
M205 X30 Y30
G0 F3600 X102.51 Y112.41
M204 S500
M205 X20 Y20
G1 F1800 X100.09 Y112.41 E30.85512
G1 X100.09 Y97.59 E31.34803
G1 X102.51 Y97.59 E31.42852
G1 X102.51 Y112.41 E31.92143
M204 S5000
M205 X30 Y30
G0 F3600 X102.91 Y112.72
M204 S500
M205 X20 Y20
G1 F1800 X103.21 Y112.81 E31.93185
G1 X99.69 Y112.81 E32.04893
G1 X99.69 Y97.19 E32.56845
G1 X103.21 Y97.19 E32.68553
G1 X102.91 Y97.28 E32.69594
G1 X102.91 Y112.72 E33.20948
M204 S5000
M205 X30 Y30
G0 F3600 X103.31 Y112.422
M104 S210
M204 S500
M205 X20 Y20
G1 F1800 X105.937 Y113.21 E33.3007
G1 X99.29 Y113.21 E33.52178
G1 X99.29 Y96.79 E34.06791
G1 X105.937 Y96.79 E34.28899
G1 X103.31 Y97.578 E34.38021
G1 X103.31 Y112.422 E34.87393
M204 S5000
M205 X30 Y30
G0 F3600 X103.54 Y112.873
G1 F1800 X103.83 Y112.881 E34.87938
G1 X104.173 Y112.941 E34.88326
G0 F3600 X104.226 Y112.994
G0 X106.152 Y113.223
G0 X106.245 Y113.316
G1 F1800 X106.475 Y113.263 E34.88887
G1 X106.818 Y113.323 E34.89429
G1 X107.161 Y113.384 E34.89686
G0 F3600 X107.186 Y113.409
G0 X104.468 Y111.559
G0 X104.468 Y98.441
G0 X106.241 Y96.907
G0 X106.199 Y96.865
G1 F1800 X106.332 Y96.715 E34.9008
G1 X106.582 Y96.683 E34.90591
G1 X106.833 Y96.65 E34.90951
G1 X107.083 Y96.617 E34.91157
G0 F3600 X107.111 Y96.645
G0 X104.166 Y97.095
G0 X104.121 Y97.05
G1 F1800 X103.87 Y97.082 E34.91443
G1 X103.62 Y97.115 E34.91885
G1 X103.462 Y97.239 E34.92266
G0 F3600 X103.514 Y97.291
G0 X104.1 Y98.166
;TIME_ELAPSED:47.304208
;LAYER:1
M140 S60
M106 S191.3
G0 F5400 X104.1 Y98.166 Z0.4
M204 S500
M205 X20 Y20
;TYPE:WALL-INNER
G1 F2700 X104.1 Y111.834 E35.37726
G1 X110.02 Y113.609 E35.58282
G1 X111.325 Y114 E35.62813
G1 X109.963 Y114 E35.65102
G1 X109.962 Y114 E35.65105
G1 X98.5 Y114 E36.03228
G1 X98.5 Y96 E36.63096
G1 X109.962 Y96 E37.01219
G1 X109.963 Y96 E37.01223
G1 X111.325 Y96 E37.05753
G1 X110.02 Y96.391 E37.08042
G1 X104.1 Y98.166 E37.28598
M204 S5000
M205 X30 Y30
G0 F5400 X111.42 Y96.031
M204 S500
M205 X20 Y20
G1 F2700 X111.407 Y96 E37.2871
G1 X111.5 Y96 E37.28856
G1 X111.5 Y96.233 E37.29362
G1 X111.42 Y96.031 E37.29427
M204 S5000
M205 X30 Y30
G0 F5400 X104.468 Y98.441
G0 X104.468 Y111.559
G0 X111.5 Y114
M204 S500
M205 X20 Y20
G1 F2700 X111.407 Y114 E37.29736
G1 X111.419 Y113.969
G1 X111.5 Y113.767 E37.30164
G1 X111.5 Y114 E37.30283
M204 S5000
M205 X30 Y30
G0 F5400 X104.468 Y111.559
G0 X104.468 Y98.441
G0 X111.206 Y96.376
G0 X111.163 Y96.466
M204 S500
M205 X20 Y20
G1 F2700 X104.5 Y98.464 E37.53419
G1 X104.5 Y111.536 E37.96897
G1 X111.163 Y113.534 E38.20033
G1 X111.515 Y112.655 E38.23182
G1 X111.9 Y111.693 E38.26628
G1 X111.9 Y112.729 E38.28383
G1 X111.9 Y112.73 E38.28386
G1 X111.9 Y114.4 E38.33941
G1 X98.1 Y114.4 E38.7984
G1 X98.1 Y95.6 E39.42369
G1 X111.9 Y95.6 E39.88268
G1 X111.9 Y97.27 E39.93822
G1 X111.9 Y97.271 E39.93825
G1 X111.9 Y98.307 E39.97271
G1 X111.515 Y97.345 E39.99026
G1 X111.163 Y96.466 E40.02175
M204 S5000
M205 X30 Y30
G0 F5400 X110.928 Y96.954
M204 S500
M205 X20 Y20
;TYPE:WALL-OUTER
G1 F1800 X104.9 Y98.762 E40.23107
G1 X104.9 Y111.238 E40.64602
G1 X110.928 Y113.046 E40.85534
G1 X111.901 Y110.616 E40.9424
G1 X111.907 Y110.6 E40.94297
G1 X112.3 Y110.6 E40.95604
G1 X112.3 Y110.618 E40.95663
G1 X112.3 Y114.8 E41.09572
G1 X97.7 Y114.8 E41.58132
G1 X97.7 Y95.2 E42.23322
G1 X112.3 Y95.2 E42.71882
G1 X112.3 Y99.382 E42.85791
G1 X112.3 Y99.4 E42.85851
G1 X111.907 Y99.4 E42.87158
G1 X111.901 Y99.384 E42.87215
