;FLAVOR:Marlin
;TIME:597
;Filament used: 0.548364m
;Layer height: 0.2
;Generated with Cura_SteamEngine 3.4.1
M190 S65
M104 S220
M109 S220
M82 ;absolute extrusion mode
G28 ;Home
G1 Z15.0 F6000 ;Move the platform down 15mm
;Prime the extruder
G92 E0
G1 F200 E3
G92 E0
G92 E0
G1 F2400 E-5
;LAYER_COUNT:41
;LAYER:0
M106 S191.3
M204 S5000
M205 X30 Y30
G0 F3600 X89.2 Y87.205 Z0.2
M204 S500
M205 X20 Y20
;TYPE:SKIRT
G1 F2400 E0
G1 F1800 X89.882 Y86.537 E0.03175
G1 X90.618 Y85.928 E0.06352
G1 X91.402 Y85.383 E0.09528
G1 X92.229 Y84.906 E0.12704
G1 X93.093 Y84.499 E0.1588
G1 X93.988 Y84.167 E0.19055
G1 X94.908 Y83.91 E0.22232
G1 X95.845 Y83.731 E0.25405
G1 X96.795 Y83.631 E0.28582
G1 X97.511 Y83.609 E0.30965
G1 X112.492 Y83.61 E0.80792
G1 X113.446 Y83.65 E0.83968
G1 X114.393 Y83.77 E0.87142
G1 X115.327 Y83.968 E0.90318
G1 X116.241 Y84.244 E0.93494
G1 X117.129 Y84.596 E0.96671
G1 X117.984 Y85.021 E0.99846
G1 X118.8 Y85.515 E1.03019
G1 X119.573 Y86.076 E1.06196
G1 X120.295 Y86.7 E1.0937
G1 X120.963 Y87.383 E1.12547
G1 X121.572 Y88.118 E1.15722
G1 X122.117 Y88.902 E1.18898
G1 X122.594 Y89.729 E1.22073
G1 X123.001 Y90.593 E1.2525
G1 X123.333 Y91.488 E1.28425
G1 X123.59 Y92.408 E1.31602
G1 X123.769 Y93.346 E1.34778
G1 X123.869 Y94.295 E1.37952
G1 X123.89 Y95.144 E1.40776
G1 X123.757 Y106.421 E1.78286
G1 X123.87 Y109.895 E1.89847
G1 X123.876 Y110.232 E1.90968
G1 X123.89 Y114.955 E2.06677
G1 X123.853 Y115.909 E2.09852
G1 X123.736 Y116.857 E2.13029
G1 X123.54 Y117.791 E2.16203
G1 X123.267 Y118.706 E2.19379
G1 X122.918 Y119.595 E2.22556
G1 X122.496 Y120.451 E2.2573
G1 X122.004 Y121.27 E2.28908
G1 X121.445 Y122.044 E2.32083
G1 X120.823 Y122.768 E2.35258
G1 X120.143 Y123.438 E2.38433
G1 X119.409 Y124.049 E2.4161
G1 X118.627 Y124.596 E2.44784
G1 X117.801 Y125.076 E2.47961
G1 X116.939 Y125.485 E2.51134
G1 X116.045 Y125.821 E2.54311
G1 X115.126 Y126.08 E2.57487
G1 X114.189 Y126.262 E2.60661
G1 X113.239 Y126.364 E2.63839
G1 X112.49 Y126.389 E2.66332
G1 X97.509 Y126.389 E3.16159
G1 X96.555 Y126.349 E3.19335
G1 X95.608 Y126.229 E3.2251
G1 X94.674 Y126.031 E3.25685
G1 X93.76 Y125.755 E3.28861
G1 X92.872 Y125.403 E3.32038
G1 X92.017 Y124.979 E3.35212
G1 X91.2 Y124.484 E3.38389
G1 X90.428 Y123.923 E3.41563
G1 X89.705 Y123.299 E3.4474
G1 X89.037 Y122.617 E3.47915
G1 X88.428 Y121.881 E3.51092
G1 X87.884 Y121.097 E3.54266
G1 X87.406 Y120.27 E3.57443
G1 X87 Y119.407 E3.60615
G1 X86.667 Y118.512 E3.63791
G1 X86.41 Y117.592 E3.66968
G1 X86.231 Y116.654 E3.70144
G1 X86.131 Y115.705 E3.73318
G1 X86.109 Y114.988 E3.75704
G1 X86.11 Y95.008 E4.42158
G1 X86.15 Y94.054 E4.45334
G1 X86.27 Y93.107 E4.48509
G1 X86.468 Y92.173 E4.51684
G1 X86.744 Y91.259 E4.5486
G1 X87.096 Y90.372 E4.58034
G1 X87.52 Y89.516 E4.61211
G1 X88.015 Y88.7 E4.64385
G1 X88.576 Y87.927 E4.67562
G1 X89.2 Y87.205 E4.70736
M204 S5000
M205 X30 Y30
G0 F3600 X89.595 Y87.37
M204 S500
M205 X20 Y20
G1 F1800 X90.274 Y86.724 E4.73853
G1 X91.006 Y86.138 E4.76972
G1 X91.786 Y85.616 E4.80093
G1 X92.607 Y85.162 E4.83214
G1 X93.463 Y84.78 E4.86332
G1 X94.349 Y84.473 E4.8945
G1 X95.258 Y84.242 E4.9257
G1 X96.184 Y84.089 E4.95691
G1 X97.511 Y84.009 E5.00113
G1 X112.492 Y84.01 E5.4994
G1 X113.429 Y84.05 E5.53059
G1 X114.359 Y84.17 E5.56178
G1 X115.276 Y84.368 E5.59298
G1 X116.172 Y84.644 E5.62417
G1 X117.042 Y84.995 E5.65537
G1 X117.878 Y85.419 E5.68655
G1 X118.675 Y85.913 E5.71773
G1 X119.428 Y86.473 E5.74895
G1 X120.13 Y87.095 E5.78014
G1 X120.776 Y87.774 E5.81131
G1 X121.363 Y88.507 E5.84255
G1 X121.884 Y89.286 E5.87372
G1 X122.338 Y90.107 E5.90492
G1 X122.72 Y90.963 E5.9361
G1 X123.027 Y91.849 E5.96728
G1 X123.258 Y92.758 E5.99848
G1 X123.411 Y93.684 E6.0297
G1 X123.484 Y94.619 E6.06089
G1 X123.49 Y95.14 E6.07822
G1 X123.357 Y106.43 E6.45375
G1 X123.47 Y109.908 E6.56949
G1 X123.476 Y110.233 E6.5803
G1 X123.49 Y114.956 E6.73739
G1 X123.453 Y115.894 E6.76861
G1 X123.336 Y116.824 E6.79979
G1 X123.14 Y117.741 E6.83098
G1 X122.867 Y118.639 E6.86219
G1 X122.518 Y119.509 E6.89337
G1 X122.097 Y120.347 E6.92456
G1 X121.606 Y121.146 E6.95576
G1 X121.048 Y121.9 E6.98695
G1 X120.428 Y122.604 E7.01815
G1 X119.751 Y123.252 E7.04932
G1 X119.02 Y123.841 E7.08055
G1 X118.243 Y124.365 E7.11172
G1 X117.423 Y124.821 E7.14293
G1 X116.568 Y125.205 E7.1741
G1 X115.682 Y125.516 E7.20533
G1 X114.774 Y125.749 E7.23651
G1 X113.849 Y125.905 E7.26771
G1 X112.49 Y125.989 E7.313
G1 X97.509 Y125.989 E7.81127
G1 X96.572 Y125.949 E7.84246
G1 X95.642 Y125.829 E7.87365
G1 X94.725 Y125.631 E7.90485
G1 X93.829 Y125.355 E7.93603
G1 X92.959 Y125.004 E7.96724
G1 X92.123 Y124.58 E7.99841
G1 X91.325 Y124.086 E8.02963
G1 X90.573 Y123.526 E8.06081
G1 X89.871 Y122.905 E8.09199
G1 X89.224 Y122.225 E8.1232
G1 X88.638 Y121.493 E8.15439
G1 X88.116 Y120.714 E8.18558
G1 X87.663 Y119.893 E8.21677
G1 X87.281 Y119.036 E8.24798
G1 X86.973 Y118.15 E8.27917
G1 X86.742 Y117.241 E8.31037
G1 X86.589 Y116.316 E8.34155
G1 X86.509 Y114.988 E8.3858
G1 X86.51 Y95.008 E9.05034
G1 X86.55 Y94.071 E9.08153
G1 X86.67 Y93.141 E9.11272
G1 X86.868 Y92.225 E9.14389
G1 X87.144 Y91.328 E9.1751
G1 X87.495 Y90.459 E9.20628
G1 X87.919 Y89.622 E9.23748
G1 X88.413 Y88.825 E9.26867
G1 X88.973 Y88.072 E9.29988
G1 X89.595 Y87.37 E9.33108
M204 S5000
M205 X30 Y30
G0 F3600 X89.989 Y87.539
M204 S500
M205 X20 Y20
G1 F1800 X90.666 Y86.915 E9.3617
G1 X91.394 Y86.352 E9.39231
G1 X92.168 Y85.853 E9.42294
G1 X92.983 Y85.424 E9.45357
G1 X93.831 Y85.068 E9.48416
G1 X94.708 Y84.786 E9.5148
G1 X95.606 Y84.581 E9.54544
G1 X96.518 Y84.456 E9.57605
G1 X97.511 Y84.409 E9.60912
G1 X112.492 Y84.41 E10.10739
G1 X113.411 Y84.45 E10.13798
G1 X114.324 Y84.57 E10.16861
G1 X115.223 Y84.768 E10.19923
G1 X116.102 Y85.044 E10.22987
G1 X116.953 Y85.395 E10.26049
G1 X117.77 Y85.818 E10.29109
G1 X118.548 Y86.311 E10.32172
G1 X119.28 Y86.869 E10.35234
G1 X119.961 Y87.489 E10.38297
G1 X120.585 Y88.166 E10.41359
G1 X121.149 Y88.894 E10.44422
G1 X121.647 Y89.668 E10.47483
G1 X122.076 Y90.483 E10.50547
G1 X122.432 Y91.332 E10.53609
G1 X122.714 Y92.208 E10.56669
G1 X122.919 Y93.106 E10.59733
G1 X123.044 Y94.018 E10.62795
G1 X123.09 Y95.135 E10.66513
G1 X122.957 Y106.438 E11.04109
G1 X123.07 Y109.921 E11.157
G1 X123.076 Y110.235 E11.16745
G1 X123.09 Y114.958 E11.32453
G1 X123.053 Y115.877 E11.35513
G1 X122.936 Y116.791 E11.38577
G1 X122.74 Y117.69 E11.41638
G1 X122.467 Y118.57 E11.44702
G1 X122.119 Y119.422 E11.47763
G1 X121.698 Y120.24 E11.50823
G1 X121.207 Y121.02 E11.53889
G1 X120.651 Y121.753 E11.56949
G1 X120.033 Y122.436 E11.60012
G1 X119.359 Y123.062 E11.63072
G1 X118.632 Y123.628 E11.66136
G1 X117.859 Y124.128 E11.69198
G1 X117.046 Y124.56 E11.7226
G1 X116.199 Y124.919 E11.7532
G1 X115.323 Y125.203 E11.78383
G1 X114.426 Y125.411 E11.81445
G1 X113.514 Y125.539 E11.84508
G1 X112.49 Y125.589 E11.87918
G1 X97.509 Y125.589 E12.37745
G1 X96.589 Y125.549 E12.40808
G1 X95.676 Y125.429 E12.43871
G1 X94.777 Y125.231 E12.46933
G1 X93.899 Y124.955 E12.49994
G1 X93.048 Y124.604 E12.53055
G1 X92.23 Y124.181 E12.56118
G1 X91.453 Y123.688 E12.59179
G1 X90.721 Y123.13 E12.6224
G1 X90.04 Y122.51 E12.65303
G1 X89.415 Y121.834 E12.68366
G1 X88.852 Y121.106 E12.71426
G1 X88.354 Y120.331 E12.7449
G1 X87.925 Y119.517 E12.77551
G1 X87.568 Y118.668 E12.80614
G1 X87.286 Y117.792 E12.83675
G1 X87.082 Y116.894 E12.86738
G1 X86.956 Y115.982 E12.898
G1 X86.909 Y114.988 E12.9311
G1 X86.91 Y95.008 E13.59563
G1 X86.95 Y94.089 E13.62623
G1 X87.07 Y93.176 E13.65686
G1 X87.268 Y92.277 E13.68747
G1 X87.544 Y91.398 E13.71812
G1 X87.895 Y90.547 E13.74873
G1 X88.318 Y89.73 E13.77933
G1 X88.811 Y88.952 E13.80997
G1 X89.369 Y88.22 E13.84058
G1 X89.989 Y87.539 E13.87121
M204 S5000
M205 X30 Y30
G0 F3600 X90.383 Y87.712
M204 S500
M205 X20 Y20
G1 F1800 X91.056 Y87.11 E13.90125
G1 X91.78 Y86.57 E13.93129
G1 X92.549 Y86.097 E13.96131
G1 X93.357 Y85.693 E13.99136
G1 X94.197 Y85.362 E14.02139
G1 X95.063 Y85.107 E14.05142
G1 X95.949 Y84.929 E14.08147
G1 X96.847 Y84.831 E14.11152
G1 X97.511 Y84.809 E14.13362
G1 X112.492 Y84.81 E14.63189
G1 X113.394 Y84.85 E14.66192
G1 X114.289 Y84.97 E14.69195
G1 X115.17 Y85.168 E14.72198
G1 X116.03 Y85.444 E14.75202
G1 X116.862 Y85.794 E14.78204
G1 X117.66 Y86.217 E14.81208
G1 X118.418 Y86.709 E14.84214
G1 X119.129 Y87.266 E14.87218
G1 X119.788 Y87.883 E14.90221
G1 X120.39 Y88.556 E14.93224
G1 X120.93 Y89.28 E14.96228
G1 X121.403 Y90.049 E14.99231
G1 X121.807 Y90.857 E15.02235
G1 X122.138 Y91.697 E15.05238
G1 X122.393 Y92.564 E15.08244
G1 X122.571 Y93.449 E15.11247
G1 X122.669 Y94.347 E15.14251
G1 X122.69 Y95.13 E15.16856
G1 X122.557 Y106.424 E15.54423
G1 X122.671 Y109.934 E15.66103
G1 X122.676 Y110.236 E15.67108
G1 X122.69 Y114.959 E15.82817
G1 X122.653 Y115.861 E15.85819
G1 X122.536 Y116.757 E15.88825
G1 X122.34 Y117.638 E15.91827
G1 X122.067 Y118.499 E15.94831
G1 X121.719 Y119.332 E15.97834
G1 X121.299 Y120.132 E16.00839
G1 X120.809 Y120.891 E16.03844
G1 X120.255 Y121.603 E16.06844
G1 X119.639 Y122.264 E16.09849
G1 X118.968 Y122.868 E16.12852
G1 X118.245 Y123.41 E16.15857
G1 X117.478 Y123.886 E16.1886
G1 X116.671 Y124.293 E16.21866
G1 X115.832 Y124.626 E16.24868
G1 X114.966 Y124.884 E16.27874
G1 X114.081 Y125.064 E16.30877
G1 X113.184 Y125.165 E16.3388
G1 X112.49 Y125.189 E16.36189
G1 X97.509 Y125.189 E16.86016
G1 X96.607 Y125.149 E16.89019
G1 X95.712 Y125.029 E16.92023
G1 X94.831 Y124.831 E16.95026
G1 X93.971 Y124.556 E16.98029
G1 X93.138 Y124.205 E17.01036
G1 X92.34 Y123.782 E17.0404
G1 X91.583 Y123.291 E17.07041
G1 X90.872 Y122.734 E17.10045
G1 X90.212 Y122.116 E17.13052
G1 X89.611 Y121.443 E17.16053
G1 X89.071 Y120.719 E17.19057
G1 X88.597 Y119.95 E17.22062
G1 X88.193 Y119.143 E17.25063
G1 X87.862 Y118.302 E17.28069
G1 X87.607 Y117.436 E17.31072
G1 X87.429 Y116.551 E17.34074
G1 X87.331 Y115.653 E17.37079
G1 X87.309 Y114.988 E17.39292
G1 X87.31 Y95.008 E18.05746
G1 X87.35 Y94.106 E18.08749
G1 X87.47 Y93.211 E18.11752
G1 X87.668 Y92.33 E18.14755
G1 X87.944 Y91.47 E18.17759
G1 X88.294 Y90.638 E18.20762
G1 X88.717 Y89.84 E18.23766
G1 X89.209 Y89.082 E18.26771
G1 X89.765 Y88.371 E18.29773
G1 X90.383 Y87.712 E18.32778
M204 S5000
M205 X30 Y30
G1 F2400 E13.32778
G0 F3600 X98.114 Y94.335
G0 X98.114 Y95.614
G0 X104.668 Y111.619
G0 X111.302 Y113.993
M204 S500
M205 X20 Y20
;TYPE:WALL-INNER
G1 F2400 E18.32778
G1 F1800 X111.326 Y113.931 E18.32999
G1 X111.5 Y113.499 E18.34548
G1 X111.5 Y114 E18.35005
G1 X111.302 Y114 E18.35374
G1 X109.963 Y114 E18.39828
G1 X98.5 Y114 E18.77954
G1 X98.5 Y96 E19.37822
G1 X109.963 Y96 E19.75948
G1 X111.302 Y96 E19.80402
G1 X111.5 Y96 E19.8106
G1 X111.5 Y96.501 E19.82726
G1 X111.327 Y96.07 E19.83061
G1 X111.302 Y96.007
G1 X110.02 Y96.391 E19.85349
G1 X104.3 Y98.106 E20.0521
G1 X104.3 Y111.894 E20.51069
G1 X110.02 Y113.609 E20.70931
G1 X111.302 Y113.993 E20.73218
M204 S5000
M205 X30 Y30
G0 F3600 X104.668 Y111.619
G0 X104.668 Y98.381
G0 X111.11 Y96.405
G0 X111.067 Y96.495
M204 S500
M205 X20 Y20
G1 F1800 X104.7 Y98.404 E20.95326
G1 X104.7 Y111.596 E21.39203
G1 X111.067 Y113.505 E21.61311
G1 X111.514 Y112.388 E21.65313
G1 X111.899 Y111.426 E21.68759
G1 X111.899 Y112.462 E21.70514
G1 X111.899 Y112.463 E21.70517
G1 X111.9 Y114.2 E21.76294
G1 X111.9 Y114.4 E21.76959
G1 X111.7 Y114.4 E21.7739
G1 X98.1 Y114.4 E22.22624
G1 X98.1 Y95.6 E22.85153
G1 X111.7 Y95.6 E23.30387
G1 X111.9 Y95.6 E23.31052
G1 X111.9 Y95.8 E23.31483
G1 X111.899 Y97.537 E23.3726
G1 X111.899 Y97.538 E23.37263
G1 X111.899 Y98.574 E23.40709
G1 X111.514 Y97.612 E23.42464
G1 X111.067 Y96.495 E23.46465
M204 S5000
M205 X30 Y30
G0 F3600 X110.832 Y96.983
M204 S500
M205 X20 Y20
;TYPE:WALL-OUTER
G1 F1800 X105.1 Y98.702 E23.66369
G1 X105.1 Y111.298 E24.08263
G1 X110.832 Y113.017 E24.28167
G1 X111.839 Y110.5 E24.37184
G1 X112.299 Y110.503 E24.38714
G1 X112.3 Y114.6 E24.5234
G1 X112.3 Y114.8 E24.53006
G1 X112.1 Y114.8 E24.53436
G1 X97.7 Y114.8 E25.01331
G1 X97.7 Y95.2 E25.66521
G1 X112.1 Y95.2 E26.14415
G1 X112.3 Y95.2 E26.15081
G1 X112.3 Y95.4 E26.15511
G1 X112.299 Y99.498 E26.29141
G1 X111.839 Y99.5 E26.30671
G1 X110.832 Y96.983 E26.39688
M204 S5000
M205 X30 Y30
G0 F3600 X110.641 Y97.04
G0 X110.499 Y96.561
G0 X108.666 Y96.39
M204 S500
M205 X20 Y20
;TYPE:SKIN
G1 F1800 X103.91 Y97.816 E26.56202
G1 X103.91 Y112.184 E27.0399
G1 X108.666 Y113.61 E27.20505
G1 X98.89 Y113.61 E27.5302
G1 X98.89 Y96.39 E28.10294
G1 X108.666 Y96.39 E28.42809
M204 S5000
M205 X30 Y30
G0 F3600 X104.668 Y98.381
G0 X101.51 Y111.21
M204 S500
M205 X20 Y20
G1 F1800 X101.29 Y111.21 E28.4354
G1 X101.29 Y98.79 E28.8485
G1 X101.51 Y98.79 E28.85581
G1 X101.51 Y111.21 E29.2689
M204 S5000
M205 X30 Y30
G0 F3600 X101.91 Y111.61
M204 S500
M205 X20 Y20
G1 F1800 X100.89 Y111.61 E29.30283
G1 X100.89 Y98.39 E29.74253
G1 X101.91 Y98.39 E29.77645
G1 X101.91 Y111.61 E30.21615
M204 S5000
M205 X30 Y30
G0 F3600 X102.31 Y112.01
M204 S500
M205 X20 Y20
G1 F1800 X100.49 Y112.01 E30.27669
G1 X100.49 Y97.99 E30.74299
G1 X102.31 Y97.99 E30.80353
G1 X102.31 Y112.01 E31.26983
M204 S5000
M205 X30 Y30
G0 F3600 X102.71 Y112.41
M204 S500
M205 X20 Y20
G1 F1800 X100.09 Y112.41 E31.35698
G1 X100.09 Y97.59 E31.84989
G1 X102.71 Y97.59 E31.93703
G1 X102.71 Y112.41 E32.42995
M204 S5000
M205 X30 Y30
G0 F3600 X103.11 Y112.78
M204 S500
M205 X20 Y20
G1 F1800 X103.21 Y112.81 E32.43342
G1 X99.69 Y112.81 E32.5505
G1 X99.69 Y97.19 E33.07002
G1 X103.21 Y97.19 E33.18709
G1 X103.11 Y97.22 E33.19057
G1 X103.11 Y112.78 E33.70809
M204 S5000
M205 X30 Y30
G0 F3600 X103.51 Y112.482
M104 S210
M204 S500
M205 X20 Y20
G1 F1800 X105.938 Y113.21 E33.7924
G1 X99.29 Y113.21 E34.01352
G1 X99.29 Y96.79 E34.55965
G1 X105.938 Y96.79 E34.78076
G1 X103.51 Y97.518 E34.86507
G1 X103.51 Y112.482 E35.36277
M204 S5000
M205 X30 Y30
G0 F3600 X103.54 Y112.873
G1 F1800 X103.83 Y112.881 E35.36822
G1 X104.173 Y112.941 E35.3721
G0 F3600 X104.226 Y112.994
G0 X106.152 Y113.224
G0 X106.245 Y113.316
G1 F1800 X106.475 Y113.263 E35.3777
G1 X106.818 Y113.323 E35.38311
G1 X107.161 Y113.384 E35.38569
G0 F3600 X107.186 Y113.409
G0 X104.668 Y111.619
G0 X104.668 Y98.381
G0 X106.241 Y96.907
G0 X106.2 Y96.866
G1 F1800 X106.332 Y96.716 E35.38959
G1 X106.582 Y96.683 E35.39475
G1 X106.833 Y96.65 E35.39837
G1 X107.083 Y96.618 E35.40043
G0 F3600 X107.111 Y96.646
G0 X104.166 Y97.095
G0 X104.121 Y97.05
G1 F1800 X103.87 Y97.082 E35.40329
G1 X103.62 Y97.115 E35.40771
G1 X103.462 Y97.239 E35.41152
G0 F3600 X103.514 Y97.291
G0 X104.668 Y111.619
G0 X111.302 Y113.993
;TIME_ELAPSED:47.838127
;LAYER:1
M140 S65
G0 F5400 X111.302 Y113.993 Z0.4
M204 S500
M205 X20 Y20
;TYPE:WALL-INNER
G1 F2700 X111.326 Y113.931 E35.41373
G1 X111.5 Y113.499 E35.42922
G1 X111.5 Y114 E35.43379
G1 X111.302 Y114 E35.43748
G1 X109.963 Y114 E35.48202
G1 X98.5 Y114 E35.86328
G1 X98.5 Y96 E36.46196
G1 X109.963 Y96 E36.84322
G1 X111.302 Y96 E36.88775
G1 X111.5 Y96 E36.89434
G1 X111.5 Y96.501 E36.911
G1 X111.327 Y96.07 E36.91435
G1 X111.302 Y96.007
G1 X110.02 Y96.391 E36.93723
G1 X104.3 Y98.106 E37.13584
G1 X104.3 Y111.894 E37.59443
G1 X110.02 Y113.609 E37.79305
G1 X111.302 Y113.993 E37.81592
M204 S5000
M205 X30 Y30
G0 F5400 X104.668 Y111.619
G0 X104.668 Y98.381
G0 X111.11 Y96.405
G0 X111.067 Y96.495
M204 S500
M205 X20 Y20
G1 F2700 X104.7 Y98.404 E38.037
G1 X104.7 Y111.596 E38.47577
G1 X111.067 Y113.505 E38.69685
G1 X111.514 Y112.388 E38.73687
G1 X111.899 Y111.426 E38.77133
G1 X111.899 Y112.462 E38.78887
G1 X111.899 Y112.463 E38.78891
G1 X111.9 Y114.2 E38.84668
G1 X111.9 Y114.4 E38.85333
G1 X111.7 Y114.4 E38.85764
G1 X98.1 Y114.4 E39.30998
G1 X98.1 Y95.6 E39.93527
G1 X111.7 Y95.6 E40.38761
G1 X111.9 Y95.6 E40.39426
G1 X111.9 Y95.8 E40.39857
G1 X111.899 Y97.537 E40.45634
G1 X111.899 Y97.538 E40.45637
G1 X111.899 Y98.574 E40.49083
G1 X111.514 Y97.612 E40.50838
G1 X111.067 Y96.495 E40.54839
M204 S5000
M205 X30 Y30
G0 F5400 X110.832 Y96.983
M204 S500
M205 X20 Y20
;TYPE:WALL-OUTER
G1 F1800 X105.1 Y98.702 E40.74743
G1 X105.1 Y111.298 E41.16637
G1 X110.832 Y113.017 E41.36541
G1 X111.839 Y110.5 E41.45558
G1 X112.299 Y110.5 E41.47088
G1 X112.3 Y114.6 E41.60724
G1 X112.3 Y114.8 E41.61389
G1 X112.1 Y114.8 E41.6182
G1 X97.7 Y114.8 E42.09715
G1 X97.7 Y95.2 E42.74905
G1 X112.1 Y95.2 E43.22799
G1 X112.3 Y95.2 E43.23464
