;FLAVOR:Marlin
;TIME:3748
;Filament used: 3.05696m
;Layer height: 0.2
;Generated with Cura_SteamEngine 3.4.1
M190 S65
M104 S225
M109 S225
M82 ;absolute extrusion mode
G28 ;Home
G1 Z15.0 F6000 ;Move the platform down 15mm
;Prime the extruder
G92 E0
G1 F200 E3
G92 E0
G92 E0
G1 F2400 E-5
;LAYER_COUNT:101
;LAYER:0
M107
M204 S5000
M205 X30 Y30
G0 F3600 X66.576 Y88.758 Z0.2
M204 S500
M205 X20 Y20
;TYPE:SKIRT
G1 F2400 E0
G1 F1800 X67.226 Y88.296 E0.01989
G1 X67.919 Y87.902 E0.03978
G1 X68.648 Y87.579 E0.05967
G1 X69.406 Y87.331 E0.07956
G1 X70.184 Y87.16 E0.09943
G1 X70.976 Y87.067 E0.11933
G1 X71.5 Y87.05 E0.1324
G1 X81.5 Y87.05 E0.38185
G1 X82.296 Y87.09 E0.40174
G1 X83.084 Y87.209 E0.42162
G1 X83.857 Y87.407 E0.44152
G1 X84.605 Y87.682 E0.4614
G1 X85.323 Y88.029 E0.48129
G1 X86.002 Y88.447 E0.50118
G1 X86.635 Y88.931 E0.52106
G1 X87.217 Y89.476 E0.54095
G1 X87.742 Y90.076 E0.56084
G1 X88.1 Y90.58 E0.57626
G1 X90.784 Y91.385 E0.64616
G1 X91.536 Y91.652 E0.66606
G1 X92.256 Y91.993 E0.68594
G1 X92.939 Y92.405 E0.70583
G1 X93.577 Y92.883 E0.72572
G1 X94.165 Y93.422 E0.74562
G1 X94.695 Y94.017 E0.7655
G1 X95.163 Y94.663 E0.78539
G1 X95.564 Y95.352 E0.80528
G1 X95.893 Y96.078 E0.82516
G1 X96.149 Y96.833 E0.84505
G1 X96.328 Y97.61 E0.86494
G1 X96.427 Y98.401 E0.88483
G1 X96.45 Y99 E0.89978
G1 X96.45 Y111 E1.19912
G1 X96.41 Y111.796 E1.219
G1 X96.291 Y112.584 E1.23888
G1 X96.093 Y113.357 E1.25879
G1 X95.818 Y114.105 E1.27867
G1 X95.471 Y114.823 E1.29856
G1 X95.053 Y115.502 E1.31845
G1 X94.569 Y116.135 E1.33833
G1 X94.024 Y116.717 E1.35822
G1 X93.424 Y117.242 E1.3781
G1 X92.774 Y117.704 E1.398
G1 X92.081 Y118.098 E1.41788
G1 X91.352 Y118.421 E1.43777
G1 X90.784 Y118.615 E1.45274
G1 X88.104 Y119.419 E1.52254
G1 X88.053 Y119.502 E1.52497
G1 X87.569 Y120.135 E1.54485
G1 X87.024 Y120.717 E1.56474
G1 X86.424 Y121.242 E1.58463
G1 X85.774 Y121.704 E1.60452
G1 X85.081 Y122.098 E1.6244
G1 X84.352 Y122.421 E1.64429
G1 X83.594 Y122.669 E1.66419
G1 X82.816 Y122.84 E1.68406
G1 X82.024 Y122.933 E1.70395
G1 X81.5 Y122.95 E1.71703
G1 X71.5 Y122.95 E1.96648
G1 X70.704 Y122.91 E1.98636
G1 X69.916 Y122.791 E2.00624
G1 X69.143 Y122.593 E2.02615
G1 X68.395 Y122.318 E2.04603
G1 X67.677 Y121.971 E2.06592
G1 X66.998 Y121.553 E2.08581
G1 X66.365 Y121.069 E2.10569
G1 X65.783 Y120.524 E2.12558
G1 X65.258 Y119.924 E2.14546
G1 X64.796 Y119.274 E2.16536
G1 X64.402 Y118.581 E2.18524
G1 X64.079 Y117.852 E2.20513
G1 X63.831 Y117.094 E2.22503
G1 X63.66 Y116.316 E2.2449
G1 X63.567 Y115.524 E2.26479
G1 X63.55 Y115 E2.27787
G1 X63.55 Y95 E2.77677
G1 X63.59 Y94.204 E2.79665
G1 X63.709 Y93.416 E2.81653
G1 X63.907 Y92.643 E2.83644
G1 X64.182 Y91.895 E2.85632
G1 X64.529 Y91.177 E2.87621
G1 X64.947 Y90.498 E2.8961
G1 X65.431 Y89.865 E2.91597
G1 X65.976 Y89.283 E2.93586
G1 X66.576 Y88.758 E2.95575
M204 S5000
M205 X30 Y30
G0 F3600 X66.868 Y88.912
M204 S500
M205 X20 Y20
G1 F1800 X67.514 Y88.47 E2.97528
G1 X68.202 Y88.098 E2.99479
G1 X68.923 Y87.797 E3.01428
G1 X69.672 Y87.572 E3.03379
G1 X70.44 Y87.424 E3.0533
G1 X71.5 Y87.35 E3.0798
G1 X81.5 Y87.35 E3.32925
G1 X82.281 Y87.39 E3.34876
G1 X83.054 Y87.509 E3.36827
G1 X83.811 Y87.707 E3.38779
G1 X84.543 Y87.981 E3.40729
G1 X85.244 Y88.329 E3.42681
G1 X85.905 Y88.746 E3.44631
G1 X86.521 Y89.228 E3.46582
G1 X87.084 Y89.771 E3.48533
G1 X87.588 Y90.368 E3.50482
G1 X87.908 Y90.836 E3.51896
G1 X90.698 Y91.673 E3.59162
G1 X91.435 Y91.935 E3.61113
G1 X92.141 Y92.272 E3.63065
G1 X92.809 Y92.679 E3.65016
G1 X93.431 Y93.152 E3.66965
G1 X94.003 Y93.686 E3.68917
G1 X94.517 Y94.275 E3.70867
G1 X94.968 Y94.914 E3.72818
G1 X95.351 Y95.596 E3.7477
G1 X95.663 Y96.313 E3.7672
G1 X95.9 Y97.058 E3.7867
G1 X96.059 Y97.824 E3.80622
G1 X96.14 Y98.602 E3.82573
G1 X96.15 Y99 E3.83566
G1 X96.15 Y111 E4.135
G1 X96.11 Y111.781 E4.15451
G1 X95.991 Y112.554 E4.17402
G1 X95.793 Y113.311 E4.19354
G1 X95.519 Y114.043 E4.21304
G1 X95.171 Y114.744 E4.23256
G1 X94.754 Y115.405 E4.25205
G1 X94.272 Y116.021 E4.27157
G1 X93.729 Y116.584 E4.29108
G1 X93.132 Y117.088 E4.31057
G1 X92.486 Y117.53 E4.33009
G1 X91.798 Y117.902 E4.3496
G1 X91.077 Y118.203 E4.36909
G1 X90.698 Y118.327 E4.37904
G1 X87.906 Y119.165 E4.45176
G1 X87.754 Y119.405 E4.45884
G1 X87.272 Y120.021 E4.47835
G1 X86.729 Y120.584 E4.49787
G1 X86.132 Y121.088 E4.51736
G1 X85.486 Y121.53 E4.53688
G1 X84.798 Y121.902 E4.55639
G1 X84.077 Y122.203 E4.57588
G1 X83.328 Y122.428 E4.59539
G1 X82.56 Y122.576 E4.6149
G1 X81.5 Y122.65 E4.64141
G1 X71.5 Y122.65 E4.89086
G1 X70.719 Y122.61 E4.91036
G1 X69.946 Y122.491 E4.92987
G1 X69.189 Y122.293 E4.94939
G1 X68.457 Y122.019 E4.96889
G1 X67.756 Y121.671 E4.98841
G1 X67.095 Y121.254 E5.00791
G1 X66.479 Y120.772 E5.02742
G1 X65.916 Y120.229 E5.04693
G1 X65.412 Y119.632 E5.06642
G1 X64.97 Y118.986 E5.08595
G1 X64.598 Y118.298 E5.10546
G1 X64.297 Y117.577 E5.12495
G1 X64.072 Y116.828 E5.14446
G1 X63.924 Y116.06 E5.16397
G1 X63.85 Y115 E5.19047
G1 X63.85 Y95 E5.68937
G1 X63.89 Y94.219 E5.70888
G1 X64.009 Y93.446 E5.72839
G1 X64.207 Y92.689 E5.74791
G1 X64.481 Y91.957 E5.76741
G1 X64.829 Y91.256 E5.78693
G1 X65.246 Y90.595 E5.80643
G1 X65.728 Y89.979 E5.82594
G1 X66.271 Y89.416 E5.84545
G1 X66.868 Y88.912 E5.86494
M204 S5000
M205 X30 Y30
G0 F3600 X67.159 Y89.069
M204 S500
M205 X20 Y20
G1 F1800 X67.801 Y88.649 E5.88408
G1 X68.482 Y88.298 E5.90319
G1 X69.197 Y88.02 E5.92232
G1 X69.936 Y87.818 E5.94143
G1 X70.693 Y87.694 E5.96057
G1 X71.5 Y87.65 E5.98073
G1 X81.5 Y87.65 E6.23018
G1 X82.266 Y87.69 E6.24931
G1 X83.023 Y87.809 E6.26843
G1 X83.763 Y88.007 E6.28754
G1 X84.479 Y88.281 E6.30666
G1 X85.163 Y88.628 E6.3258
G1 X85.807 Y89.044 E6.34492
G1 X86.404 Y89.525 E6.36404
G1 X86.947 Y90.065 E6.38315
G1 X87.431 Y90.659 E6.40226
G1 X87.713 Y91.09 E6.41511
G1 X90.612 Y91.96 E6.49061
G1 X91.334 Y92.218 E6.50974
G1 X92.025 Y92.55 E6.52886
G1 X92.677 Y92.952 E6.54797
G1 X93.284 Y93.42 E6.56709
G1 X93.839 Y93.949 E6.58621
G1 X94.337 Y94.533 E6.60536
G1 X94.77 Y95.165 E6.62447
G1 X95.135 Y95.839 E6.64359
G1 X95.429 Y96.547 E6.66271
G1 X95.646 Y97.282 E6.68183
G1 X95.786 Y98.036 E6.70096
G1 X95.85 Y99 E6.72506
G1 X95.85 Y111 E7.0244
G1 X95.81 Y111.766 E7.04353
G1 X95.691 Y112.523 E7.06265
G1 X95.493 Y113.263 E7.08176
G1 X95.219 Y113.979 E7.10088
G1 X94.872 Y114.663 E7.12001
G1 X94.456 Y115.307 E7.13914
G1 X93.975 Y115.904 E7.15826
G1 X93.435 Y116.447 E7.17737
G1 X92.841 Y116.931 E7.19648
G1 X92.199 Y117.351 E7.21562
G1 X91.518 Y117.702 E7.23473
G1 X90.612 Y118.04 E7.25885
G1 X87.713 Y118.91 E7.33435
G1 X87.456 Y119.307 E7.34615
G1 X86.975 Y119.904 E7.36527
G1 X86.435 Y120.447 E7.38438
G1 X85.841 Y120.931 E7.40349
G1 X85.199 Y121.351 E7.42263
G1 X84.518 Y121.702 E7.44174
G1 X83.803 Y121.98 E7.46088
G1 X83.064 Y122.182 E7.47999
G1 X82.307 Y122.306 E7.49912
G1 X81.5 Y122.35 E7.51928
G1 X71.5 Y122.35 E7.76873
G1 X70.734 Y122.31 E7.78787
G1 X69.977 Y122.191 E7.80698
G1 X69.237 Y121.993 E7.82609
G1 X68.521 Y121.719 E7.84522
G1 X67.837 Y121.372 E7.86435
G1 X67.193 Y120.956 E7.88347
G1 X66.596 Y120.475 E7.9026
G1 X66.053 Y119.935 E7.9217
G1 X65.569 Y119.341 E7.94081
G1 X65.149 Y118.699 E7.95995
G1 X64.798 Y118.018 E7.97906
G1 X64.52 Y117.303 E7.9982
G1 X64.318 Y116.564 E8.01731
G1 X64.194 Y115.807 E8.03644
G1 X64.15 Y115 E8.05661
G1 X64.15 Y95 E8.55551
G1 X64.19 Y94.234 E8.57464
G1 X64.309 Y93.477 E8.59376
G1 X64.507 Y92.737 E8.61287
G1 X64.781 Y92.021 E8.63199
G1 X65.128 Y91.337 E8.65112
G1 X65.544 Y90.693 E8.67025
G1 X66.025 Y90.096 E8.68937
G1 X66.565 Y89.553 E8.70847
G1 X67.159 Y89.069 E8.72759
M204 S5000
M205 X30 Y30
G0 F3600 X66.859 Y89.693
M204 S500
M205 X20 Y20
G1 F1800 X67.45 Y89.229 E8.74633
G1 X68.087 Y88.831 E8.76507
G1 X68.762 Y88.503 E8.78379
G1 X69.468 Y88.249 E8.8025
G1 X70.198 Y88.071 E8.82125
G1 X70.942 Y87.972 E8.83997
G1 X71.5 Y87.95 E8.8539
G1 X81.5 Y87.95 E9.10335
G1 X82.25 Y87.99 E9.12209
G1 X82.991 Y88.109 E9.14081
G1 X83.715 Y88.307 E9.15953
G1 X84.414 Y88.581 E9.17826
G1 X85.08 Y88.927 E9.19698
G1 X85.706 Y89.342 E9.21572
G1 X86.284 Y89.821 E9.23444
G1 X86.807 Y90.359 E9.25316
G1 X87.271 Y90.95 E9.2719
G1 X87.517 Y91.344 E9.28349
G1 X90.526 Y92.247 E9.36186
G1 X91.232 Y92.501 E9.38057
G1 X91.908 Y92.828 E9.39931
G1 X92.545 Y93.226 E9.41804
G1 X93.136 Y93.689 E9.43677
G1 X93.674 Y94.212 E9.45549
G1 X94.154 Y94.789 E9.47421
G1 X94.57 Y95.414 E9.49294
G1 X94.917 Y96.08 E9.51167
G1 X95.191 Y96.779 E9.5304
G1 X95.389 Y97.503 E9.54912
G1 X95.509 Y98.244 E9.56785
G1 X95.55 Y99 E9.58673
G1 X95.55 Y111 E9.88608
G1 X95.51 Y111.75 E9.90481
G1 X95.391 Y112.491 E9.92353
G1 X95.193 Y113.215 E9.94226
G1 X94.919 Y113.914 E9.96098
G1 X94.573 Y114.58 E9.97971
G1 X94.158 Y115.206 E9.99844
G1 X93.679 Y115.784 E10.01717
G1 X93.141 Y116.307 E10.03588
G1 X92.55 Y116.771 E10.05463
G1 X91.913 Y117.169 E10.07336
G1 X91.238 Y117.497 E10.09208
G1 X90.526 Y117.753 E10.11096
G1 X87.524 Y118.654 E10.18914
G1 X87.158 Y119.206 E10.20566
G1 X86.679 Y119.784 E10.22439
G1 X86.141 Y120.307 E10.24311
G1 X85.55 Y120.771 E10.26185
G1 X84.913 Y121.169 E10.28059
G1 X84.238 Y121.497 E10.29931
G1 X83.532 Y121.751 E10.31802
G1 X82.802 Y121.929 E10.33677
G1 X82.058 Y122.028 E10.35549
G1 X81.5 Y122.05 E10.36942
G1 X71.5 Y122.05 E10.61887
G1 X70.75 Y122.01 E10.63761
G1 X70.009 Y121.891 E10.65633
G1 X69.285 Y121.693 E10.67505
G1 X68.586 Y121.419 E10.69378
G1 X67.92 Y121.073 E10.7125
G1 X67.294 Y120.658 E10.73124
G1 X66.716 Y120.179 E10.74996
G1 X66.193 Y119.641 E10.76868
G1 X65.729 Y119.05 E10.78742
G1 X65.331 Y118.413 E10.80616
G1 X65.003 Y117.738 E10.82488
G1 X64.749 Y117.032 E10.8436
G1 X64.571 Y116.302 E10.86234
G1 X64.472 Y115.558 E10.88106
G1 X64.45 Y115 E10.89499
G1 X64.45 Y95 E11.39389
G1 X64.49 Y94.25 E11.41263
G1 X64.609 Y93.509 E11.43135
G1 X64.807 Y92.785 E11.45007
G1 X65.081 Y92.086 E11.4688
G1 X65.427 Y91.42 E11.48752
G1 X65.842 Y90.794 E11.50626
G1 X66.321 Y90.216 E11.52499
G1 X66.859 Y89.693 E11.5437
M204 S5000
M205 X30 Y30
G0 F3600 X67.153 Y89.836
M204 S500
M205 X20 Y20
G1 F1800 X67.74 Y89.394 E11.56203
G1 X68.371 Y89.019 E11.58034
G1 X69.039 Y88.714 E11.59866
G1 X69.737 Y88.484 E11.61699
G1 X70.456 Y88.331 E11.63533
G1 X71.5 Y88.25 E11.66145
G1 X81.5 Y88.25 E11.9109
G1 X82.233 Y88.29 E11.92921
G1 X82.958 Y88.409 E11.94754
G1 X83.666 Y88.607 E11.96588
G1 X84.348 Y88.88 E11.98421
G1 X84.996 Y89.226 E12.00253
G1 X85.603 Y89.64 E12.02086
G1 X86.161 Y90.117 E12.03917
G1 X86.664 Y90.653 E12.05751
G1 X87.106 Y91.24 E12.07584
G1 X87.319 Y91.599 E12.08625
G1 X90.44 Y92.535 E12.16753
G1 X91.131 Y92.784 E12.18585
G1 X91.791 Y93.106 E12.20417
G1 X92.412 Y93.499 E12.2225
G1 X92.986 Y93.956 E12.2408
G1 X93.508 Y94.474 E12.25915
G1 X93.97 Y95.045 E12.27747
G1 X94.367 Y95.663 E12.29579
G1 X94.695 Y96.32 E12.31411
G1 X94.95 Y97.009 E12.33244
G1 X95.128 Y97.722 E12.35077
G1 X95.228 Y98.449 E12.36907
G1 X95.25 Y99 E12.38283
G1 X95.25 Y111 E12.68217
G1 X95.21 Y111.733 E12.70048
G1 X95.091 Y112.458 E12.71881
G1 X94.893 Y113.166 E12.73715
G1 X94.62 Y113.848 E12.75547
G1 X94.274 Y114.496 E12.7738
G1 X93.86 Y115.103 E12.79213
G1 X93.383 Y115.661 E12.81044
G1 X92.847 Y116.164 E12.82878
G1 X92.26 Y116.606 E12.84711
G1 X91.629 Y116.981 E12.86542
G1 X90.961 Y117.286 E12.88373
G1 X90.44 Y117.465 E12.89748
G1 X87.326 Y118.399 E12.97857
G1 X87.274 Y118.496 E12.98132
G1 X86.86 Y119.103 E12.99965
G1 X86.383 Y119.661 E13.01796
G1 X85.847 Y120.164 E13.03629
G1 X85.26 Y120.606 E13.05462
G1 X84.629 Y120.981 E13.07293
G1 X83.961 Y121.286 E13.09125
G1 X83.263 Y121.516 E13.10959
G1 X82.544 Y121.669 E13.12792
G1 X81.5 Y121.75 E13.15404
G1 X71.5 Y121.75 E13.40349
G1 X70.767 Y121.71 E13.42181
G1 X70.042 Y121.591 E13.44013
G1 X69.334 Y121.393 E13.45847
G1 X68.652 Y121.12 E13.4768
G1 X68.004 Y120.774 E13.49512
G1 X67.397 Y120.36 E13.51345
G1 X66.839 Y119.883 E13.53176
G1 X66.336 Y119.347 E13.5501
G1 X65.894 Y118.76 E13.56843
G1 X65.519 Y118.129 E13.58674
G1 X65.214 Y117.461 E13.60506
G1 X64.984 Y116.763 E13.62339
G1 X64.831 Y116.044 E13.64173
G1 X64.75 Y115 E13.66785
G1 X64.75 Y95 E14.16675
G1 X64.79 Y94.267 E14.18506
G1 X64.909 Y93.542 E14.20339
G1 X65.107 Y92.834 E14.22173
G1 X65.38 Y92.152 E14.24005
G1 X65.726 Y91.504 E14.25838
G1 X66.14 Y90.897 E14.2767
G1 X66.617 Y90.339 E14.29502
G1 X67.153 Y89.836 E14.31335
M204 S5000
M205 X30 Y30
G0 F3600 X67.446 Y89.984
M204 S500
M205 X20 Y20
G1 F1800 X68.028 Y89.564 E14.33126
G1 X68.654 Y89.212 E14.34917
G1 X69.315 Y88.931 E14.36709
G1 X70.003 Y88.726 E14.385
G1 X70.71 Y88.599 E14.40291
G1 X71.5 Y88.55 E14.42266
G1 X81.5 Y88.55 E14.67211
G1 X82.217 Y88.59 E14.69002
G1 X82.925 Y88.709 E14.70793
G1 X83.615 Y88.907 E14.72584
G1 X84.28 Y89.18 E14.74377
G1 X84.909 Y89.525 E14.76167
G1 X85.497 Y89.938 E14.77959
G1 X86.035 Y90.413 E14.79749
G1 X86.516 Y90.946 E14.8154
G1 X86.936 Y91.528 E14.83331
G1 X87.118 Y91.851 E14.84255
G1 X90.353 Y92.822 E14.92681
G1 X91.029 Y93.066 E14.94474
G1 X91.672 Y93.384 E14.96263
G1 X92.277 Y93.772 E14.98056
G1 X92.835 Y94.224 E14.99847
G1 X93.339 Y94.735 E15.01638
G1 X93.783 Y95.3 E15.0343
G1 X94.161 Y95.91 E15.0522
G1 X94.47 Y96.558 E15.07011
G1 X94.704 Y97.237 E15.08803
G1 X94.862 Y97.937 E15.10593
G1 X94.95 Y99 E15.13253
G1 X94.95 Y111 E15.43188
G1 X94.91 Y111.717 E15.44979
G1 X94.791 Y112.425 E15.4677
G1 X94.593 Y113.115 E15.4856
G1 X94.32 Y113.78 E15.50354
G1 X93.975 Y114.409 E15.52143
G1 X93.562 Y114.997 E15.53936
G1 X93.087 Y115.535 E15.55726
G1 X92.554 Y116.016 E15.57517
G1 X91.972 Y116.436 E15.59307
G1 X91.346 Y116.788 E15.61099
G1 X90.353 Y117.178 E15.6376
G1 X87.118 Y118.149 E15.72185
G1 X86.975 Y118.409 E15.72926
G1 X86.562 Y118.997 E15.74718
G1 X86.087 Y119.535 E15.76508
G1 X85.554 Y120.016 E15.78299
G1 X84.972 Y120.436 E15.8009
G1 X84.346 Y120.788 E15.81881
G1 X83.685 Y121.069 E15.83673
G1 X82.997 Y121.274 E15.85464
G1 X82.29 Y121.401 E15.87255
G1 X81.5 Y121.45 E15.8923
G1 X71.5 Y121.45 E16.14175
G1 X70.783 Y121.41 E16.15966
G1 X70.075 Y121.291 E16.17757
G1 X69.385 Y121.093 E16.19548
G1 X68.72 Y120.82 E16.21341
G1 X68.091 Y120.475 E16.23131
G1 X67.503 Y120.062 E16.24923
G1 X66.965 Y119.587 E16.26713
G1 X66.484 Y119.054 E16.28504
G1 X66.064 Y118.472 E16.30295
G1 X65.712 Y117.846 E16.32086
G1 X65.431 Y117.185 E16.33878
G1 X65.226 Y116.497 E16.35669
G1 X65.099 Y115.79 E16.3746
G1 X65.05 Y115 E16.39435
G1 X65.05 Y95 E16.89325
G1 X65.09 Y94.283 E16.91116
G1 X65.209 Y93.575 E16.92907
G1 X65.407 Y92.885 E16.94698
G1 X65.68 Y92.22 E16.96491
G1 X66.025 Y91.591 E16.98281
G1 X66.438 Y91.003 E17.00073
G1 X66.913 Y90.465 E17.01863
G1 X67.446 Y89.984 E17.03654
M204 S5000
M205 X30 Y30
G0 F3600 X67.738 Y90.135
M204 S500
M205 X20 Y20
G1 F1800 X68.316 Y89.738 E17.05404
G1 X68.936 Y89.41 E17.07153
G1 X69.589 Y89.155 E17.08902
G1 X70.266 Y88.975 E17.10649
G1 X70.96 Y88.874 E17.12399
G1 X71.5 Y88.85 E17.13747
G1 X81.5 Y88.85 E17.38692
G1 X82.2 Y88.89 E17.40441
G1 X82.891 Y89.009 E17.4219
G1 X83.564 Y89.207 E17.4394
G1 X84.21 Y89.479 E17.45689
G1 X84.821 Y89.823 E17.47438
G1 X85.388 Y90.235 E17.49186
G1 X85.905 Y90.709 E17.50936
G1 X86.365 Y91.238 E17.52685
G1 X86.762 Y91.816 E17.54434
G1 X86.914 Y92.103 E17.55244
G1 X90.267 Y93.109 E17.63976
G1 X90.926 Y93.349 E17.65726
G1 X91.554 Y93.662 E17.67476
G1 X92.141 Y94.044 E17.69223
G1 X92.682 Y94.491 E17.70974
G1 X93.168 Y94.996 E17.72722
G1 X93.593 Y95.553 E17.7447
G1 X93.953 Y96.155 E17.7622
G1 X94.241 Y96.794 E17.77968
G1 X94.455 Y97.462 E17.79718
G1 X94.591 Y98.15 E17.81467
G1 X94.65 Y99 E17.83593
G1 X94.65 Y111 E18.13527
G1 X94.61 Y111.7 E18.15276
G1 X94.491 Y112.391 E18.17025
G1 X94.293 Y113.064 E18.18775
G1 X94.021 Y113.71 E18.20523
G1 X93.677 Y114.321 E18.22272
G1 X93.265 Y114.888 E18.24021
G1 X92.791 Y115.405 E18.2577
G1 X92.262 Y115.865 E18.27519
G1 X91.684 Y116.262 E18.29268
G1 X91.064 Y116.59 E18.31018
G1 X90.267 Y116.891 E18.33143
G1 X86.916 Y117.896 E18.4187
G1 X86.677 Y118.321 E18.43086
G1 X86.265 Y118.888 E18.44835
G1 X85.791 Y119.405 E18.46584
G1 X85.262 Y119.865 E18.48333
G1 X84.684 Y120.262 E18.50082
G1 X84.064 Y120.59 E18.51832
G1 X83.411 Y120.845 E18.53581
G1 X82.734 Y121.025 E18.55328
G1 X82.04 Y121.126 E18.57078
G1 X81.5 Y121.15 E18.58426
G1 X71.5 Y121.15 E18.83371
G1 X70.8 Y121.11 E18.8512
