;FLAVOR:Marlin
;TIME:771
;Filament used: 0.600363m
;Layer height: 0.2
;Generated with Cura_SteamEngine 3.4.1
M190 S65
M104 S225
M109 S225
M82 ;absolute extrusion mode
G28 ;Home
G1 Z15.0 F6000 ;Move the platform down 15mm
;Prime the extruder
G92 E0
G1 F200 E3
G92 E0
G92 E0
G1 F2400 E-5
;LAYER_COUNT:51
;LAYER:0
M107
M204 S5000
M205 X30 Y30
G0 F3600 X93.316 Y90.648 Z0.2
M204 S500
M205 X20 Y20
;TYPE:SKIRT
G1 F2400 E0
G1 F1800 X93.844 Y90.195 E0.01735
G1 X94.421 Y89.807 E0.0347
G1 X95.038 Y89.487 E0.05204
G1 X95.688 Y89.24 E0.06938
G1 X96.362 Y89.069 E0.08673
G1 X97.051 Y88.976 E0.10407
G1 X97.509 Y88.959 E0.1155
G1 X112.491 Y88.96 E0.48923
G1 X113.186 Y89 E0.5066
G1 X113.871 Y89.119 E0.52394
G1 X114.538 Y89.317 E0.5413
G1 X115.177 Y89.589 E0.55862
G1 X115.782 Y89.933 E0.57598
G1 X116.343 Y90.344 E0.59333
G1 X116.853 Y90.817 E0.61068
G1 X117.305 Y91.345 E0.62802
G1 X117.694 Y91.922 E0.64538
G1 X118.014 Y92.539 E0.66272
G1 X118.261 Y93.19 E0.68008
G1 X118.431 Y93.864 E0.69742
G1 X118.524 Y94.553 E0.71477
G1 X118.541 Y95.08 E0.72792
G1 X118.41 Y106.392 E1.01012
G1 X118.533 Y110.053 E1.10149
G1 X118.536 Y110.251 E1.10643
G1 X118.541 Y114.985 E1.22452
G1 X118.502 Y115.679 E1.24186
G1 X118.383 Y116.364 E1.25921
G1 X118.187 Y117.031 E1.27655
G1 X117.915 Y117.671 E1.29389
G1 X117.571 Y118.276 E1.31125
G1 X117.161 Y118.837 E1.32859
G1 X116.689 Y119.348 E1.34594
G1 X116.161 Y119.801 E1.36329
G1 X115.585 Y120.19 E1.38063
G1 X114.968 Y120.511 E1.39798
G1 X114.318 Y120.759 E1.41534
G1 X113.644 Y120.93 E1.43268
G1 X112.955 Y121.023 E1.45003
G1 X112.491 Y121.041 E1.46161
G1 X97.509 Y121.041 E1.83534
G1 X96.815 Y121.001 E1.85268
G1 X96.13 Y120.882 E1.87002
G1 X95.463 Y120.684 E1.88738
G1 X94.823 Y120.412 E1.90472
G1 X94.219 Y120.068 E1.92206
G1 X93.658 Y119.657 E1.93941
G1 X93.148 Y119.184 E1.95676
G1 X92.695 Y118.656 E1.97412
G1 X92.307 Y118.079 E1.99146
G1 X91.987 Y117.462 E2.0088
G1 X91.74 Y116.812 E2.02614
G1 X91.569 Y116.138 E2.04349
G1 X91.476 Y115.449 E2.06083
G1 X91.459 Y114.991 E2.07227
G1 X91.459 Y95.009 E2.57072
G1 X91.499 Y94.315 E2.58806
G1 X91.618 Y93.63 E2.6054
G1 X91.816 Y92.963 E2.62276
G1 X92.088 Y92.323 E2.64011
G1 X92.432 Y91.719 E2.65744
G1 X92.843 Y91.158 E2.67479
G1 X93.316 Y90.648 E2.69214
M204 S5000
M205 X30 Y30
G0 F3600 X93.611 Y90.782
M204 S500
M205 X20 Y20
G1 F1800 X94.135 Y90.353 E2.70904
G1 X94.707 Y89.988 E2.72596
G1 X95.317 Y89.693 E2.74287
G1 X95.958 Y89.472 E2.75978
G1 X96.62 Y89.328 E2.77668
G1 X97.509 Y89.259 E2.79892
G1 X112.491 Y89.26 E3.17265
G1 X113.168 Y89.3 E3.18957
G1 X113.835 Y89.419 E3.20647
G1 X114.484 Y89.616 E3.22339
G1 X115.105 Y89.889 E3.24031
G1 X115.69 Y90.232 E3.25722
G1 X116.23 Y90.642 E3.27414
G1 X116.718 Y91.112 E3.29104
G1 X117.147 Y91.637 E3.30795
G1 X117.512 Y92.208 E3.32486
G1 X117.807 Y92.818 E3.34176
G1 X118.028 Y93.459 E3.35867
G1 X118.172 Y94.122 E3.3756
G1 X118.241 Y95.077 E3.39948
G1 X118.109 Y106.399 E3.68193
G1 X118.233 Y110.063 E3.77338
G1 X118.236 Y110.251 E3.77807
G1 X118.241 Y114.985 E3.89616
G1 X118.202 Y115.662 E3.91308
G1 X118.083 Y116.329 E3.92998
G1 X117.887 Y116.978 E3.94689
G1 X117.615 Y117.599 E3.9638
G1 X117.273 Y118.184 E3.9807
G1 X116.864 Y118.725 E3.99762
G1 X116.394 Y119.214 E4.01454
G1 X115.87 Y119.644 E4.03145
G1 X115.299 Y120.009 E4.04835
G1 X114.688 Y120.305 E4.06529
G1 X114.048 Y120.526 E4.08218
G1 X113.386 Y120.671 E4.09909
G1 X112.491 Y120.741 E4.12148
G1 X97.509 Y120.741 E4.49521
G1 X96.832 Y120.701 E4.51212
G1 X96.165 Y120.582 E4.52903
G1 X95.516 Y120.385 E4.54594
G1 X94.895 Y120.113 E4.56286
G1 X94.311 Y119.769 E4.57976
G1 X93.77 Y119.36 E4.59668
G1 X93.282 Y118.889 E4.6136
G1 X92.853 Y118.365 E4.63049
G1 X92.488 Y117.793 E4.64742
G1 X92.193 Y117.183 E4.66432
G1 X91.972 Y116.542 E4.68123
G1 X91.828 Y115.88 E4.69813
G1 X91.759 Y114.991 E4.72038
G1 X91.759 Y95.009 E5.21883
G1 X91.799 Y94.332 E5.23575
G1 X91.918 Y93.665 E5.25265
G1 X92.115 Y93.016 E5.26957
G1 X92.387 Y92.395 E5.28648
G1 X92.731 Y91.811 E5.30339
G1 X93.14 Y91.27 E5.3203
G1 X93.611 Y90.782 E5.33722
M204 S5000
M205 X30 Y30
G0 F3600 X93.905 Y90.921
M204 S500
M205 X20 Y20
G1 F1800 X94.425 Y90.515 E5.35368
G1 X94.991 Y90.175 E5.37015
G1 X95.594 Y89.907 E5.38661
G1 X96.225 Y89.712 E5.40309
G1 X96.874 Y89.596 E5.41953
G1 X97.509 Y89.559 E5.4354
G1 X112.491 Y89.56 E5.80913
G1 X113.15 Y89.6 E5.8256
G1 X113.799 Y89.719 E5.84205
G1 X114.429 Y89.916 E5.85852
G1 X115.031 Y90.188 E5.875
G1 X115.595 Y90.53 E5.89145
G1 X116.114 Y90.938 E5.90792
G1 X116.579 Y91.406 E5.92438
G1 X116.985 Y91.927 E5.94085
G1 X117.325 Y92.493 E5.95732
G1 X117.594 Y93.095 E5.97377
G1 X117.788 Y93.726 E5.99024
G1 X117.904 Y94.376 E6.00671
G1 X117.941 Y95.073 E6.02412
G1 X117.809 Y106.405 E6.30682
G1 X117.933 Y110.073 E6.39837
G1 X117.936 Y110.251 E6.40281
G1 X117.941 Y114.985 E6.5209
G1 X117.902 Y115.644 E6.53737
G1 X117.783 Y116.293 E6.55383
G1 X117.587 Y116.923 E6.57029
G1 X117.316 Y117.525 E6.58675
G1 X116.974 Y118.09 E6.60323
G1 X116.567 Y118.609 E6.61968
G1 X116.099 Y119.075 E6.63616
G1 X115.579 Y119.482 E6.65263
G1 X115.014 Y119.822 E6.66908
G1 X114.411 Y120.091 E6.68555
G1 X113.781 Y120.286 E6.702
G1 X113.131 Y120.403 E6.71848
G1 X112.491 Y120.441 E6.73447
G1 X97.509 Y120.441 E7.1082
G1 X96.85 Y120.401 E7.12466
G1 X96.201 Y120.282 E7.14112
G1 X95.571 Y120.085 E7.15759
G1 X94.97 Y119.813 E7.17405
G1 X94.405 Y119.471 E7.19052
G1 X93.887 Y119.063 E7.20697
G1 X93.421 Y118.595 E7.22344
G1 X93.015 Y118.075 E7.2399
G1 X92.675 Y117.509 E7.25637
G1 X92.407 Y116.906 E7.27283
G1 X92.212 Y116.275 E7.28931
G1 X92.096 Y115.626 E7.30575
G1 X92.059 Y114.991 E7.32162
G1 X92.059 Y95.009 E7.82007
G1 X92.099 Y94.35 E7.83654
G1 X92.218 Y93.701 E7.853
G1 X92.415 Y93.071 E7.86947
G1 X92.687 Y92.47 E7.88592
G1 X93.029 Y91.905 E7.9024
G1 X93.437 Y91.387 E7.91885
G1 X93.905 Y90.921 E7.93532
M204 S5000
M205 X30 Y30
G0 F3600 X93.734 Y91.506
M204 S500
M205 X20 Y20
G1 F1800 X94.198 Y91.064 E7.95131
G1 X94.715 Y90.683 E7.96733
G1 X95.274 Y90.369 E7.98332
G1 X95.868 Y90.127 E7.99932
G1 X96.488 Y89.961 E8.01533
G1 X97.123 Y89.873 E8.03132
G1 X97.509 Y89.859 E8.04096
G1 X112.491 Y89.86 E8.41468
G1 X113.132 Y89.9 E8.43071
G1 X113.762 Y90.019 E8.4467
G1 X114.373 Y90.216 E8.46271
G1 X114.954 Y90.487 E8.47871
G1 X115.497 Y90.829 E8.49471
G1 X115.994 Y91.235 E8.51072
G1 X116.436 Y91.7 E8.52673
G1 X116.817 Y92.216 E8.54273
G1 X117.131 Y92.775 E8.55872
G1 X117.373 Y93.37 E8.57474
G1 X117.539 Y93.989 E8.59073
G1 X117.627 Y94.625 E8.60675
G1 X117.641 Y95.07 E8.61785
G1 X117.509 Y106.412 E8.9008
G1 X117.633 Y110.083 E8.99242
G1 X117.636 Y110.252 E8.99664
G1 X117.641 Y114.986 E9.11473
G1 X117.602 Y115.626 E9.13072
G1 X117.483 Y116.256 E9.14672
G1 X117.287 Y116.867 E9.16272
G1 X117.017 Y117.449 E9.17873
G1 X116.676 Y117.993 E9.19474
G1 X116.27 Y118.49 E9.21075
G1 X115.806 Y118.932 E9.22674
G1 X115.29 Y119.314 E9.24275
G1 X114.731 Y119.628 E9.25875
G1 X114.137 Y119.871 E9.27476
G1 X113.517 Y120.038 E9.29077
G1 X112.882 Y120.126 E9.30676
G1 X112.491 Y120.141 E9.31653
G1 X97.509 Y120.141 E9.69025
G1 X96.869 Y120.101 E9.70625
G1 X96.238 Y119.982 E9.72227
G1 X95.628 Y119.785 E9.73826
G1 X95.046 Y119.514 E9.75427
G1 X94.503 Y119.173 E9.77027
G1 X94.006 Y118.766 E9.78629
G1 X93.564 Y118.302 E9.80228
G1 X93.183 Y117.785 E9.8183
G1 X92.869 Y117.226 E9.83429
G1 X92.627 Y116.632 E9.85029
G1 X92.461 Y116.012 E9.8663
G1 X92.373 Y115.377 E9.88229
G1 X92.359 Y114.991 E9.89193
G1 X92.359 Y95.009 E10.39038
G1 X92.399 Y94.369 E10.40638
G1 X92.518 Y93.738 E10.42239
G1 X92.715 Y93.128 E10.43839
G1 X92.986 Y92.546 E10.4544
G1 X93.327 Y92.003 E10.47039
G1 X93.734 Y91.506 E10.48642
M204 S5000
M205 X30 Y30
G1 F2400 E5.48642
G0 F3600 X96.835 Y95.464
G0 X97.964 Y95.464
G0 X104.05 Y97.921
M204 S500
M205 X20 Y20
;TYPE:WALL-INNER
G1 F2400 E10.48642
G1 F1800 X104.05 Y112.079 E10.83959
G1 X109.312 Y113.657 E10.97663
G1 X110.291 Y113.95 E11.00212
G1 X109.27 Y113.95 E11.01498
G1 X109.269 Y113.95 E11.01501
G1 X98.55 Y113.95 E11.2824
G1 X98.55 Y96.05 E11.72891
G1 X109.269 Y96.05 E11.9963
G1 X109.27 Y96.05 E11.99633
G1 X110.291 Y96.05 E12.02179
G1 X109.312 Y96.343 E12.03467
G1 X104.05 Y97.921 E12.17171
M204 S5000
M205 X30 Y30
G0 F3600 X111.178 Y96.097
M204 S500
M205 X20 Y20
G1 F1800 X104.35 Y98.144 E12.34952
G1 X104.35 Y111.856 E12.69157
G1 X111.178 Y113.903 E12.86938
G1 X111.462 Y113.195 E12.88841
G1 X111.75 Y112.473 E12.9078
G1 X111.75 Y113.25 E12.91767
G1 X111.75 Y113.251 E12.91769
G1 X111.75 Y114.25 E12.94261
G1 X98.25 Y114.25 E13.27937
G1 X98.25 Y95.75 E13.74086
G1 X111.75 Y95.75 E14.07762
G1 X111.75 Y96.749 E14.10254
G1 X111.75 Y96.75 E14.10256
G1 X111.75 Y97.527 E14.12194
G1 X111.462 Y96.805 E14.13181
G1 X111.178 Y96.097 E14.15084
M204 S5000
M205 X30 Y30
G0 F3600 X111.001 Y96.463
M204 S500
M205 X20 Y20
G1 F1800 X104.65 Y98.367 E14.31624
G1 X104.65 Y111.633 E14.64716
G1 X111.001 Y113.537 E14.81255
G1 X111.762 Y111.637 E14.86361
G1 X112.05 Y110.915 E14.883
G1 X112.05 Y111.692 E14.89286
G1 X112.05 Y111.693 E14.89289
G1 X112.05 Y114.55 E14.96415
G1 X97.95 Y114.55 E15.31588
G1 X97.95 Y95.45 E15.79233
G1 X112.05 Y95.45 E16.14406
G1 X112.05 Y98.307 E16.21533
G1 X112.05 Y98.308 E16.21535
G1 X112.05 Y99.085 E16.23473
G1 X111.762 Y98.363 E16.2446
G1 X111.001 Y96.463 E16.29566
M204 S5000
M205 X30 Y30
G0 F3600 X110.854 Y96.768
M204 S500
M205 X20 Y20
;TYPE:WALL-OUTER
G1 F1800 X104.9 Y98.553 E16.45071
G1 X104.9 Y111.447 E16.77236
G1 X110.854 Y113.232 E16.92741
G1 X111.907 Y110.6 E16.99812
G1 X112.3 Y110.6 E17.00793
G1 X112.3 Y114.8 E17.1127
G1 X97.7 Y114.8 E17.4769
G1 X97.7 Y95.2 E17.96582
G1 X112.3 Y95.2 E18.33002
G1 X112.3 Y99.4 E18.43479
G1 X111.907 Y99.4 E18.44459
G1 X110.854 Y96.768 E18.51531
M204 S5000
M205 X30 Y30
G0 F3600 X110.663 Y96.825
G0 X110.564 Y96.49
G0 X108.313 Y96.34
M204 S500
M205 X20 Y20
;TYPE:SKIN
G1 F1800 X103.76 Y97.705 E18.63388
G1 X103.76 Y112.295 E18.99782
G1 X108.313 Y113.66 E19.11639
G1 X98.84 Y113.66 E19.3527
G1 X98.84 Y96.34 E19.78475
G1 X108.313 Y96.34 E20.02105
M204 S5000
M205 X30 Y30
G0 F3600 X104.618 Y98.344
G0 X101.36 Y111.26
M204 S500
M205 X20 Y20
G1 F1800 X101.24 Y111.26 E20.02405
G1 X101.24 Y98.74 E20.33636
G1 X101.36 Y98.74 E20.33935
G1 X101.36 Y111.26 E20.65167
M204 S5000
M205 X30 Y30
G0 F3600 X101.66 Y111.56
M204 S500
M205 X20 Y20
G1 F1800 X100.94 Y111.56 E20.66963
G1 X100.94 Y98.44 E20.99691
G1 X101.66 Y98.44 E21.01487
G1 X101.66 Y111.56 E21.34215
M204 S5000
M205 X30 Y30
G0 F3600 X101.96 Y111.86
M204 S500
M205 X20 Y20
G1 F1800 X100.64 Y111.86 E21.37507
G1 X100.64 Y98.14 E21.71732
G1 X101.96 Y98.14 E21.75025
G1 X101.96 Y111.86 E22.09249
M204 S5000
M205 X30 Y30
G0 F3600 X102.26 Y112.16
M204 S500
M205 X20 Y20
G1 F1800 X100.34 Y112.16 E22.14039
G1 X100.34 Y97.84 E22.4976
G1 X102.26 Y97.84 E22.5455
G1 X102.26 Y112.16 E22.90271
M204 S5000
M205 X30 Y30
G0 F3600 X102.56 Y112.46
M204 S500
M205 X20 Y20
G1 F1800 X100.04 Y112.46 E22.96557
G1 X100.04 Y97.54 E23.33775
G1 X102.56 Y97.54 E23.40062
G1 X102.56 Y112.46 E23.7728
M204 S5000
M205 X30 Y30
G0 F3600 X102.86 Y112.76
M204 S500
M205 X20 Y20
G1 F1800 X99.74 Y112.76 E23.85063
G1 X99.74 Y97.24 E24.23777
G1 X102.86 Y97.24 E24.3156
G1 X102.86 Y112.76 E24.70275
M204 S5000
M205 X30 Y30
G0 F3600 X103.16 Y112.742
M204 S500
M205 X20 Y20
G1 F1800 X104.221 Y113.06 E24.73038
G1 X99.44 Y113.06 E24.84964
G1 X99.44 Y96.94 E25.25176
G1 X104.221 Y96.94 E25.37102
G1 X103.16 Y97.258 E25.39865
G1 X103.16 Y112.742 E25.7849
M204 S5000
M205 X30 Y30
G0 F3600 X103.46 Y112.519
M104 S215
M204 S500
M205 X20 Y20
G1 F1800 X106.265 Y113.36 E25.85795
G1 X99.14 Y113.36 E26.03568
G1 X99.14 Y96.64 E26.45276
G1 X106.265 Y96.64 E26.6305
G1 X103.46 Y97.481 E26.70355
G1 X103.46 Y112.519 E27.07867
M204 S5000
M205 X30 Y30
G0 F3600 X104.371 Y113.068
G0 X104.433 Y113.131
G1 F1800 X104.617 Y113.102 E27.08141
G1 X104.874 Y113.147 E27.08384
G0 F3600 X104.921 Y113.194
G0 X106.421 Y113.422
G0 X106.464 Y113.465
G1 F1800 X106.599 Y113.388 E27.08674
G1 X106.856 Y113.433 E27.09021
G1 X107.114 Y113.478 E27.09208
G0 F3600 X107.145 Y113.509
G0 X104.618 Y111.656
G0 X104.438 Y97.014
G0 X104.405 Y96.981
G1 F1800 X104.521 Y96.885 E27.09407
G1 X104.709 Y96.86 E27.09647
G1 X104.897 Y96.836 E27.09798
G0 F3600 X104.928 Y96.867
G0 X106.436 Y96.678
G0 X106.461 Y96.703
G1 F1800 X106.554 Y96.584 E27.1001
G1 X106.743 Y96.56 E27.10305
G1 X106.93 Y96.535 E27.10511
G1 X107.118 Y96.511 E27.1063
G0 F3600 X107.14 Y96.533
G0 X104.05 Y97.921
;TIME_ELAPSED:47.793290
;LAYER:1
M140 S65
M106 S255
G0 F5400 X104.05 Y97.921 Z0.4
M204 S500
M205 X20 Y20
;TYPE:WALL-INNER
G1 F2700 X104.05 Y112.079 E27.45948
G1 X109.312 Y113.657 E27.59651
G1 X110.291 Y113.95 E27.622
G1 X109.27 Y113.95 E27.63487
G1 X109.269 Y113.95 E27.63489
G1 X98.55 Y113.95 E27.90228
G1 X98.55 Y96.05 E28.3488
G1 X109.269 Y96.05 E28.61618
G1 X109.27 Y96.05 E28.61621
G1 X110.291 Y96.05 E28.64168
G1 X109.312 Y96.343 E28.65455
G1 X104.05 Y97.921 E28.79159
M204 S5000
M205 X30 Y30
G0 F5400 X111.178 Y96.097
M204 S500
M205 X20 Y20
G1 F2700 X104.35 Y98.144 E28.96941
G1 X104.35 Y111.856 E29.31145
G1 X111.178 Y113.903 E29.48927
G1 X111.462 Y113.195 E29.5083
G1 X111.75 Y112.473 E29.52769
G1 X111.75 Y113.25 E29.53755
G1 X111.75 Y113.251 E29.53758
G1 X111.75 Y114.25 E29.5625
G1 X98.25 Y114.25 E29.89926
G1 X98.25 Y95.75 E30.36074
G1 X111.75 Y95.75 E30.6975
G1 X111.75 Y96.749 E30.72242
G1 X111.75 Y96.75 E30.72245
G1 X111.75 Y97.527 E30.74183
G1 X111.462 Y96.805 E30.7517
G1 X111.178 Y96.097 E30.77073
M204 S5000
M205 X30 Y30
G0 F5400 X111.001 Y96.463
M204 S500
M205 X20 Y20
G1 F2700 X104.65 Y98.367 E30.93612
G1 X104.65 Y111.633 E31.26704
G1 X111.001 Y113.537 E31.43243
G1 X111.762 Y111.637 E31.48349
G1 X112.05 Y110.915 E31.50288
G1 X112.05 Y111.692 E31.51275
G1 X112.05 Y111.693 E31.51277
G1 X112.05 Y114.55 E31.58404
G1 X97.95 Y114.55 E31.93576
G1 X97.95 Y95.45 E32.41222
G1 X112.05 Y95.45 E32.76394
G1 X112.05 Y98.307 E32.83521
G1 X112.05 Y98.308 E32.83524
G1 X112.05 Y99.085 E32.85462
G1 X111.762 Y98.363 E32.86449
G1 X111.001 Y96.463 E32.91554
M204 S5000
M205 X30 Y30
G0 F5400 X110.854 Y96.768
M204 S500
M205 X20 Y20
;TYPE:WALL-OUTER
G1 F1800 X104.9 Y98.553 E33.0706
G1 X104.9 Y111.447 E33.39224
G1 X110.854 Y113.232 E33.54729
G1 X111.907 Y110.6 E33.61801
G1 X112.3 Y110.6 E33.62781
G1 X112.3 Y114.8 E33.73258
G1 X97.7 Y114.8 E34.09678
G1 X97.7 Y95.2 E34.5857
G1 X112.3 Y95.2 E34.9499
G1 X112.3 Y99.4 E35.05467
G1 X111.907 Y99.4 E35.06448
G1 X110.854 Y96.768 E35.13519
M204 S5000
M205 X30 Y30
G0 F5400 X110.663 Y96.825
G0 X110.564 Y96.49
G0 X108.313 Y96.34
M204 S500
M205 X20 Y20
;TYPE:SKIN
G1 F1800 X103.76 Y97.705 E35.25376
G1 X103.76 Y112.295 E35.61771
G1 X108.313 Y113.66 E35.73628
G1 X98.84 Y113.66 E35.97258
G1 X98.84 Y96.34 E36.40463
G1 X108.313 Y96.34 E36.64094
M204 S5000
M205 X30 Y30
G0 F5400 X104.618 Y98.344
G0 X101.36 Y111.26
M204 S500
M205 X20 Y20
G1 F1800 X101.24 Y111.26 E36.64393
G1 X101.24 Y98.74 E36.95624
G1 X101.36 Y98.74 E36.95924
G1 X101.36 Y111.26 E37.27155
M204 S5000
M205 X30 Y30
G0 F5400 X101.66 Y111.56
M204 S500
M205 X20 Y20
G1 F1800 X100.94 Y111.56 E37.28951
G1 X100.94 Y98.44 E37.61679
G1 X101.66 Y98.44 E37.63475
G1 X101.66 Y111.56 E37.96203
M204 S5000
M205 X30 Y30
G0 F5400 X101.96 Y111.86
M204 S500
M205 X20 Y20
G1 F1800 X100.64 Y111.86 E37.99496
G1 X100.64 Y98.14 E38.3372
G1 X101.96 Y98.14 E38.37013
G1 X101.96 Y111.86 E38.71238
M204 S5000
M205 X30 Y30
G0 F5400 X102.26 Y112.16
M204 S500
M205 X20 Y20
G1 F1800 X100.34 Y112.16 E38.76027
G1 X100.34 Y97.84 E39.11749
G1 X102.26 Y97.84 E39.16538
G1 X102.26 Y112.16 E39.5226
M204 S5000
M205 X30 Y30
G0 F5400 X102.56 Y112.46
M204 S500
M205 X20 Y20
G1 F1800 X100.04 Y112.46 E39.58546
G1 X100.04 Y97.54 E39.95764
G1 X102.56 Y97.54 E40.0205
G1 X102.56 Y112.46 E40.39268
M204 S5000
M205 X30 Y30
G0 F5400 X102.86 Y112.76
M204 S500
M205 X20 Y20
G1 F1800 X99.74 Y112.76 E40.47051
G1 X99.74 Y97.24 E40.85766
G1 X102.86 Y97.24 E40.93549
G1 X102.86 Y112.76 E41.32263
M204 S5000
M205 X30 Y30
G0 F5400 X103.16 Y112.742
M204 S500
M205 X20 Y20
G1 F1800 X104.221 Y113.06 E41.35026
G1 X99.44 Y113.06 E41.46953
G1 X99.44 Y96.94 E41.87164
G1 X104.221 Y96.94 E41.9909
G1 X103.16 Y97.258 E42.01853
