;FLAVOR:Marlin
;TIME:1514
;Filament used: 1.47356m
;Layer height: 0.2
;Generated with Cura_SteamEngine 3.4.1
M190 S65
M104 S220
M109 S220
M82 ;absolute extrusion mode
G28 ;Home
G1 Z15.0 F6000 ;Move the platform down 15mm
;Prime the extruder
G92 E0
G1 F200 E3
G92 E0
G92 E0
G1 F2400 E-5
;LAYER_COUNT:51
;LAYER:0
M106 S191.3
M204 S5000
M205 X30 Y30
G0 F3600 X73.881 Y86.537 Z0.2
M204 S500
M205 X20 Y20
;TYPE:SKIRT
G1 F2400 E0
G1 F1800 X74.617 Y85.928 E0.03177
G1 X75.401 Y85.384 E0.06351
G1 X76.228 Y84.906 E0.09528
G1 X77.091 Y84.5 E0.127
G1 X77.986 Y84.167 E0.15876
G1 X78.906 Y83.91 E0.19054
G1 X79.844 Y83.731 E0.2223
G1 X80.793 Y83.631 E0.25403
G1 X81.498 Y83.609 E0.27749
G1 X90.782 Y83.6 E0.58628
G1 X91.646 Y83.632 E0.61504
G1 X95.611 Y83.93 E0.74729
G1 X100.757 Y84.146 E0.91859
G1 X105.763 Y84.075 E1.08511
G1 X111.661 Y83.641 E1.28181
G1 X112.496 Y83.61 E1.3096
G1 X127.49 Y83.609 E1.8083
G1 X128.444 Y83.649 E1.84006
G1 X129.391 Y83.769 E1.87181
G1 X130.325 Y83.967 E1.90357
G1 X131.239 Y84.243 E1.93532
G1 X132.127 Y84.594 E1.96708
G1 X132.982 Y85.019 E1.99884
G1 X133.799 Y85.513 E2.03059
G1 X134.572 Y86.074 E2.06236
G1 X135.294 Y86.698 E2.0941
G1 X135.962 Y87.38 E2.12585
G1 X136.571 Y88.116 E2.15762
G1 X137.116 Y88.9 E2.18938
G1 X137.593 Y89.727 E2.22113
G1 X138 Y90.591 E2.2529
G1 X138.333 Y91.486 E2.28466
G1 X138.59 Y92.405 E2.3164
G1 X138.769 Y93.343 E2.34816
G1 X138.868 Y94.293 E2.37993
G1 X138.89 Y95.145 E2.40828
G1 X138.757 Y106.34 E2.78065
G1 X138.894 Y110.704 E2.92587
G1 X138.9 Y111.088 E2.93864
G1 X138.891 Y115.017 E3.06932
G1 X138.849 Y115.971 E3.10108
G1 X138.727 Y116.918 E3.13284
G1 X138.526 Y117.851 E3.16458
G1 X138.248 Y118.765 E3.19636
G1 X137.895 Y119.652 E3.22811
G1 X137.468 Y120.506 E3.25987
G1 X136.972 Y121.321 E3.2916
G1 X136.409 Y122.093 E3.32338
G1 X135.783 Y122.814 E3.35514
G1 X135.1 Y123.48 E3.38687
G1 X134.363 Y124.087 E3.41862
G1 X133.577 Y124.63 E3.4504
G1 X132.749 Y125.106 E3.48216
G1 X131.884 Y125.51 E3.51392
G1 X130.989 Y125.841 E3.54565
G1 X130.069 Y126.096 E3.57741
G1 X129.13 Y126.273 E3.60919
G1 X128.181 Y126.37 E3.64092
G1 X127.488 Y126.391 E3.66398
G1 X112.459 Y126.387 E4.16384
G1 X111.467 Y126.343 E4.19687
G1 X108.326 Y126.068 E4.30174
G1 X103.243 Y125.854 E4.47095
G1 X98.237 Y125.925 E4.63747
G1 X92.339 Y126.359 E4.83417
G1 X91.503 Y126.39 E4.86199
G1 X81.509 Y126.39 E5.19439
G1 X80.555 Y126.35 E5.22615
G1 X79.608 Y126.23 E5.2579
G1 X78.674 Y126.032 E5.28966
G1 X77.76 Y125.756 E5.32141
G1 X76.872 Y125.404 E5.35318
G1 X76.017 Y124.98 E5.38492
G1 X75.2 Y124.485 E5.4167
G1 X74.428 Y123.924 E5.44844
G1 X73.705 Y123.3 E5.4802
G1 X73.037 Y122.618 E5.51195
G1 X72.428 Y121.882 E5.54373
G1 X71.884 Y121.098 E5.57546
G1 X71.406 Y120.271 E5.60723
G1 X71 Y119.408 E5.63896
G1 X70.667 Y118.513 E5.67072
G1 X70.41 Y117.593 E5.70249
G1 X70.231 Y116.655 E5.73425
G1 X70.131 Y115.706 E5.76599
G1 X70.109 Y114.99 E5.78981
G1 X70.109 Y95.009 E6.45438
G1 X70.149 Y94.055 E6.48614
G1 X70.269 Y93.108 E6.51789
G1 X70.467 Y92.174 E6.54965
G1 X70.743 Y91.26 E6.5814
G1 X71.095 Y90.372 E6.61317
G1 X71.519 Y89.517 E6.64491
G1 X72.014 Y88.7 E6.67669
G1 X72.575 Y87.928 E6.70843
G1 X73.199 Y87.205 E6.74019
G1 X73.881 Y86.537 E6.77194
M204 S5000
M205 X30 Y30
G0 F3600 X74.273 Y86.724
M204 S500
M205 X20 Y20
G1 F1800 X75.005 Y86.138 E6.80313
G1 X75.784 Y85.616 E6.83432
G1 X76.605 Y85.163 E6.86551
G1 X77.462 Y84.781 E6.89671
G1 X78.348 Y84.473 E6.92791
G1 X79.257 Y84.242 E6.95911
G1 X80.182 Y84.089 E6.99029
G1 X81.498 Y84.009 E7.03414
G1 X90.782 Y84 E7.34293
G1 X91.616 Y84.031 E7.37069
G1 X95.595 Y84.33 E7.5034
G1 X100.746 Y84.547 E7.67488
G1 X105.781 Y84.475 E7.84236
G1 X111.69 Y84.04 E8.03943
G1 X112.496 Y84.01 E8.06625
G1 X127.49 Y84.009 E8.56495
G1 X128.427 Y84.049 E8.59615
G1 X129.358 Y84.169 E8.62737
G1 X130.274 Y84.367 E8.65854
G1 X131.171 Y84.643 E8.68975
G1 X132.04 Y84.994 E8.72092
G1 X132.877 Y85.418 E8.75213
G1 X133.674 Y85.911 E8.7833
G1 X134.427 Y86.471 E8.81451
G1 X135.129 Y87.093 E8.84571
G1 X135.775 Y87.772 E8.87688
G1 X136.362 Y88.504 E8.90809
G1 X136.884 Y89.284 E8.9393
G1 X137.337 Y90.105 E8.97049
G1 X137.719 Y90.961 E9.00167
G1 X138.027 Y91.847 E9.03287
G1 X138.258 Y92.756 E9.06406
G1 X138.411 Y93.681 E9.09524
G1 X138.484 Y94.616 E9.12644
G1 X138.49 Y95.14 E9.14387
G1 X138.357 Y106.325 E9.51591
G1 X138.495 Y110.717 E9.66206
G1 X138.5 Y111.087 E9.67437
G1 X138.491 Y115.016 E9.80505
G1 X138.449 Y115.953 E9.83624
G1 X138.327 Y116.883 E9.86744
G1 X138.127 Y117.799 E9.89862
G1 X137.849 Y118.695 E9.92983
G1 X137.495 Y119.564 E9.96103
G1 X137.07 Y120.399 E9.9922
G1 X136.574 Y121.196 E10.02342
G1 X136.012 Y121.947 E10.05462
G1 X135.389 Y122.647 E10.08579
G1 X134.708 Y123.292 E10.11698
G1 X133.975 Y123.877 E10.14817
G1 X133.194 Y124.397 E10.17938
G1 X132.372 Y124.849 E10.21058
G1 X131.515 Y125.229 E10.24176
G1 X130.628 Y125.534 E10.27296
G1 X129.719 Y125.763 E10.30414
G1 X128.793 Y125.914 E10.33534
G1 X127.488 Y125.991 E10.37882
G1 X112.459 Y125.987 E10.87869
G1 X111.501 Y125.945 E10.91058
G1 X108.332 Y125.667 E11.01639
G1 X103.254 Y125.453 E11.18543
G1 X98.219 Y125.525 E11.35292
G1 X92.31 Y125.96 E11.54998
G1 X91.503 Y125.99 E11.57684
G1 X81.509 Y125.99 E11.90924
G1 X80.572 Y125.95 E11.94044
G1 X79.642 Y125.83 E11.97163
G1 X78.725 Y125.632 E12.00283
G1 X77.829 Y125.356 E12.03401
G1 X76.959 Y125.005 E12.06521
G1 X76.123 Y124.581 E12.09639
G1 X75.325 Y124.087 E12.12761
G1 X74.573 Y123.527 E12.15879
G1 X73.871 Y122.906 E12.18996
G1 X73.224 Y122.226 E12.22118
G1 X72.638 Y121.494 E12.25237
G1 X72.116 Y120.715 E12.28356
G1 X71.663 Y119.894 E12.31475
G1 X71.281 Y119.037 E12.34595
G1 X70.973 Y118.151 E12.37715
G1 X70.742 Y117.242 E12.40835
G1 X70.589 Y116.317 E12.43953
G1 X70.509 Y114.99 E12.48375
G1 X70.509 Y95.009 E13.14832
G1 X70.549 Y94.072 E13.17951
G1 X70.669 Y93.142 E13.2107
G1 X70.867 Y92.225 E13.2419
G1 X71.143 Y91.329 E13.27308
G1 X71.494 Y90.459 E13.30429
G1 X71.918 Y89.623 E13.33546
G1 X72.412 Y88.825 E13.36668
G1 X72.972 Y88.073 E13.39786
G1 X73.593 Y87.371 E13.42904
G1 X74.273 Y86.724 E13.46026
M204 S5000
M205 X30 Y30
G0 F3600 X74.664 Y86.915
M204 S500
M205 X20 Y20
G1 F1800 X75.392 Y86.352 E13.49087
G1 X76.167 Y85.854 E13.5215
G1 X76.981 Y85.425 E13.55211
G1 X77.83 Y85.068 E13.58274
G1 X78.706 Y84.786 E13.61335
G1 X79.604 Y84.582 E13.64398
G1 X80.516 Y84.456 E13.6746
G1 X81.499 Y84.409 E13.70733
G1 X90.783 Y84.4 E14.01612
G1 X91.587 Y84.43 E14.04288
G1 X95.551 Y84.728 E14.17509
G1 X100.752 Y84.947 E14.34823
G1 X105.8 Y84.874 E14.51615
G1 X111.72 Y84.439 E14.71358
G1 X112.496 Y84.41 E14.73941
G1 X127.49 Y84.409 E15.23811
G1 X128.41 Y84.449 E15.26874
G1 X129.323 Y84.569 E15.29936
G1 X130.222 Y84.767 E15.32998
G1 X131.1 Y85.042 E15.36058
G1 X131.952 Y85.393 E15.39123
G1 X132.769 Y85.817 E15.42185
G1 X133.547 Y86.309 E15.45246
G1 X134.279 Y86.868 E15.4831
G1 X134.96 Y87.487 E15.51371
G1 X135.584 Y88.164 E15.54433
G1 X136.148 Y88.892 E15.57496
G1 X136.646 Y89.666 E15.60557
G1 X137.075 Y90.481 E15.6362
G1 X137.432 Y91.329 E15.6668
G1 X137.714 Y92.206 E15.69744
G1 X137.918 Y93.103 E15.72804
G1 X138.044 Y94.015 E15.75866
G1 X138.09 Y95.135 E15.79595
G1 X137.957 Y106.332 E16.16839
G1 X138.095 Y110.729 E16.3147
G1 X138.1 Y111.086 E16.32658
G1 X138.091 Y115.015 E16.45726
G1 X138.049 Y115.935 E16.48789
G1 X137.927 Y116.848 E16.51852
G1 X137.727 Y117.746 E16.54912
G1 X137.449 Y118.624 E16.57975
G1 X137.096 Y119.474 E16.61037
G1 X136.671 Y120.291 E16.641
G1 X136.176 Y121.067 E16.67161
G1 X135.616 Y121.798 E16.70224
G1 X134.995 Y122.478 E16.73287
G1 X134.317 Y123.1 E16.76347
G1 X133.588 Y123.662 E16.79409
G1 X132.812 Y124.158 E16.82472
G1 X131.997 Y124.586 E16.85533
G1 X131.147 Y124.94 E16.88596
G1 X130.27 Y125.22 E16.91658
G1 X129.372 Y125.423 E16.9472
G1 X128.46 Y125.547 E16.97781
G1 X127.488 Y125.591 E17.01017
G1 X112.459 Y125.587 E17.51004
G1 X111.536 Y125.547 E17.54077
G1 X108.362 Y125.269 E17.64674
G1 X103.248 Y125.053 E17.81698
G1 X98.2 Y125.126 E17.9849
G1 X92.28 Y125.561 E18.18233
G1 X91.503 Y125.59 E18.20819
G1 X81.509 Y125.59 E18.54059
G1 X80.589 Y125.55 E18.57122
G1 X79.676 Y125.43 E18.60185
G1 X78.777 Y125.232 E18.63247
G1 X77.899 Y124.956 E18.66308
G1 X77.048 Y124.605 E18.6937
G1 X76.23 Y124.182 E18.72432
G1 X75.453 Y123.689 E18.75493
G1 X74.721 Y123.131 E18.78554
G1 X74.04 Y122.511 E18.81618
G1 X73.415 Y121.835 E18.8468
G1 X72.852 Y121.107 E18.87741
G1 X72.354 Y120.332 E18.90805
G1 X71.925 Y119.518 E18.93865
G1 X71.568 Y118.669 E18.96928
G1 X71.286 Y117.793 E18.99989
G1 X71.082 Y116.895 E19.03052
G1 X70.956 Y115.983 E19.06114
G1 X70.909 Y114.99 E19.0942
G1 X70.909 Y95.009 E19.75878
G1 X70.949 Y94.089 E19.7894
G1 X71.069 Y93.176 E19.82003
G1 X71.267 Y92.277 E19.85065
G1 X71.543 Y91.399 E19.88126
G1 X71.894 Y90.548 E19.91188
G1 X72.317 Y89.73 E19.94251
G1 X72.81 Y88.953 E19.97311
G1 X73.368 Y88.221 E20.00373
G1 X73.988 Y87.54 E20.03436
G1 X74.664 Y86.915 E20.06498
M204 S5000
M205 X30 Y30
G0 F3600 X74.382 Y87.712
M204 S500
M205 X20 Y20
G1 F1800 X75.055 Y87.111 E20.09499
G1 X75.779 Y86.571 E20.12503
G1 X76.548 Y86.097 E20.15507
G1 X77.355 Y85.693 E20.18509
G1 X78.196 Y85.362 E20.21515
G1 X79.062 Y85.107 E20.24518
G1 X79.947 Y84.929 E20.2752
G1 X80.845 Y84.831 E20.30525
G1 X81.499 Y84.809 E20.32701
G1 X90.783 Y84.8 E20.6358
G1 X91.557 Y84.829 E20.66156
G1 X95.534 Y85.128 E20.79421
G1 X100.741 Y85.347 E20.96755
G1 X105.8 Y85.274 E21.13583
G1 X111.749 Y84.837 E21.33423
G1 X112.496 Y84.81 E21.35909
G1 X127.49 Y84.809 E21.85779
G1 X128.393 Y84.849 E21.88785
G1 X129.288 Y84.968 E21.91788
G1 X130.169 Y85.167 E21.94792
G1 X131.029 Y85.442 E21.97795
G1 X131.861 Y85.793 E22.00799
G1 X132.659 Y86.215 E22.03801
G1 X133.417 Y86.707 E22.06807
G1 X134.128 Y87.264 E22.09811
G1 X134.787 Y87.881 E22.12814
G1 X135.389 Y88.554 E22.15817
G1 X135.929 Y89.278 E22.18821
G1 X136.403 Y90.047 E22.21825
G1 X136.807 Y90.855 E22.2483
G1 X137.138 Y91.695 E22.27833
G1 X137.393 Y92.561 E22.30836
G1 X137.571 Y93.447 E22.33841
G1 X137.669 Y94.344 E22.36842
G1 X137.69 Y95.13 E22.39458
G1 X137.557 Y106.34 E22.76745
G1 X137.695 Y110.742 E22.91393
G1 X137.7 Y111.085 E22.92534
G1 X137.691 Y115.014 E23.05602
G1 X137.649 Y115.916 E23.08605
G1 X137.527 Y116.811 E23.1161
G1 X137.327 Y117.692 E23.14614
G1 X137.049 Y118.551 E23.17617
G1 X136.697 Y119.383 E23.20622
G1 X136.272 Y120.18 E23.23626
G1 X135.779 Y120.936 E23.26628
G1 X135.221 Y121.646 E23.29632
G1 X134.602 Y122.304 E23.32636
G1 X133.927 Y122.904 E23.3564
G1 X133.202 Y123.442 E23.38643
G1 X132.432 Y123.914 E23.41647
G1 X131.623 Y124.316 E23.44651
G1 X130.782 Y124.645 E23.47655
G1 X129.915 Y124.899 E23.5066
G1 X129.029 Y125.074 E23.53664
G1 X128.132 Y125.171 E23.56665
G1 X127.488 Y125.191 E23.58807
G1 X112.459 Y125.187 E24.08794
G1 X111.571 Y125.148 E24.11751
G1 X108.391 Y124.869 E24.22368
G1 X103.259 Y124.653 E24.39452
G1 X98.2 Y124.726 E24.5628
G1 X92.251 Y125.163 E24.7612
G1 X91.503 Y125.19 E24.78609
G1 X81.509 Y125.19 E25.1185
G1 X80.607 Y125.15 E25.14853
G1 X79.712 Y125.03 E25.17856
G1 X78.831 Y124.832 E25.20859
G1 X77.971 Y124.557 E25.23862
G1 X77.138 Y124.206 E25.26869
G1 X76.34 Y123.783 E25.29873
G1 X75.583 Y123.292 E25.32874
G1 X74.872 Y122.735 E25.35878
G1 X74.212 Y122.117 E25.38885
G1 X73.611 Y121.444 E25.41886
G1 X73.071 Y120.72 E25.4489
G1 X72.597 Y119.951 E25.47895
G1 X72.193 Y119.144 E25.50896
G1 X71.862 Y118.303 E25.53903
G1 X71.607 Y117.437 E25.56905
G1 X71.429 Y116.552 E25.59908
G1 X71.331 Y115.654 E25.62912
G1 X71.309 Y114.99 E25.65122
G1 X71.309 Y95.009 E26.31579
G1 X71.349 Y94.107 E26.34582
G1 X71.469 Y93.212 E26.37585
G1 X71.667 Y92.331 E26.40589
G1 X71.942 Y91.471 E26.43592
G1 X72.293 Y90.638 E26.46598
G1 X72.716 Y89.84 E26.49602
G1 X73.207 Y89.083 E26.52603
G1 X73.764 Y88.372 E26.55607
G1 X74.382 Y87.712 E26.58614
M204 S5000
M205 X30 Y30
G1 F2400 E21.58614
G0 F3600 X82.114 Y94.335
G0 X82.114 Y95.614
G0 X90.5 Y101
M204 S500
M205 X20 Y20
;TYPE:WALL-INNER
G1 F2400 E26.58614
G1 F1800 X93.177 Y101 E26.67518
G1 X94.088 Y98.72 E26.75684
G1 X97.5 Y99.744 E26.87533
G1 X97.5 Y110.256 E27.22496
G1 X94.088 Y111.28 E27.34344
G1 X93.177 Y109 E27.42511
G1 X90.5 Y109 E27.51414
G1 X90.5 Y114 E27.68044
G1 X82.5 Y114 E27.94652
G1 X82.5 Y96 E28.54521
G1 X90.5 Y96 E28.81129
G1 X90.5 Y101 E28.97759
M204 S5000
M205 X30 Y30
G0 F3600 X90.9 Y100.6
M204 S500
M205 X20 Y20
G1 F1800 X92.906 Y100.6 E29.04431
G1 X93.853 Y98.232 E29.12913
G1 X97.9 Y99.446 E29.26966
G1 X97.9 Y110.554 E29.63912
G1 X93.853 Y111.768 E29.77965
G1 X92.906 Y109.4 E29.86447
G1 X90.9 Y109.4 E29.93119
G1 X90.9 Y114.4 E30.09749
G1 X82.1 Y114.4 E30.39018
G1 X82.1 Y95.6 E31.01547
G1 X90.9 Y95.6 E31.30816
G1 X90.9 Y100.6 E31.47446
M204 S5000
M205 X30 Y30
G0 F3600 X91.3 Y100.2
M204 S500
M205 X20 Y20
;TYPE:WALL-OUTER
G1 F1800 X92.635 Y100.2 E31.51886
G1 X93.618 Y97.744 E31.60685
G1 X98.3 Y99.149 E31.76943
G1 X98.3 Y110.851 E32.15864
G1 X93.618 Y112.256 E32.32123
G1 X92.635 Y109.8 E32.40922
G1 X91.3 Y109.8 E32.45362
G1 X91.3 Y114.8 E32.61992
G1 X81.7 Y114.8 E32.93922
G1 X81.7 Y95.2 E33.59111
G1 X91.3 Y95.2 E33.91041
G1 X91.3 Y100.2 E34.07671
M204 S5000
M205 X30 Y30
G0 F3600 X91.5 Y100.2
G0 X91.5 Y100.7
G0 X90.11 Y101.39
M204 S500
M205 X20 Y20
;TYPE:SKIN
G1 F1800 X93.441 Y101.39 E34.1875
G1 X94.318 Y99.196 E34.26609
G1 X97.11 Y100.034 E34.36304
G1 X97.11 Y109.966 E34.69338
G1 X94.318 Y110.804 E34.79034
G1 X93.441 Y108.61 E34.86892
G1 X90.11 Y108.61 E34.97971
G1 X90.11 Y113.61 E35.14602
G1 X82.89 Y113.61 E35.38615
G1 X82.89 Y96.39 E35.95889
G1 X90.11 Y96.39 E36.19903
G1 X90.11 Y101.39 E36.36533
M204 S5000
M205 X30 Y30
G0 F3600 X86.51 Y104.99
M204 S500
M205 X20 Y20
G1 F1800 X93.51 Y104.99 E36.59815
G1 X93.51 Y105.01 E36.59882
G1 X86.51 Y105.01 E36.83164
G1 X86.51 Y110.01 E36.99794
G1 X86.49 Y110.01 E36.9986
G1 X86.49 Y99.99 E37.33187
G1 X86.51 Y99.99 E37.33254
G1 X86.51 Y104.99 E37.49884
M204 S5000
M205 X30 Y30
G0 F3600 X86.91 Y104.59
M204 S500
M205 X20 Y20
G1 F1800 X93.91 Y104.59 E37.73166
G1 X93.91 Y105.41 E37.75893
G1 X86.91 Y105.41 E37.99175
G1 X86.91 Y110.41 E38.15805
G1 X86.09 Y110.41 E38.18533
G1 X86.09 Y99.59 E38.5452
G1 X86.91 Y99.59 E38.57247
G1 X86.91 Y104.59 E38.73877
M204 S5000
M205 X30 Y30
G0 F3600 X87.31 Y104.19
M204 S500
M205 X20 Y20
G1 F1800 X94.31 Y104.19 E38.9716
G1 X94.31 Y105.81 E39.02548
G1 X87.31 Y105.81 E39.2583
G1 X87.31 Y110.81 E39.4246
G1 X85.69 Y110.81 E39.47848
G1 X85.69 Y99.19 E39.86496
G1 X87.31 Y99.19 E39.91884
G1 X87.31 Y104.19 E40.08515
M204 S5000
M205 X30 Y30
G0 F3600 X87.71 Y103.79
M204 S500
M205 X20 Y20
G1 F1800 X94.71 Y103.79 E40.31797
G1 X94.71 Y106.21 E40.39846
G1 X87.71 Y106.21 E40.63128
G1 X87.71 Y111.21 E40.79758
G1 X85.29 Y111.21 E40.87807
G1 X85.29 Y98.79 E41.29116
G1 X87.71 Y98.79 E41.37165
G1 X87.71 Y103.79 E41.53795
M204 S5000
M205 X30 Y30
G0 F3600 X88.11 Y103.39
M204 S500
M205 X20 Y20
G1 F1800 X94.795 Y103.39 E41.76029
G1 X95.11 Y102.6 E41.78858
G1 X95.11 Y107.4 E41.94823
G1 X94.795 Y106.61 E41.97652
G1 X88.11 Y106.61 E42.19886
G1 X88.11 Y111.61 E42.36516
G1 X84.89 Y111.61 E42.47226
G1 X84.89 Y98.39 E42.91196
G1 X88.11 Y98.39 E43.01905
G1 X88.11 Y103.39 E43.18535
M204 S5000
M205 X30 Y30
G0 F3600 X88.51 Y102.99
M204 S500
M205 X20 Y20
G1 F1800 X94.524 Y102.99 E43.38538
G1 X95.259 Y101.149 E43.45131
G1 X95.51 Y101.224 E43.46003
G1 X95.51 Y108.776 E43.71121
G1 X95.259 Y108.851 E43.71992
G1 X94.524 Y107.01 E43.78585
G1 X88.51 Y107.01 E43.98588
G1 X88.51 Y112.01 E44.15218
G1 X84.49 Y112.01 E44.28588
G1 X84.49 Y97.99 E44.75219
G1 X88.51 Y97.99 E44.8859
G1 X88.51 Y102.99 E45.0522
M204 S5000
M205 X30 Y30
G0 F3600 X88.91 Y102.59
M204 S500
M205 X20 Y20
G1 F1800 X94.253 Y102.59 E45.22991
G1 X95.024 Y100.661 E45.299
G1 X95.91 Y100.927 E45.32977
G1 X95.91 Y109.073 E45.6007
G1 X95.024 Y109.339 E45.63147
G1 X94.253 Y107.41 E45.70057
G1 X88.91 Y107.41 E45.87828
G1 X88.91 Y112.41 E46.04458
G1 X84.09 Y112.41 E46.20489
G1 X84.09 Y97.59 E46.6978
G1 X88.91 Y97.59 E46.85812
G1 X88.91 Y102.59 E47.02442
M204 S5000
M205 X30 Y30
G0 F3600 X89.31 Y102.19
M204 S500
M205 X20 Y20
G1 F1800 X93.982 Y102.19 E47.17981
G1 X94.789 Y100.173 E47.25207
G1 X96.31 Y100.629 E47.30488
G1 X96.31 Y109.371 E47.59564
