;FLAVOR:Marlin
;TIME:1911
;Filament used: 1.48764m
;Layer height: 0.2
;Generated with Cura_SteamEngine 3.4.1
M190 S65
M104 S225
M109 S225
M82 ;absolute extrusion mode
G28 ;Home
G1 Z15.0 F6000 ;Move the platform down 15mm
;Prime the extruder
G92 E0
G1 F200 E3
G92 E0
G92 E0
G1 F2400 E-5
;LAYER_COUNT:51
;LAYER:0
M107
M204 S5000
M205 X30 Y30
G0 F3600 X76.576 Y88.758 Z0.2
M204 S500
M205 X20 Y20
;TYPE:SKIRT
G1 F2400 E0
G1 F1800 X77.226 Y88.296 E0.01989
G1 X77.919 Y87.902 E0.03978
G1 X78.648 Y87.579 E0.05967
G1 X79.406 Y87.331 E0.07956
G1 X80.184 Y87.16 E0.09943
G1 X80.976 Y87.067 E0.11933
G1 X81.5 Y87.05 E0.1324
G1 X91.5 Y87.05 E0.38185
G1 X92.296 Y87.09 E0.40174
G1 X93.084 Y87.209 E0.42162
G1 X93.857 Y87.407 E0.44152
G1 X94.605 Y87.682 E0.4614
G1 X95.323 Y88.029 E0.48129
G1 X96.002 Y88.447 E0.50118
G1 X96.635 Y88.931 E0.52106
G1 X97.217 Y89.476 E0.54095
G1 X97.742 Y90.076 E0.56084
G1 X98.1 Y90.58 E0.57626
G1 X100.784 Y91.385 E0.64616
G1 X101.536 Y91.652 E0.66606
G1 X102.256 Y91.993 E0.68594
G1 X102.939 Y92.405 E0.70583
G1 X103.577 Y92.883 E0.72572
G1 X104.165 Y93.422 E0.74562
G1 X104.629 Y93.943 E0.76302
G1 X104.709 Y93.416 E0.77632
G1 X104.907 Y92.643 E0.79622
G1 X105.182 Y91.895 E0.8161
G1 X105.529 Y91.177 E0.836
G1 X105.947 Y90.498 E0.85589
G1 X106.431 Y89.865 E0.87576
G1 X106.976 Y89.283 E0.89565
G1 X107.576 Y88.758 E0.91554
G1 X108.226 Y88.296 E0.93543
G1 X108.919 Y87.902 E0.95532
G1 X109.648 Y87.579 E0.97521
G1 X110.406 Y87.331 E0.9951
G1 X111.184 Y87.16 E1.01497
G1 X111.976 Y87.067 E1.03487
G1 X112.5 Y87.05 E1.04794
G1 X127.5 Y87.05 E1.42212
G1 X128.296 Y87.09 E1.442
G1 X129.084 Y87.209 E1.46188
G1 X129.857 Y87.407 E1.48179
G1 X130.605 Y87.682 E1.50167
G1 X131.323 Y88.029 E1.52156
G1 X132.002 Y88.447 E1.54145
G1 X132.635 Y88.931 E1.56133
G1 X133.217 Y89.476 E1.58122
G1 X133.742 Y90.076 E1.6011
G1 X134.204 Y90.726 E1.621
G1 X134.598 Y91.419 E1.64088
G1 X134.921 Y92.148 E1.66077
G1 X135.169 Y92.906 E1.68067
G1 X135.34 Y93.684 E1.70054
G1 X135.433 Y94.476 E1.72043
G1 X135.45 Y95 E1.73351
G1 X135.45 Y99.9 E1.85574
G1 X135.41 Y100.696 E1.87562
G1 X135.291 Y101.484 E1.8955
G1 X135.093 Y102.257 E1.91541
G1 X134.818 Y103.005 E1.93529
G1 X134.471 Y103.723 E1.95518
G1 X134.053 Y104.402 E1.97507
G1 X133.592 Y105.005 E1.994
G1 X133.742 Y105.176 E1.99968
G1 X134.204 Y105.826 E2.01957
G1 X134.598 Y106.519 E2.03945
G1 X134.921 Y107.248 E2.05934
G1 X135.169 Y108.006 E2.07924
G1 X135.34 Y108.784 E2.09911
G1 X135.433 Y109.576 E2.119
G1 X135.45 Y110.1 E2.13208
G1 X135.45 Y115 E2.25431
G1 X135.41 Y115.796 E2.27419
G1 X135.291 Y116.584 E2.29407
G1 X135.093 Y117.357 E2.31398
G1 X134.818 Y118.105 E2.33386
G1 X134.471 Y118.823 E2.35375
G1 X134.053 Y119.502 E2.37364
G1 X133.569 Y120.135 E2.39352
G1 X133.024 Y120.717 E2.41341
G1 X132.424 Y121.242 E2.43329
G1 X131.774 Y121.704 E2.45319
G1 X131.081 Y122.098 E2.47307
G1 X130.352 Y122.421 E2.49296
G1 X129.594 Y122.669 E2.51286
G1 X128.816 Y122.84 E2.53273
G1 X128.024 Y122.933 E2.55262
G1 X127.5 Y122.95 E2.5657
G1 X112.5 Y122.95 E2.93987
G1 X111.704 Y122.91 E2.95976
G1 X110.916 Y122.791 E2.97964
G1 X110.143 Y122.593 E2.99954
G1 X109.395 Y122.318 E3.01942
G1 X108.677 Y121.971 E3.03931
G1 X107.998 Y121.553 E3.0592
G1 X107.365 Y121.069 E3.07908
G1 X106.783 Y120.524 E3.09897
G1 X106.258 Y119.924 E3.11886
G1 X105.796 Y119.274 E3.13875
G1 X105.402 Y118.581 E3.15864
G1 X105.079 Y117.852 E3.17853
G1 X104.831 Y117.094 E3.19842
G1 X104.66 Y116.316 E3.21829
G1 X104.629 Y116.056 E3.22482
G1 X104.569 Y116.135 E3.2273
G1 X104.024 Y116.717 E3.24719
G1 X103.424 Y117.242 E3.26708
G1 X102.774 Y117.704 E3.28697
G1 X102.081 Y118.098 E3.30685
G1 X101.352 Y118.421 E3.32674
G1 X100.784 Y118.615 E3.34172
G1 X98.104 Y119.419 E3.41151
G1 X98.053 Y119.502 E3.41394
G1 X97.569 Y120.135 E3.43382
G1 X97.024 Y120.717 E3.45371
G1 X96.424 Y121.242 E3.4736
G1 X95.774 Y121.704 E3.49349
G1 X95.081 Y122.098 E3.51338
G1 X94.352 Y122.421 E3.53327
G1 X93.594 Y122.669 E3.55316
G1 X92.816 Y122.84 E3.57303
G1 X92.024 Y122.933 E3.59292
G1 X91.5 Y122.95 E3.606
G1 X81.5 Y122.95 E3.85545
G1 X80.704 Y122.91 E3.87533
G1 X79.916 Y122.791 E3.89521
G1 X79.143 Y122.593 E3.91512
G1 X78.395 Y122.318 E3.935
G1 X77.677 Y121.971 E3.95489
G1 X76.998 Y121.553 E3.97478
G1 X76.365 Y121.069 E3.99466
G1 X75.783 Y120.524 E4.01455
G1 X75.258 Y119.924 E4.03444
G1 X74.796 Y119.274 E4.05433
G1 X74.402 Y118.581 E4.07421
G1 X74.079 Y117.852 E4.0941
G1 X73.831 Y117.094 E4.114
G1 X73.66 Y116.316 E4.13387
G1 X73.567 Y115.524 E4.15376
G1 X73.55 Y115 E4.16684
G1 X73.55 Y95 E4.66574
G1 X73.59 Y94.204 E4.68562
G1 X73.709 Y93.416 E4.7055
G1 X73.907 Y92.643 E4.72541
G1 X74.182 Y91.895 E4.74529
G1 X74.529 Y91.177 E4.76518
G1 X74.947 Y90.498 E4.78507
G1 X75.431 Y89.865 E4.80495
G1 X75.976 Y89.283 E4.82484
G1 X76.576 Y88.758 E4.84472
M204 S5000
M205 X30 Y30
G0 F3600 X76.868 Y88.912
M204 S500
M205 X20 Y20
G1 F1800 X77.514 Y88.47 E4.86425
G1 X78.202 Y88.098 E4.88376
G1 X78.923 Y87.797 E4.90325
G1 X79.672 Y87.572 E4.92276
G1 X80.44 Y87.424 E4.94227
G1 X81.5 Y87.35 E4.96878
G1 X91.5 Y87.35 E5.21823
G1 X92.281 Y87.39 E5.23773
G1 X93.054 Y87.509 E5.25724
G1 X93.811 Y87.707 E5.27676
G1 X94.543 Y87.981 E5.29626
G1 X95.244 Y88.329 E5.31578
G1 X95.905 Y88.746 E5.33528
G1 X96.521 Y89.228 E5.35479
G1 X97.084 Y89.771 E5.3743
G1 X97.588 Y90.368 E5.39379
G1 X97.908 Y90.836 E5.40793
G1 X100.698 Y91.673 E5.48059
G1 X101.435 Y91.935 E5.50011
G1 X102.141 Y92.272 E5.51962
G1 X102.809 Y92.679 E5.53913
G1 X103.431 Y93.152 E5.55863
G1 X104.003 Y93.686 E5.57815
G1 X104.517 Y94.275 E5.59765
G1 X104.862 Y94.764 E5.61257
G1 X104.89 Y94.219 E5.62619
G1 X105.009 Y93.446 E5.6457
G1 X105.207 Y92.689 E5.66522
G1 X105.481 Y91.957 E5.68471
G1 X105.829 Y91.256 E5.70424
G1 X106.246 Y90.595 E5.72373
G1 X106.728 Y89.979 E5.74324
G1 X107.271 Y89.416 E5.76275
G1 X107.868 Y88.912 E5.78224
G1 X108.514 Y88.47 E5.80177
G1 X109.202 Y88.098 E5.82128
G1 X109.923 Y87.797 E5.84077
G1 X110.672 Y87.572 E5.86028
G1 X111.44 Y87.424 E5.87979
G1 X112.5 Y87.35 E5.90629
G1 X127.5 Y87.35 E6.28047
G1 X128.281 Y87.39 E6.29998
G1 X129.054 Y87.509 E6.31949
G1 X129.811 Y87.707 E6.33901
G1 X130.543 Y87.981 E6.3585
G1 X131.244 Y88.329 E6.37803
G1 X131.905 Y88.746 E6.39752
G1 X132.521 Y89.228 E6.41703
G1 X133.084 Y89.771 E6.43655
G1 X133.588 Y90.368 E6.45604
G1 X134.03 Y91.014 E6.47556
G1 X134.402 Y91.702 E6.49507
G1 X134.703 Y92.423 E6.51456
G1 X134.928 Y93.172 E6.53407
G1 X135.076 Y93.94 E6.55358
G1 X135.15 Y95 E6.58009
G1 X135.15 Y99.9 E6.70232
G1 X135.11 Y100.681 E6.72182
G1 X134.991 Y101.454 E6.74133
G1 X134.793 Y102.211 E6.76085
G1 X134.519 Y102.943 E6.78035
G1 X134.171 Y103.644 E6.79987
G1 X133.754 Y104.305 E6.81937
G1 X133.272 Y104.921 E6.83888
G1 X133.194 Y105.002 E6.84168
G1 X133.588 Y105.468 E6.85691
G1 X134.03 Y106.114 E6.87643
G1 X134.402 Y106.802 E6.89594
G1 X134.703 Y107.523 E6.91543
G1 X134.928 Y108.272 E6.93494
G1 X135.076 Y109.04 E6.95445
G1 X135.15 Y110.1 E6.98096
G1 X135.15 Y115 E7.10319
G1 X135.11 Y115.781 E7.1227
G1 X134.991 Y116.554 E7.14221
G1 X134.793 Y117.311 E7.16173
G1 X134.519 Y118.043 E7.18122
G1 X134.171 Y118.744 E7.20074
G1 X133.754 Y119.405 E7.22024
G1 X133.272 Y120.021 E7.23975
G1 X132.729 Y120.584 E7.25926
G1 X132.132 Y121.088 E7.27875
G1 X131.486 Y121.53 E7.29828
G1 X130.798 Y121.902 E7.31779
G1 X130.077 Y122.203 E7.33728
G1 X129.328 Y122.428 E7.35679
G1 X128.56 Y122.576 E7.3763
G1 X127.5 Y122.65 E7.4028
G1 X112.5 Y122.65 E7.77698
G1 X111.719 Y122.61 E7.79649
G1 X110.946 Y122.491 E7.816
G1 X110.189 Y122.293 E7.83552
G1 X109.457 Y122.019 E7.85501
G1 X108.756 Y121.671 E7.87454
G1 X108.095 Y121.254 E7.89403
G1 X107.479 Y120.772 E7.91354
G1 X106.916 Y120.229 E7.93305
G1 X106.412 Y119.632 E7.95254
G1 X105.97 Y118.986 E7.97207
G1 X105.598 Y118.298 E7.99158
G1 X105.297 Y117.577 E8.01107
G1 X105.072 Y116.828 E8.03058
G1 X104.924 Y116.06 E8.05009
G1 X104.866 Y115.228 E8.07089
G1 X104.754 Y115.405 E8.07612
G1 X104.272 Y116.021 E8.09563
G1 X103.729 Y116.584 E8.11514
G1 X103.132 Y117.088 E8.13463
G1 X102.486 Y117.53 E8.15416
G1 X101.798 Y117.902 E8.17367
G1 X101.077 Y118.203 E8.19316
G1 X100.698 Y118.327 E8.2031
G1 X97.906 Y119.165 E8.27582
G1 X97.754 Y119.405 E8.28291
G1 X97.272 Y120.021 E8.30242
G1 X96.729 Y120.584 E8.32193
G1 X96.132 Y121.088 E8.34142
G1 X95.486 Y121.53 E8.36094
G1 X94.798 Y121.902 E8.38046
G1 X94.077 Y122.203 E8.39994
G1 X93.328 Y122.428 E8.41945
G1 X92.56 Y122.576 E8.43896
G1 X91.5 Y122.65 E8.46547
G1 X81.5 Y122.65 E8.71492
G1 X80.719 Y122.61 E8.73443
G1 X79.946 Y122.491 E8.75394
G1 X79.189 Y122.293 E8.77346
G1 X78.457 Y122.019 E8.79295
G1 X77.756 Y121.671 E8.81248
G1 X77.095 Y121.254 E8.83197
G1 X76.479 Y120.772 E8.85148
G1 X75.916 Y120.229 E8.871
G1 X75.412 Y119.632 E8.89049
G1 X74.97 Y118.986 E8.91001
G1 X74.598 Y118.298 E8.92952
G1 X74.297 Y117.577 E8.94901
G1 X74.072 Y116.828 E8.96852
G1 X73.924 Y116.06 E8.98803
G1 X73.85 Y115 E9.01454
G1 X73.85 Y95 E9.51344
G1 X73.89 Y94.219 E9.53295
G1 X74.009 Y93.446 E9.55246
G1 X74.207 Y92.689 E9.57197
G1 X74.481 Y91.957 E9.59147
G1 X74.829 Y91.256 E9.61099
G1 X75.246 Y90.595 E9.63049
G1 X75.728 Y89.979 E9.65
G1 X76.271 Y89.416 E9.66951
G1 X76.868 Y88.912 E9.689
M204 S5000
M205 X30 Y30
G0 F3600 X77.159 Y89.069
M204 S500
M205 X20 Y20
G1 F1800 X77.801 Y88.649 E9.70814
G1 X78.482 Y88.298 E9.72725
G1 X79.197 Y88.02 E9.74639
G1 X79.936 Y87.818 E9.7655
G1 X80.693 Y87.694 E9.78463
G1 X81.5 Y87.65 E9.80479
G1 X91.5 Y87.65 E10.05424
G1 X92.266 Y87.69 E10.07338
G1 X93.023 Y87.809 E10.09249
G1 X93.763 Y88.007 E10.1116
G1 X94.479 Y88.281 E10.13073
G1 X95.163 Y88.628 E10.14986
G1 X95.807 Y89.044 E10.16898
G1 X96.404 Y89.525 E10.18811
G1 X96.947 Y90.065 E10.20721
G1 X97.431 Y90.659 E10.22632
G1 X97.713 Y91.09 E10.23917
G1 X100.612 Y91.96 E10.31467
G1 X101.334 Y92.218 E10.3338
G1 X102.025 Y92.55 E10.35292
G1 X102.677 Y92.952 E10.37203
G1 X103.284 Y93.42 E10.39115
G1 X103.839 Y93.949 E10.41028
G1 X104.337 Y94.533 E10.42942
G1 X104.77 Y95.165 E10.44853
G1 X105.135 Y95.839 E10.46765
G1 X105.15 Y95.875 E10.46863
G1 X105.15 Y95 E10.49045
G1 X105.19 Y94.234 E10.50959
G1 X105.309 Y93.477 E10.5287
G1 X105.507 Y92.737 E10.54781
G1 X105.781 Y92.021 E10.56693
G1 X106.128 Y91.337 E10.58607
G1 X106.544 Y90.693 E10.60519
G1 X107.025 Y90.096 E10.62432
G1 X107.565 Y89.553 E10.64342
G1 X108.159 Y89.069 E10.66253
G1 X108.801 Y88.649 E10.68167
G1 X109.482 Y88.298 E10.70078
G1 X110.197 Y88.02 E10.71992
G1 X110.936 Y87.818 E10.73903
G1 X111.693 Y87.694 E10.75816
G1 X112.5 Y87.65 E10.77832
G1 X127.5 Y87.65 E11.1525
G1 X128.266 Y87.69 E11.17163
G1 X129.023 Y87.809 E11.19075
G1 X129.763 Y88.007 E11.20986
G1 X130.479 Y88.281 E11.22898
G1 X131.163 Y88.628 E11.24811
G1 X131.807 Y89.044 E11.26724
G1 X132.404 Y89.525 E11.28636
G1 X132.947 Y90.065 E11.30547
G1 X133.431 Y90.659 E11.32458
G1 X133.851 Y91.301 E11.34372
G1 X134.202 Y91.982 E11.36283
G1 X134.48 Y92.697 E11.38197
G1 X134.682 Y93.436 E11.40108
G1 X134.806 Y94.193 E11.42021
G1 X134.85 Y95 E11.44037
G1 X134.85 Y99.9 E11.5626
G1 X134.81 Y100.666 E11.58174
G1 X134.691 Y101.423 E11.60085
G1 X134.493 Y102.163 E11.61996
G1 X134.219 Y102.879 E11.63908
G1 X133.872 Y103.563 E11.65822
G1 X133.456 Y104.207 E11.67734
G1 X132.975 Y104.804 E11.69647
G1 X132.781 Y104.999 E11.70333
G1 X132.947 Y105.165 E11.70918
G1 X133.431 Y105.759 E11.7283
G1 X133.851 Y106.401 E11.74744
G1 X134.202 Y107.082 E11.76655
G1 X134.48 Y107.797 E11.78568
G1 X134.682 Y108.536 E11.80479
G1 X134.806 Y109.293 E11.82393
G1 X134.85 Y110.1 E11.84409
G1 X134.85 Y115 E11.96632
G1 X134.81 Y115.766 E11.98545
G1 X134.691 Y116.523 E12.00457
G1 X134.493 Y117.263 E12.02368
G1 X134.219 Y117.979 E12.0428
G1 X133.872 Y118.663 E12.06193
G1 X133.456 Y119.307 E12.08106
G1 X132.975 Y119.904 E12.10018
G1 X132.435 Y120.447 E12.11929
G1 X131.841 Y120.931 E12.1384
G1 X131.199 Y121.351 E12.15754
G1 X130.518 Y121.702 E12.17665
G1 X129.803 Y121.98 E12.19579
G1 X129.064 Y122.182 E12.2149
G1 X128.307 Y122.306 E12.23403
G1 X127.5 Y122.35 E12.25419
G1 X112.5 Y122.35 E12.62837
G1 X111.734 Y122.31 E12.6475
G1 X110.977 Y122.191 E12.66662
G1 X110.237 Y121.993 E12.68573
G1 X109.521 Y121.719 E12.70485
G1 X108.837 Y121.372 E12.72398
G1 X108.193 Y120.956 E12.74311
G1 X107.596 Y120.475 E12.76223
G1 X107.053 Y119.935 E12.78133
G1 X106.569 Y119.341 E12.80045
G1 X106.149 Y118.699 E12.81959
G1 X105.798 Y118.018 E12.8387
G1 X105.52 Y117.303 E12.85783
G1 X105.318 Y116.564 E12.87694
G1 X105.194 Y115.807 E12.89608
G1 X105.15 Y115 E12.91624
G1 X105.15 Y114.115 E12.93832
G1 X104.872 Y114.663 E12.95364
G1 X104.456 Y115.307 E12.97277
G1 X103.975 Y115.904 E12.99189
G1 X103.435 Y116.447 E13.011
G1 X102.841 Y116.931 E13.03011
G1 X102.199 Y117.351 E13.04925
G1 X101.518 Y117.702 E13.06836
G1 X100.612 Y118.04 E13.09248
G1 X97.713 Y118.91 E13.16798
G1 X97.456 Y119.307 E13.17978
G1 X96.975 Y119.904 E13.1989
G1 X96.435 Y120.447 E13.21801
G1 X95.841 Y120.931 E13.23712
G1 X95.199 Y121.351 E13.25626
G1 X94.518 Y121.702 E13.27537
G1 X93.803 Y121.98 E13.29451
G1 X93.064 Y122.182 E13.31362
G1 X92.307 Y122.306 E13.33275
G1 X91.5 Y122.35 E13.35291
G1 X81.5 Y122.35 E13.60236
G1 X80.734 Y122.31 E13.6215
G1 X79.977 Y122.191 E13.64061
G1 X79.237 Y121.993 E13.65972
G1 X78.521 Y121.719 E13.67885
G1 X77.837 Y121.372 E13.69798
G1 X77.193 Y120.956 E13.7171
G1 X76.596 Y120.475 E13.73623
G1 X76.053 Y119.935 E13.75533
G1 X75.569 Y119.341 E13.77444
G1 X75.149 Y118.699 E13.79358
G1 X74.798 Y118.018 E13.81269
G1 X74.52 Y117.303 E13.83183
G1 X74.318 Y116.564 E13.85094
G1 X74.194 Y115.807 E13.87007
G1 X74.15 Y115 E13.89023
G1 X74.15 Y95 E14.38914
G1 X74.19 Y94.234 E14.40827
G1 X74.309 Y93.477 E14.42739
G1 X74.507 Y92.737 E14.4465
G1 X74.781 Y92.021 E14.46562
G1 X75.128 Y91.337 E14.48475
G1 X75.544 Y90.693 E14.50388
G1 X76.025 Y90.096 E14.523
G1 X76.565 Y89.553 E14.5421
G1 X77.159 Y89.069 E14.56122
M204 S5000
M205 X30 Y30
G0 F3600 X76.859 Y89.693
M204 S500
M205 X20 Y20
G1 F1800 X77.45 Y89.229 E14.57996
G1 X78.087 Y88.831 E14.5987
G1 X78.762 Y88.503 E14.61742
G1 X79.468 Y88.249 E14.63613
G1 X80.198 Y88.071 E14.65488
G1 X80.942 Y87.972 E14.6736
G1 X81.5 Y87.95 E14.68753
G1 X91.5 Y87.95 E14.93698
G1 X92.25 Y87.99 E14.95572
G1 X92.991 Y88.109 E14.97444
G1 X93.715 Y88.307 E14.99316
G1 X94.414 Y88.581 E15.01189
G1 X95.08 Y88.927 E15.03061
G1 X95.706 Y89.342 E15.04935
G1 X96.284 Y89.821 E15.06807
G1 X96.807 Y90.359 E15.08679
G1 X97.271 Y90.95 E15.10553
G1 X97.517 Y91.344 E15.11712
G1 X100.526 Y92.247 E15.19549
G1 X101.232 Y92.501 E15.2142
G1 X101.908 Y92.828 E15.23293
G1 X102.545 Y93.226 E15.25167
G1 X103.136 Y93.689 E15.2704
G1 X103.674 Y94.212 E15.28912
G1 X104.154 Y94.789 E15.30784
G1 X104.57 Y95.414 E15.32657
G1 X104.917 Y96.08 E15.3453
G1 X105.191 Y96.779 E15.36403
G1 X105.389 Y97.503 E15.38275
G1 X105.45 Y97.88 E15.39228
G1 X105.45 Y95 E15.46412
G1 X105.49 Y94.25 E15.48286
G1 X105.609 Y93.509 E15.50158
G1 X105.807 Y92.785 E15.5203
G1 X106.081 Y92.086 E15.53903
G1 X106.427 Y91.42 E15.55775
G1 X106.842 Y90.794 E15.57649
G1 X107.321 Y90.216 E15.59521
G1 X107.859 Y89.693 E15.61393
G1 X108.45 Y89.229 E15.63267
G1 X109.087 Y88.831 E15.65141
G1 X109.762 Y88.503 E15.67013
G1 X110.468 Y88.249 E15.68885
G1 X111.198 Y88.071 E15.70759
G1 X111.942 Y87.972 E15.72631
G1 X112.5 Y87.95 E15.74024
G1 X127.5 Y87.95 E16.11442
G1 X128.25 Y87.99 E16.13315
G1 X128.991 Y88.109 E16.15188
G1 X129.715 Y88.307 E16.1706
G1 X130.414 Y88.581 E16.18933
G1 X131.08 Y88.927 E16.20805
G1 X131.706 Y89.342 E16.22678
G1 X132.284 Y89.821 E16.24551
G1 X132.807 Y90.359 E16.26423
G1 X133.271 Y90.95 E16.28297
G1 X133.669 Y91.587 E16.30171
G1 X133.997 Y92.262 E16.32043
G1 X134.251 Y92.968 E16.33914
G1 X134.429 Y93.698 E16.35789
G1 X134.528 Y94.442 E16.37661
G1 X134.55 Y95 E16.39054
G1 X134.55 Y99.9 E16.51277
G1 X134.51 Y100.65 E16.53151
G1 X134.391 Y101.391 E16.55023
G1 X134.193 Y102.115 E16.56895
G1 X133.919 Y102.814 E16.58768
G1 X133.573 Y103.48 E16.6064
G1 X133.158 Y104.106 E16.62514
G1 X132.679 Y104.684 E16.64386
G1 X132.357 Y104.997 E16.65506
G1 X132.807 Y105.459 E16.67115
G1 X133.271 Y106.05 E16.6899
G1 X133.669 Y106.687 E16.70863
G1 X133.997 Y107.362 E16.72735
