;FLAVOR:Marlin
;TIME:2782
;Filament used: 2.60956m
;Layer height: 0.2
;Generated with Cura_SteamEngine 3.4.1
M190 S65
M104 S220
M109 S220
M82 ;absolute extrusion mode
G28 ;Home
G1 Z15.0 F6000 ;Move the platform down 15mm
;Prime the extruder
G92 E0
G1 F200 E3
G92 E0
G92 E0
G1 F2400 E-5
;LAYER_COUNT:91
;LAYER:0
M106 S191.3
M204 S5000
M205 X30 Y30
G0 F3600 X84.227 Y68.207 Z0.2
M204 S500
M205 X20 Y20
;TYPE:SKIRT
G1 F2400 E0
G1 F1800 X84.726 Y67.595 E0.02626
G1 X85.284 Y67.036 E0.05253
G1 X86.014 Y66.452 E0.08363
G1 X86.348 Y66.216 E0.09723
G1 X87.015 Y65.793 E0.1235
G1 X87.722 Y65.44 E0.14978
G1 X88.46 Y65.161 E0.17602
G1 X89.254 Y64.951 E0.20334
G1 X89.661 Y64.866 E0.21717
G1 X90.442 Y64.744 E0.24346
G1 X91.263 Y64.701 E0.2708
G1 X118.978 Y64.725 E1.19261
G1 X119.766 Y64.766 E1.21885
G1 X120.547 Y64.886 E1.24513
G1 X121.311 Y65.084 E1.27139
G1 X122.253 Y65.449 E1.30499
G1 X122.626 Y65.622 E1.31866
G1 X123.325 Y65.99 E1.34494
G1 X123.982 Y66.427 E1.37118
G1 X124.593 Y66.928 E1.39746
G1 X125.192 Y67.537 E1.42587
G1 X125.47 Y67.852 E1.43984
G1 X125.962 Y68.47 E1.46612
G1 X126.389 Y69.134 E1.49237
G1 X126.747 Y69.838 E1.51864
G1 X127.072 Y70.703 E1.54938
G1 X127.196 Y71.103 E1.56331
G1 X127.392 Y71.869 E1.5896
G1 X127.509 Y72.65 E1.61587
G1 X127.546 Y73.412 E1.64124
G1 X127.55 Y131.504 E3.57339
G1 X127.51 Y132.293 E3.59967
G1 X127.391 Y133.074 E3.62594
G1 X127.193 Y133.838 E3.65219
G1 X126.919 Y134.579 E3.67847
G1 X126.571 Y135.288 E3.70474
G1 X126.154 Y135.958 E3.73099
G1 X125.671 Y136.583 E3.75726
G1 X125.265 Y137.02 E3.7771
G1 X125.148 Y137.137 E3.7826
G1 X124.562 Y137.667 E3.80888
G1 X123.926 Y138.134 E3.83513
G1 X123.246 Y138.535 E3.86138
G1 X122.528 Y138.865 E3.88766
G1 X121.781 Y139.12 E3.91392
G1 X121.012 Y139.299 E3.94018
G1 X120.228 Y139.399 E3.96647
G1 X119.637 Y139.422 E3.98614
G1 X117.871 Y139.423 E4.04487
G1 X117.083 Y139.383 E4.07112
G1 X116.302 Y139.264 E4.09739
G1 X115.537 Y139.067 E4.12367
G1 X114.797 Y138.793 E4.14991
G1 X114.087 Y138.446 E4.1762
G1 X113.417 Y138.029 E4.20244
G1 X112.792 Y137.546 E4.22872
G1 X112.352 Y137.138 E4.24867
G1 X112.235 Y137.021 E4.25418
G1 X111.705 Y136.435 E4.28046
G1 X111.238 Y135.799 E4.3067
G1 X110.837 Y135.119 E4.33296
G1 X110.507 Y134.401 E4.35924
G1 X110.252 Y133.654 E4.38549
G1 X110.073 Y132.885 E4.41175
G1 X109.973 Y132.101 E4.43804
G1 X109.95 Y131.513 E4.45761
G1 X109.906 Y83.314 E6.06072
G1 X100.05 Y83.334 E6.38853
G1 X100.05 Y131.505 E7.9907
G1 X100.01 Y132.294 E8.01698
G1 X99.891 Y133.074 E8.04322
G1 X99.693 Y133.839 E8.06951
G1 X99.419 Y134.579 E8.09575
G1 X99.071 Y135.288 E8.12202
G1 X98.653 Y135.959 E8.14831
G1 X98.17 Y136.583 E8.17456
G1 X97.765 Y137.02 E8.19438
G1 X97.648 Y137.137 E8.19988
G1 X97.062 Y137.667 E8.22616
G1 X96.426 Y138.134 E8.2524
G1 X95.746 Y138.535 E8.27866
G1 X95.028 Y138.865 E8.30494
G1 X94.281 Y139.12 E8.3312
G1 X93.512 Y139.299 E8.35746
G1 X92.728 Y139.399 E8.38374
G1 X92.137 Y139.422 E8.40341
G1 X90.371 Y139.423 E8.46215
G1 X89.583 Y139.383 E8.48839
G1 X88.802 Y139.264 E8.51467
G1 X88.037 Y139.067 E8.54094
G1 X87.297 Y138.793 E8.56719
G1 X86.587 Y138.446 E8.59347
G1 X85.917 Y138.029 E8.61972
G1 X85.292 Y137.546 E8.64599
G1 X84.852 Y137.138 E8.66595
G1 X84.735 Y137.021 E8.67146
G1 X84.205 Y136.435 E8.69773
G1 X83.738 Y135.799 E8.72398
G1 X83.337 Y135.119 E8.75023
G1 X83.007 Y134.401 E8.77652
G1 X82.752 Y133.654 E8.80277
G1 X82.573 Y132.885 E8.82903
G1 X82.473 Y132.101 E8.85532
G1 X82.45 Y131.499 E8.87536
G1 X82.502 Y73.177 E10.81515
G1 X82.543 Y72.388 E10.84143
G1 X82.663 Y71.608 E10.86768
G1 X82.861 Y70.844 E10.89393
G1 X83.136 Y70.103 E10.92022
G1 X83.579 Y69.228 E10.95284
G1 X83.792 Y68.866 E10.96681
G1 X84.227 Y68.207 E10.99307
M204 S5000
M205 X30 Y30
G0 F3600 X84.561 Y68.428
M204 S500
M205 X20 Y20
G1 F1800 X85.049 Y67.833 E11.01867
G1 X85.597 Y67.293 E11.04425
G1 X86.245 Y66.778 E11.07178
G1 X86.579 Y66.542 E11.08539
G1 X87.229 Y66.132 E11.11095
G1 X87.919 Y65.791 E11.13655
G1 X88.64 Y65.523 E11.16213
G1 X89.336 Y65.342 E11.18605
G1 X89.743 Y65.257 E11.19988
G1 X90.503 Y65.139 E11.22546
G1 X91.262 Y65.101 E11.25073
G1 X118.977 Y65.125 E12.17254
G1 X119.745 Y65.166 E12.19812
G1 X120.505 Y65.286 E12.22371
G1 X121.248 Y65.484 E12.24929
G1 X122.085 Y65.812 E12.27919
G1 X122.458 Y65.985 E12.29286
G1 X123.138 Y66.344 E12.31844
G1 X123.777 Y66.772 E12.34402
G1 X124.368 Y67.265 E12.36961
G1 X124.892 Y67.801 E12.39455
G1 X125.17 Y68.116 E12.40852
G1 X125.649 Y68.719 E12.43413
G1 X126.062 Y69.368 E12.45972
G1 X126.405 Y70.056 E12.48529
G1 X126.69 Y70.822 E12.51247
G1 X126.814 Y71.222 E12.5264
G1 X127.003 Y71.967 E12.55196
G1 X127.114 Y72.729 E12.57758
G1 X127.146 Y73.412 E12.60032
G1 X127.15 Y131.504 E14.53246
G1 X127.11 Y132.273 E14.55808
G1 X126.991 Y133.032 E14.58363
G1 X126.793 Y133.776 E14.60924
G1 X126.519 Y134.495 E14.63483
G1 X126.172 Y135.181 E14.6604
G1 X125.756 Y135.828 E14.68598
G1 X125.275 Y136.428 E14.71156
G1 X124.983 Y136.738 E14.72572
G1 X124.866 Y136.855 E14.73123
G1 X124.294 Y137.369 E14.7568
G1 X123.672 Y137.822 E14.7824
G1 X123.007 Y138.208 E14.80797
G1 X122.305 Y138.523 E14.83356
G1 X121.574 Y138.763 E14.85915
G1 X120.823 Y138.926 E14.88471
G1 X120.058 Y139.01 E14.91031
G1 X119.637 Y139.022 E14.92432
G1 X117.871 Y139.023 E14.98305
G1 X117.103 Y138.983 E15.00863
G1 X116.343 Y138.864 E15.03422
G1 X115.6 Y138.667 E15.05978
G1 X114.881 Y138.394 E15.08536
G1 X114.194 Y138.047 E15.11096
G1 X113.547 Y137.631 E15.13655
G1 X112.947 Y137.15 E15.16212
G1 X112.634 Y136.856 E15.17641
G1 X112.517 Y136.739 E15.18191
G1 X112.003 Y136.167 E15.20749
G1 X111.55 Y135.545 E15.23308
G1 X111.164 Y134.88 E15.25865
G1 X110.849 Y134.178 E15.28425
G1 X110.609 Y133.447 E15.30984
G1 X110.446 Y132.696 E15.3354
G1 X110.362 Y131.931 E15.36099
G1 X110.35 Y131.513 E15.3749
G1 X110.305 Y82.913 E16.99134
G1 X99.65 Y82.935 E17.34573
G1 X99.65 Y131.505 E18.96118
G1 X99.61 Y132.273 E18.98675
G1 X99.491 Y133.033 E19.01234
G1 X99.293 Y133.776 E19.03791
G1 X99.019 Y134.495 E19.06351
G1 X98.672 Y135.181 E19.08908
G1 X98.256 Y135.828 E19.11466
G1 X97.775 Y136.428 E19.14024
G1 X97.483 Y136.738 E19.1544
G1 X97.366 Y136.855 E19.1599
G1 X96.794 Y137.369 E19.18548
G1 X96.172 Y137.822 E19.21107
G1 X95.507 Y138.208 E19.23665
G1 X94.805 Y138.523 E19.26224
G1 X94.074 Y138.763 E19.28783
G1 X93.323 Y138.926 E19.31339
G1 X92.558 Y139.01 E19.33899
G1 X92.137 Y139.022 E19.353
G1 X90.371 Y139.023 E19.41173
G1 X89.603 Y138.983 E19.43731
G1 X88.843 Y138.864 E19.4629
G1 X88.1 Y138.667 E19.48846
G1 X87.381 Y138.394 E19.51404
G1 X86.694 Y138.047 E19.53964
G1 X86.047 Y137.631 E19.56523
G1 X85.447 Y137.15 E19.5908
G1 X85.134 Y136.856 E19.60509
G1 X85.017 Y136.739 E19.61059
G1 X84.503 Y136.167 E19.63617
G1 X84.05 Y135.545 E19.66176
G1 X83.664 Y134.88 E19.68733
G1 X83.349 Y134.178 E19.71292
G1 X83.109 Y133.447 E19.73851
G1 X82.946 Y132.696 E19.76407
G1 X82.862 Y131.931 E19.78967
G1 X82.85 Y131.499 E19.80404
G1 X82.902 Y73.177 E21.74384
G1 X82.943 Y72.409 E21.76942
G1 X83.063 Y71.65 E21.79498
G1 X83.261 Y70.906 E21.82059
G1 X83.536 Y70.188 E21.84616
G1 X83.924 Y69.431 E21.87445
G1 X84.137 Y69.069 E21.88842
G1 X84.561 Y68.428 E21.91398
M204 S5000
M205 X30 Y30
G0 F3600 X84.895 Y68.649
M204 S500
M205 X20 Y20
G1 F1800 X85.373 Y68.073 E21.93888
G1 X85.909 Y67.551 E21.96376
G1 X86.476 Y67.105 E21.98776
G1 X86.81 Y66.869 E22.00136
G1 X87.443 Y66.471 E22.02623
G1 X88.115 Y66.142 E22.05112
G1 X88.818 Y65.887 E22.07599
G1 X89.418 Y65.734 E22.09658
G1 X89.825 Y65.649 E22.11041
G1 X90.564 Y65.535 E22.13528
G1 X91.262 Y65.501 E22.15853
G1 X118.977 Y65.525 E23.08033
G1 X119.724 Y65.566 E23.10521
G1 X120.462 Y65.686 E23.13008
G1 X121.184 Y65.884 E23.15498
G1 X121.916 Y66.175 E23.18118
G1 X122.289 Y66.348 E23.19486
G1 X122.95 Y66.698 E23.21973
G1 X123.57 Y67.117 E23.24462
G1 X124.141 Y67.6 E23.2695
G1 X124.592 Y68.066 E23.29107
G1 X124.87 Y68.381 E23.30504
G1 X125.335 Y68.968 E23.32995
G1 X125.734 Y69.6 E23.35481
G1 X126.063 Y70.272 E23.37969
G1 X126.308 Y70.94 E23.40336
G1 X126.432 Y71.34 E23.41729
G1 X126.615 Y72.066 E23.44219
G1 X126.72 Y72.806 E23.46705
G1 X126.746 Y73.413 E23.48725
G1 X126.75 Y131.505 E25.4194
G1 X126.71 Y132.252 E25.44428
G1 X126.591 Y132.99 E25.46915
G1 X126.393 Y133.712 E25.49405
G1 X126.12 Y134.408 E25.51891
G1 X125.774 Y135.071 E25.54379
G1 X125.359 Y135.693 E25.56866
G1 X124.7 Y136.455 E25.60216
G1 X124.583 Y136.572 E25.60767
G1 X124.026 Y137.072 E25.63256
G1 X123.42 Y137.509 E25.65741
G1 X122.77 Y137.88 E25.6823
G1 X122.084 Y138.179 E25.70719
G1 X121.37 Y138.403 E25.73208
G1 X120.637 Y138.55 E25.75695
G1 X119.637 Y138.622 E25.79029
G1 X117.871 Y138.623 E25.84903
G1 X117.124 Y138.583 E25.87391
G1 X116.385 Y138.464 E25.89881
G1 X115.664 Y138.267 E25.92367
G1 X114.967 Y137.994 E25.94857
G1 X114.304 Y137.648 E25.97344
G1 X113.681 Y137.234 E25.99832
G1 X112.917 Y136.573 E26.03192
G1 X112.8 Y136.456 E26.03742
G1 X112.3 Y135.899 E26.06232
G1 X111.863 Y135.293 E26.08717
G1 X111.492 Y134.643 E26.11206
G1 X111.193 Y133.957 E26.13695
G1 X110.969 Y133.243 E26.16184
G1 X110.822 Y132.51 E26.1867
G1 X110.75 Y131.512 E26.21998
G1 X110.705 Y82.512 E27.84973
G1 X99.25 Y82.536 E28.23073
G1 X99.25 Y131.505 E29.85944
G1 X99.21 Y132.252 E29.88432
G1 X99.091 Y132.99 E29.90919
G1 X98.893 Y133.712 E29.93409
G1 X98.62 Y134.408 E29.95895
G1 X98.273 Y135.071 E29.98384
G1 X97.858 Y135.694 E30.00874
G1 X97.2 Y136.455 E30.0422
G1 X97.083 Y136.572 E30.0477
G1 X96.526 Y137.072 E30.0726
G1 X95.92 Y137.509 E30.09745
G1 X95.27 Y137.88 E30.12234
G1 X94.584 Y138.179 E30.14723
G1 X93.87 Y138.403 E30.17212
G1 X93.137 Y138.55 E30.19698
G1 X92.137 Y138.622 E30.23033
G1 X90.371 Y138.623 E30.28907
G1 X89.624 Y138.583 E30.31395
G1 X88.885 Y138.464 E30.33884
G1 X88.164 Y138.267 E30.3637
G1 X87.467 Y137.994 E30.3886
G1 X86.804 Y137.648 E30.41348
G1 X86.181 Y137.234 E30.43835
G1 X85.417 Y136.573 E30.47196
G1 X85.3 Y136.456 E30.47746
G1 X84.8 Y135.899 E30.50235
G1 X84.363 Y135.293 E30.5272
G1 X83.992 Y134.643 E30.5521
G1 X83.693 Y133.957 E30.57699
G1 X83.469 Y133.243 E30.60187
G1 X83.322 Y132.51 E30.62674
G1 X83.25 Y131.5 E30.66042
G1 X83.302 Y73.178 E32.60022
G1 X83.343 Y72.431 E32.6251
G1 X83.463 Y71.692 E32.65
G1 X83.661 Y70.971 E32.67487
G1 X83.935 Y70.275 E32.69975
G1 X84.269 Y69.634 E32.72379
G1 X84.482 Y69.272 E32.73776
G1 X84.895 Y68.649 E32.76262
M204 S5000
M205 X30 Y30
G0 F3600 X85.229 Y68.87
M204 S500
M205 X20 Y20
G1 F1800 X85.695 Y68.313 E32.78677
G1 X86.22 Y67.811 E32.81093
G1 X86.706 Y67.432 E32.83143
G1 X87.04 Y67.196 E32.84503
G1 X87.656 Y66.81 E32.86921
G1 X88.31 Y66.494 E32.89337
G1 X88.995 Y66.252 E32.91753
G1 X89.5 Y66.125 E32.93485
G1 X89.907 Y66.04 E32.94868
G1 X90.625 Y65.931 E32.97283
G1 X91.262 Y65.901 E32.99404
G1 X118.977 Y65.925 E33.91585
G1 X119.702 Y65.966 E33.94
G1 X120.418 Y66.086 E33.96415
G1 X121.117 Y66.284 E33.98831
G1 X121.748 Y66.538 E34.01094
G1 X122.121 Y66.711 E34.02461
G1 X122.762 Y67.052 E34.04876
G1 X123.362 Y67.462 E34.07293
G1 X123.913 Y67.935 E34.09708
G1 X124.292 Y68.331 E34.11531
G1 X124.57 Y68.646 E34.12929
G1 X125.02 Y69.216 E34.15344
G1 X125.405 Y69.832 E34.1776
G1 X125.719 Y70.487 E34.20176
G1 X125.926 Y71.059 E34.22199
G1 X126.05 Y71.459 E34.23592
G1 X126.227 Y72.163 E34.26007
G1 X126.325 Y72.883 E34.28423
G1 X126.346 Y73.413 E34.30188
G1 X126.35 Y131.505 E36.23402
G1 X126.31 Y132.23 E36.25817
G1 X126.191 Y132.946 E36.28232
G1 X125.993 Y133.645 E36.30648
G1 X125.72 Y134.318 E36.33063
G1 X125.375 Y134.957 E36.35479
G1 X124.962 Y135.555 E36.37896
G1 X124.417 Y136.172 E36.40634
G1 X124.3 Y136.289 E36.41184
G1 X123.759 Y136.773 E36.43599
G1 X123.168 Y137.196 E36.46016
G1 X122.534 Y137.55 E36.48431
G1 X121.865 Y137.833 E36.50847
G1 X121.169 Y138.041 E36.53263
G1 X120.454 Y138.171 E36.5568
G1 X119.637 Y138.222 E36.58403
G1 X117.871 Y138.223 E36.64277
G1 X117.145 Y138.183 E36.66695
G1 X116.429 Y138.064 E36.69109
G1 X115.73 Y137.867 E36.71525
G1 X115.057 Y137.595 E36.73939
G1 X114.417 Y137.25 E36.76357
G1 X113.82 Y136.837 E36.78772
G1 X113.2 Y136.29 E36.81522
G1 X113.083 Y136.173 E36.82072
G1 X112.599 Y135.632 E36.84486
G1 X112.176 Y135.041 E36.86904
G1 X111.822 Y134.407 E36.89319
G1 X111.539 Y133.738 E36.91735
G1 X111.331 Y133.042 E36.94151
G1 X111.201 Y132.327 E36.96568
G1 X111.15 Y131.512 E36.99284
G1 X111.104 Y82.112 E38.63589
G1 X98.85 Y82.137 E39.04346
G1 X98.85 Y131.505 E40.68545
G1 X98.81 Y132.23 E40.7096
G1 X98.691 Y132.947 E40.73377
G1 X98.493 Y133.646 E40.75793
G1 X98.22 Y134.319 E40.78209
G1 X97.875 Y134.958 E40.80624
G1 X97.461 Y135.555 E40.83041
G1 X96.917 Y136.172 E40.85777
G1 X96.8 Y136.289 E40.86327
G1 X96.259 Y136.773 E40.88741
G1 X95.668 Y137.196 E40.91159
G1 X95.034 Y137.55 E40.93574
G1 X94.365 Y137.833 E40.9599
G1 X93.669 Y138.041 E40.98406
G1 X92.954 Y138.171 E41.00823
G1 X92.137 Y138.222 E41.03545
G1 X90.371 Y138.223 E41.09419
G1 X89.645 Y138.183 E41.11838
G1 X88.929 Y138.064 E41.14252
G1 X88.23 Y137.867 E41.16667
G1 X87.557 Y137.595 E41.19081
G1 X86.917 Y137.25 E41.215
G1 X86.32 Y136.837 E41.23914
G1 X85.7 Y136.29 E41.26664
G1 X85.583 Y136.173 E41.27214
G1 X85.099 Y135.632 E41.29629
G1 X84.676 Y135.041 E41.32046
G1 X84.322 Y134.407 E41.34461
G1 X84.039 Y133.738 E41.36877
G1 X83.831 Y133.042 E41.39293
G1 X83.701 Y132.327 E41.4171
G1 X83.65 Y131.5 E41.44466
G1 X83.702 Y73.178 E43.38446
G1 X83.743 Y72.453 E43.40861
G1 X83.863 Y71.737 E43.43276
G1 X84.061 Y71.038 E43.45692
G1 X84.334 Y70.365 E43.48108
G1 X84.614 Y69.837 E43.50096
G1 X84.827 Y69.475 E43.51493
G1 X85.229 Y68.87 E43.53908
M204 S5000
M205 X30 Y30
G0 F3600 X85.562 Y69.092
M204 S500
M205 X20 Y20
G1 F1800 X86.017 Y68.555 E43.56249
G1 X86.53 Y68.073 E43.58591
G1 X86.937 Y67.758 E43.60302
G1 X87.271 Y67.522 E43.61663
G1 X87.868 Y67.15 E43.64002
G1 X88.504 Y66.847 E43.66345
G1 X89.17 Y66.618 E43.68688
G1 X89.582 Y66.517 E43.70099
G1 X89.989 Y66.432 E43.71482
G1 X90.685 Y66.327 E43.73823
G1 X91.261 Y66.301 E43.7574
G1 X118.976 Y66.325 E44.67921
G1 X119.679 Y66.366 E44.70263
G1 X120.373 Y66.486 E44.72606
G1 X121.048 Y66.683 E44.74944
G1 X121.58 Y66.901 E44.76857
G1 X121.953 Y67.074 E44.78224
G1 X122.573 Y67.406 E44.80563
G1 X123.153 Y67.806 E44.82907
G1 X123.683 Y68.269 E44.85247
G1 X123.993 Y68.595 E44.86744
G1 X124.271 Y68.91 E44.88141
G1 X124.706 Y69.464 E44.90484
G1 X125.075 Y70.063 E44.92824
G1 X125.375 Y70.7 E44.95166
G1 X125.544 Y71.177 E44.96849
G1 X125.668 Y71.577 E44.98242
G1 X125.838 Y72.26 E45.00583
G1 X125.929 Y72.958 E45.02924
G1 X125.946 Y73.413 E45.04438
G1 X125.95 Y131.505 E46.97653
G1 X125.91 Y132.207 E46.99992
G1 X125.791 Y132.901 E47.02333
G1 X125.594 Y133.577 E47.04675
G1 X125.321 Y134.226 E47.07017
G1 X124.977 Y134.84 E47.09358
G1 X124.565 Y135.411 E47.117
G1 X124.134 Y135.889 E47.13841
G1 X124.017 Y136.006 E47.14391
G1 X123.492 Y136.475 E47.16732
G1 X122.917 Y136.881 E47.19074
G1 X122.299 Y137.219 E47.21416
G1 X121.648 Y137.486 E47.23757
G1 X120.97 Y137.676 E47.26099
G1 X120.275 Y137.789 E47.2844
G1 X119.637 Y137.822 E47.30565
G1 X117.871 Y137.823 E47.36439
G1 X117.168 Y137.783 E47.38781
G1 X116.474 Y137.664 E47.41123
G1 X115.798 Y137.468 E47.43464
G1 X115.149 Y137.195 E47.45806
G1 X114.534 Y136.851 E47.48149
G1 X113.963 Y136.44 E47.50489
G1 X113.483 Y136.007 E47.5264
G1 X113.366 Y135.89 E47.5319
G1 X112.897 Y135.365 E47.55531
G1 X112.491 Y134.79 E47.57872
G1 X112.153 Y134.172 E47.60215
G1 X111.886 Y133.521 E47.62556
G1 X111.696 Y132.843 E47.64897
G1 X111.583 Y132.148 E47.67239
G1 X111.55 Y131.512 E47.69358
G1 X111.504 Y81.711 E49.34996
G1 X98.45 Y81.738 E49.78414
G1 X98.45 Y131.505 E51.4394
G1 X98.41 Y132.208 E51.46282
G1 X98.291 Y132.902 E51.48624
G1 X98.093 Y133.577 E51.50964
G1 X97.821 Y134.226 E51.53304
G1 X97.476 Y134.84 E51.55647
G1 X97.065 Y135.411 E51.57987
G1 X96.634 Y135.889 E51.60127
G1 X96.517 Y136.006 E51.60678
G1 X95.992 Y136.475 E51.63019
G1 X95.417 Y136.881 E51.6536
G1 X94.799 Y137.219 E51.67703
G1 X94.148 Y137.486 E51.70043
G1 X93.47 Y137.676 E51.72385
G1 X92.775 Y137.789 E51.74727
G1 X92.137 Y137.822 E51.76852
G1 X90.371 Y137.823 E51.82726
G1 X89.668 Y137.783 E51.85068
G1 X88.974 Y137.664 E51.8741
G1 X88.298 Y137.468 E51.89751
