;FLAVOR:Marlin
;TIME:2291
;Filament used: 2.31529m
;Layer height: 0.2
;Generated with Cura_SteamEngine 3.4.1
M190 S65
M104 S220
M109 S220
M82 ;absolute extrusion mode
G28 ;Home
G1 Z15.0 F6000 ;Move the platform down 15mm
;Prime the extruder
G92 E0
G1 F200 E3
G92 E0
G92 E0
G1 F2400 E-5
;LAYER_COUNT:91
;LAYER:0
M106 S191.3
M204 S5000
M205 X30 Y30
G0 F3600 X82.078 Y66.095 Z0.2
M204 S500
M205 X20 Y20
;TYPE:SKIRT
G1 F2400 E0
G1 F1800 X82.283 Y65.848 E0.01068
G1 X82.923 Y65.14 E0.04242
G1 X83.62 Y64.487 E0.07419
G1 X84.369 Y63.896 E0.10592
G1 X85.165 Y63.368 E0.13769
G1 X86.002 Y62.91 E0.16942
G1 X86.875 Y62.523 E0.20118
G1 X87.778 Y62.21 E0.23297
G1 X88.703 Y61.974 E0.26472
G1 X89.644 Y61.817 E0.29645
G1 X91.029 Y61.729 E0.34261
G1 X118.01 Y61.667 E1.24001
G1 X119.176 Y61.724 E1.27883
G1 X120.141 Y61.821 E1.31109
G1 X121.086 Y61.956 E1.34284
G1 X122.017 Y62.17 E1.37461
G1 X122.926 Y62.461 E1.40636
G1 X123.808 Y62.827 E1.43812
G1 X124.656 Y63.266 E1.46988
G1 X125.465 Y63.774 E1.50165
G1 X126.228 Y64.347 E1.53339
G1 X126.94 Y64.983 E1.56514
G1 X127.809 Y65.927 E1.60782
G1 X127.938 Y66.084 E1.61458
G1 X128.513 Y66.846 E1.64633
G1 X129.022 Y67.654 E1.67809
G1 X129.461 Y68.502 E1.70985
G1 X129.828 Y69.383 E1.74159
G1 X130.12 Y70.292 E1.77335
G1 X130.335 Y71.222 E1.80509
G1 X130.471 Y72.167 E1.83685
G1 X130.53 Y73.313 E1.87501
G1 X130.571 Y130.525 E3.77789
G1 X130.532 Y131.479 E3.80965
G1 X130.361 Y132.709 E3.85095
G1 X130.199 Y133.542 E3.87918
G1 X129.978 Y134.471 E3.91094
G1 X129.68 Y135.378 E3.94269
G1 X129.307 Y136.257 E3.97445
G1 X128.861 Y137.101 E4.0062
G1 X128.347 Y137.906 E4.03797
G1 X127.767 Y138.664 E4.06971
G1 X127.258 Y139.235 E4.09516
G1 X127.03 Y139.474 E4.10614
G1 X126.342 Y140.137 E4.13792
G1 X125.602 Y140.739 E4.16965
G1 X124.813 Y141.278 E4.20143
G1 X123.983 Y141.749 E4.23317
G1 X123.116 Y142.149 E4.26493
G1 X122.218 Y142.474 E4.29669
G1 X121.297 Y142.724 E4.32843
G1 X120.357 Y142.895 E4.36021
G1 X119.407 Y142.988 E4.39196
G1 X118.452 Y143 E4.42373
G1 X117.478 Y142.93 E4.4562
G1 X113.812 Y142.508 E4.57894
G1 X108.721 Y142.148 E4.74869
G1 X103.722 Y142.079 E4.91497
G1 X98.623 Y142.296 E5.08472
G1 X96.179 Y142.504 E5.1663
G1 X92.42 Y142.916 E5.29208
G1 X91.467 Y142.98 E5.32384
G1 X90.512 Y142.965 E5.35561
G1 X89.562 Y142.869 E5.38737
G1 X88.624 Y142.694 E5.41911
G1 X87.703 Y142.441 E5.45087
G1 X86.807 Y142.113 E5.48261
G1 X85.941 Y141.71 E5.51438
G1 X85.112 Y141.236 E5.54614
G1 X84.326 Y140.695 E5.57788
G1 X83.587 Y140.089 E5.60966
G1 X82.902 Y139.424 E5.64142
G1 X82.4 Y138.858 E5.66658
G1 X82.192 Y138.607 E5.67742
G1 X81.614 Y137.847 E5.70918
G1 X81.102 Y137.041 E5.74094
G1 X80.659 Y136.195 E5.7727
G1 X80.288 Y135.316 E5.80443
G1 X79.993 Y134.408 E5.83619
G1 X79.719 Y133.168 E5.87842
G1 X79.573 Y132.273 E5.90859
G1 X79.459 Y131.325 E5.94034
G1 X79.424 Y130.433 E5.97003
G1 X79.45 Y73.371 E7.86792
G1 X79.49 Y72.417 E7.89968
G1 X79.611 Y71.47 E7.93144
G1 X79.809 Y70.536 E7.96319
G1 X80.086 Y69.622 E7.99496
G1 X80.438 Y68.734 E8.02673
G1 X80.863 Y67.879 E8.05848
G1 X81.358 Y67.063 E8.09023
G1 X82.078 Y66.095 E8.13035
M204 S5000
M205 X30 Y30
G0 F3600 X82.386 Y66.351
M204 S500
M205 X20 Y20
G1 F1800 X82.591 Y66.104 E8.14103
G1 X83.22 Y65.408 E8.17223
G1 X83.906 Y64.769 E8.20341
G1 X84.644 Y64.19 E8.23461
G1 X85.429 Y63.677 E8.2658
G1 X86.254 Y63.232 E8.29698
G1 X87.115 Y62.859 E8.32819
G1 X88.004 Y62.561 E8.35937
G1 X88.915 Y62.339 E8.39056
G1 X89.842 Y62.196 E8.42176
G1 X91.03 Y62.129 E8.46133
G1 X118.011 Y62.067 E9.35873
G1 X119.136 Y62.122 E9.39619
G1 X120.101 Y62.219 E9.42845
G1 X121.029 Y62.353 E9.45963
G1 X121.943 Y62.565 E9.49084
G1 X122.835 Y62.854 E9.52202
G1 X123.7 Y63.218 E9.55324
G1 X124.53 Y63.654 E9.58442
G1 X125.32 Y64.16 E9.61562
G1 X126.064 Y64.731 E9.64682
G1 X126.756 Y65.363 E9.67799
G1 X127.5 Y66.181 E9.71477
G1 X127.629 Y66.338 E9.72152
G1 X128.193 Y67.087 E9.75271
G1 X128.691 Y67.882 E9.78391
G1 X129.12 Y68.716 E9.8151
G1 X129.476 Y69.584 E9.84631
G1 X129.756 Y70.479 E9.8775
G1 X129.96 Y71.394 E9.90868
G1 X130.085 Y72.324 E9.93989
G1 X130.13 Y73.313 E9.97282
G1 X130.171 Y130.525 E11.8757
G1 X130.132 Y131.462 E11.90689
G1 X129.969 Y132.633 E11.94621
G1 X129.807 Y133.466 E11.97443
G1 X129.589 Y134.378 E12.00562
G1 X129.294 Y135.268 E12.03681
G1 X128.924 Y136.13 E12.06801
G1 X128.482 Y136.957 E12.0992
G1 X127.971 Y137.744 E12.13041
G1 X127.395 Y138.484 E12.1616
G1 X126.968 Y138.959 E12.18284
G1 X126.74 Y139.198 E12.19383
G1 X126.064 Y139.848 E12.22502
G1 X125.336 Y140.439 E12.2562
G1 X124.559 Y140.965 E12.28741
G1 X123.741 Y141.423 E12.31859
G1 X122.887 Y141.81 E12.34978
G1 X122.003 Y142.123 E12.38097
G1 X121.095 Y142.359 E12.41217
G1 X120.17 Y142.517 E12.44338
G1 X119.236 Y142.596 E12.47456
G1 X118.298 Y142.594 E12.50576
G1 X117.524 Y142.533 E12.53158
G1 X113.842 Y142.11 E12.65485
G1 X108.737 Y141.749 E12.82507
G1 X103.71 Y141.678 E12.99228
G1 X98.596 Y141.896 E13.16253
G1 X96.182 Y142.102 E13.24311
G1 X92.376 Y142.519 E13.37046
G1 X91.44 Y142.581 E13.40166
G1 X90.503 Y142.563 E13.43283
G1 X89.57 Y142.466 E13.46403
G1 X88.649 Y142.289 E13.49522
G1 X87.746 Y142.035 E13.52642
G1 X86.868 Y141.705 E13.55761
G1 X86.022 Y141.301 E13.5888
G1 X85.213 Y140.826 E13.62
G1 X84.447 Y140.284 E13.65121
G1 X83.731 Y139.679 E13.68239
G1 X83.068 Y139.016 E13.71357
G1 X82.708 Y138.603 E13.73179
G1 X82.5 Y138.352 E13.74264
G1 X81.933 Y137.605 E13.77383
G1 X81.432 Y136.812 E13.80503
G1 X81 Y135.98 E13.83621
G1 X80.64 Y135.114 E13.8674
G1 X80.356 Y134.22 E13.8986
G1 X80.114 Y133.104 E13.93658
G1 X79.968 Y132.209 E13.96674
G1 X79.856 Y131.278 E13.99793
G1 X79.824 Y130.433 E14.02605
G1 X79.85 Y73.371 E15.92394
G1 X79.89 Y72.434 E15.95514
G1 X80.01 Y71.504 E15.98633
G1 X80.209 Y70.587 E16.01754
G1 X80.486 Y69.691 E16.04873
G1 X80.837 Y68.822 E16.0799
G1 X81.262 Y67.985 E16.11112
G1 X81.756 Y67.188 E16.14231
G1 X82.386 Y66.351 E16.17715
M204 S5000
M205 X30 Y30
G0 F3600 X82.693 Y66.606
M204 S500
M205 X20 Y20
G1 F1800 X82.898 Y66.359 E16.18783
G1 X83.517 Y65.677 E16.21846
G1 X84.192 Y65.051 E16.24908
G1 X84.918 Y64.486 E16.27968
G1 X85.692 Y63.986 E16.31033
G1 X86.505 Y63.555 E16.34093
G1 X87.353 Y63.196 E16.37156
G1 X88.229 Y62.913 E16.40218
G1 X89.126 Y62.706 E16.4328
G1 X90.038 Y62.578 E16.46343
G1 X91.031 Y62.529 E16.4965
G1 X118.012 Y62.467 E17.39389
G1 X119.096 Y62.52 E17.42999
G1 X120.061 Y62.617 E17.46224
G1 X120.972 Y62.749 E17.49286
G1 X121.869 Y62.959 E17.5235
G1 X122.743 Y63.247 E17.55411
G1 X123.59 Y63.609 E17.58474
G1 X124.402 Y64.043 E17.61537
G1 X125.173 Y64.546 E17.64599
G1 X125.897 Y65.114 E17.67659
G1 X126.57 Y65.743 E17.70723
G1 X127.191 Y66.435 E17.73816
G1 X127.32 Y66.592 E17.74491
G1 X127.873 Y67.328 E17.77553
G1 X128.36 Y68.109 E17.80615
G1 X128.778 Y68.93 E17.83679
G1 X129.122 Y69.783 E17.86738
G1 X129.391 Y70.664 E17.89802
G1 X129.583 Y71.564 E17.92862
G1 X129.696 Y72.478 E17.95926
G1 X129.73 Y73.313 E17.98705
G1 X129.771 Y130.525 E19.88993
G1 X129.732 Y131.445 E19.92056
G1 X129.576 Y132.557 E19.9579
G1 X129.414 Y133.39 E19.98613
G1 X129.199 Y134.285 E20.01674
G1 X128.908 Y135.158 E20.04735
G1 X128.541 Y136.003 E20.07799
G1 X128.103 Y136.812 E20.10859
G1 X127.596 Y137.581 E20.13923
G1 X127.024 Y138.302 E20.16984
G1 X126.679 Y138.683 E20.18693
G1 X126.451 Y138.922 E20.19792
G1 X125.787 Y139.56 E20.22854
G1 X125.07 Y140.138 E20.25918
G1 X124.306 Y140.651 E20.28978
G1 X123.5 Y141.096 E20.32041
G1 X122.659 Y141.47 E20.35102
G1 X121.788 Y141.769 E20.38165
G1 X120.895 Y141.992 E20.41226
G1 X119.986 Y142.136 E20.44287
G1 X119.067 Y142.201 E20.47351
G1 X118.147 Y142.186 E20.50412
G1 X117.57 Y142.136 E20.52338
G1 X113.872 Y141.711 E20.64719
G1 X108.753 Y141.349 E20.81787
G1 X103.699 Y141.278 E20.98598
G1 X98.592 Y141.496 E21.156
G1 X96.108 Y141.707 E21.23891
G1 X92.333 Y142.121 E21.36522
G1 X91.414 Y142.181 E21.39585
G1 X90.493 Y142.162 E21.42649
G1 X89.578 Y142.063 E21.4571
G1 X88.675 Y141.884 E21.48772
G1 X87.791 Y141.628 E21.51833
G1 X86.932 Y141.296 E21.54896
G1 X86.105 Y140.891 E21.57959
G1 X85.317 Y140.416 E21.61019
G1 X84.572 Y139.874 E21.64083
G1 X83.878 Y139.27 E21.67143
G1 X83.016 Y138.348 E21.71342
G1 X82.808 Y138.097 E21.72426
G1 X82.252 Y137.363 E21.75488
G1 X81.762 Y136.584 E21.78549
G1 X81.341 Y135.765 E21.81612
G1 X80.993 Y134.913 E21.84673
G1 X80.72 Y134.033 E21.87738
G1 X80.508 Y133.04 E21.91115
G1 X80.362 Y132.145 E21.94131
G1 X80.254 Y131.23 E21.97195
G1 X80.224 Y130.433 E21.99848
G1 X80.25 Y73.371 E23.89637
G1 X80.29 Y72.451 E23.927
G1 X80.41 Y71.539 E23.95759
G1 X80.609 Y70.64 E23.98822
G1 X80.885 Y69.761 E24.01886
G1 X81.237 Y68.91 E24.04949
G1 X81.66 Y68.093 E24.08009
G1 X82.153 Y67.316 E24.1107
G1 X82.693 Y66.606 E24.14037
M204 S5000
M205 X30 Y30
G0 F3600 X83.001 Y66.862
M204 S500
M205 X20 Y20
G1 F1800 X83.206 Y66.615 E24.15104
G1 X83.813 Y65.946 E24.18109
G1 X84.477 Y65.334 E24.21112
G1 X85.192 Y64.782 E24.24117
G1 X85.953 Y64.296 E24.2712
G1 X86.755 Y63.88 E24.30125
G1 X87.59 Y63.536 E24.33128
G1 X88.452 Y63.267 E24.36132
G1 X89.334 Y63.075 E24.39134
G1 X90.23 Y62.962 E24.42138
G1 X91.032 Y62.929 E24.44807
G1 X118.013 Y62.867 E25.34547
G1 X119.056 Y62.918 E25.3802
G1 X120.021 Y63.015 E25.41246
G1 X120.915 Y63.145 E25.44251
G1 X121.794 Y63.354 E25.47256
G1 X122.65 Y63.639 E25.50256
G1 X123.479 Y63.999 E25.53262
G1 X124.272 Y64.431 E25.56266
G1 X125.023 Y64.932 E25.59269
G1 X125.728 Y65.497 E25.62273
G1 X126.38 Y66.122 E25.65277
G1 X126.882 Y66.689 E25.67796
G1 X127.011 Y66.846 E25.68472
G1 X127.553 Y67.568 E25.71475
G1 X128.029 Y68.336 E25.7448
G1 X128.435 Y69.142 E25.77482
G1 X128.768 Y69.982 E25.80487
G1 X129.025 Y70.847 E25.83488
G1 X129.206 Y71.732 E25.86493
G1 X129.307 Y72.63 E25.89498
G1 X129.33 Y73.314 E25.91775
G1 X129.371 Y130.526 E27.82063
G1 X129.332 Y131.428 E27.85065
G1 X129.183 Y132.48 E27.88599
G1 X129.021 Y133.313 E27.91422
G1 X128.81 Y134.191 E27.94425
G1 X128.522 Y135.047 E27.97429
G1 X128.159 Y135.874 E28.00433
G1 X127.724 Y136.666 E28.03438
G1 X127.221 Y137.416 E28.06442
G1 X126.389 Y138.407 E28.10746
G1 X126.161 Y138.646 E28.11844
G1 X125.51 Y139.271 E28.14846
G1 X124.805 Y139.836 E28.17851
G1 X124.054 Y140.337 E28.20853
G1 X123.261 Y140.769 E28.23857
G1 X122.432 Y141.129 E28.26863
G1 X121.576 Y141.415 E28.29865
G1 X120.697 Y141.623 E28.32869
G1 X119.803 Y141.754 E28.35874
G1 X118.902 Y141.804 E28.38876
G1 X117.616 Y141.738 E28.43158
G1 X113.922 Y141.313 E28.55526
G1 X108.77 Y140.949 E28.72704
G1 X103.705 Y140.878 E28.89552
G1 X98.541 Y141.098 E29.06743
G1 X96.07 Y141.309 E29.14992
G1 X92.289 Y141.723 E29.27642
G1 X91.388 Y141.782 E29.30646
G1 X90.485 Y141.76 E29.3365
G1 X89.588 Y141.659 E29.36652
G1 X88.703 Y141.479 E29.39656
G1 X87.837 Y141.221 E29.42661
G1 X86.998 Y140.888 E29.45664
G1 X86.191 Y140.482 E29.48668
G1 X85.424 Y140.006 E29.51671
G1 X84.701 Y139.464 E29.54676
G1 X84.03 Y138.86 E29.57679
G1 X83.324 Y138.092 E29.61149
G1 X83.116 Y137.841 E29.62233
G1 X82.571 Y137.121 E29.65236
G1 X82.092 Y136.356 E29.68238
G1 X81.683 Y135.551 E29.71241
G1 X81.346 Y134.713 E29.74246
G1 X81.085 Y133.848 E29.77251
G1 X80.903 Y132.975 E29.80217
G1 X80.757 Y132.08 E29.83233
G1 X80.651 Y131.183 E29.86237
G1 X80.624 Y130.433 E29.88733
G1 X80.65 Y73.371 E31.78522
G1 X80.69 Y72.469 E31.81525
G1 X80.81 Y71.574 E31.84529
G1 X81.009 Y70.693 E31.87533
G1 X81.285 Y69.833 E31.90537
G1 X81.636 Y69.001 E31.9354
G1 X82.059 Y68.203 E31.96544
G1 X82.551 Y67.446 E31.99547
G1 X83.001 Y66.862 E32.01999
M204 S5000
M205 X30 Y30
G1 F2400 E27.01999
G0 F3600 X90.154 Y73.46
G0 X91.432 Y73.685
G0 X92.336 Y74.09
M204 S500
M205 X20 Y20
;TYPE:WALL-INNER
G1 F2400 E32.01999
G1 F1800 X92.053 Y74.217 E32.03031
G1 X91.946 Y74.281 E32.03445
G1 X91.818 Y74.359 E32.03944
G1 X91.818 Y74.217 E32.04069
G1 X91.818 Y74.071 E32.04334
G1 X92.053 Y74.071 E32.04821
G1 X92.336 Y74.071 E32.04997
G1 X92.397 Y74.071
G1 X92.336 Y74.09
M204 S5000
M205 X30 Y30
G0 F3600 X117.947 Y74.217
M204 S500
M205 X20 Y20
G1 F1800 X117.664 Y74.09 E32.06028
G1 X117.591 Y74.067 E32.06283
G1 X117.664 Y74.067
G1 X117.947 Y74.067 E32.06468
G1 X118.183 Y74.067 E32.07223
G1 X118.183 Y74.217 E32.0754
G1 X118.183 Y74.359 E32.07855
G1 X118.055 Y74.282 E32.08005
G1 X117.947 Y74.217 E32.08133
M204 S5000
M205 X30 Y30
G0 F3600 X118.194 Y74.871
M204 S500
M205 X20 Y20
G1 F1800 X118.186 Y74.865 E32.08167
G1 X117.988 Y74.709 E32.09005
G1 X117.761 Y74.572 E32.09887
G1 X117.522 Y74.465 E32.10758
G1 X117.271 Y74.386 E32.11633
G1 X117.011 Y74.339 E32.12512
G1 X116.768 Y74.325 E32.13321
G1 X93.234 Y74.326 E32.91596
G1 X92.991 Y74.339 E32.92405
G1 X92.729 Y74.386 E32.93291
G1 X92.478 Y74.465 E32.94166
G1 X92.239 Y74.572 E32.95037
G1 X92.012 Y74.709 E32.95919
G1 X91.815 Y74.864 E32.96752
G1 X91.806 Y74.871 E32.9679
G1 X91.62 Y75.056 E32.97663
G1 X91.458 Y75.264 E32.9854
G1 X91.418 Y75.33 E32.98796
G1 X91.418 Y75.264
G1 X91.418 Y75.056 E32.98971
G1 X91.418 Y74.871 E32.99405
G1 X91.418 Y74.859 E32.99445
G1 X91.418 Y73.671 E33.03396
G1 X118.383 Y73.667 E33.93082
G1 X118.583 Y73.667 E33.93747
G1 X118.583 Y73.867 E33.94178
G1 X118.583 Y74.86 E33.97481
G1 X118.583 Y74.871 E33.97517
G1 X118.583 Y75.056 E33.98132
G1 X118.583 Y75.264 E33.98824
G1 X118.583 Y75.332 E33.9905
G1 X118.542 Y75.264 E33.99077
G1 X118.38 Y75.056 E33.99437
G1 X118.194 Y74.871 E34.0013
M204 S5000
M205 X30 Y30
G0 F3600 X118.26 Y74.797
G0 X118.558 Y75.236
G0 X118.515 Y76.292
M204 S500
M205 X20 Y20
;TYPE:WALL-OUTER
G1 F1800 X118.474 Y76.076 E34.00861
G1 X118.412 Y75.871 E34.01574
G1 X118.323 Y75.675 E34.0229
G1 X118.212 Y75.491 E34.03004
G1 X118.08 Y75.322 E34.03717
G1 X117.928 Y75.171 E34.0443
G1 X117.76 Y75.038 E34.05143
G1 X117.576 Y74.927 E34.05857
G1 X117.38 Y74.84 E34.06571
G1 X117.175 Y74.775 E34.07286
G1 X116.964 Y74.737 E34.07999
G1 X116.756 Y74.725 E34.08692
G1 X93.245 Y74.726 E34.8689
G1 X93.037 Y74.737 E34.87583
G1 X92.825 Y74.775 E34.88299
G1 X92.62 Y74.84 E34.89014
G1 X92.424 Y74.927 E34.89728
G1 X92.24 Y75.038 E34.90442
G1 X92.072 Y75.171 E34.91155
G1 X91.92 Y75.322 E34.91868
G1 X91.788 Y75.491 E34.92581
G1 X91.677 Y75.675 E34.93296
G1 X91.588 Y75.871 E34.94012
G1 X91.526 Y76.076 E34.94724
G1 X91.485 Y76.29 E34.95449
G1 X91.48 Y76.498 E34.96141
G1 X91.483 Y130.486 E36.75705
G1 X91.45 Y130.754 E36.76603
G1 X91.401 Y131.152 E36.77937
G1 X91.321 Y131.294 E36.78479
G1 X91.288 Y131.353 E36.78704
G1 X91.264 Y131.395 E36.78865
G1 X91.208 Y131.335 E36.78961
G1 X91.153 Y131.277 E36.79089
G1 X91.144 Y131.254
G1 X91.114 Y131.178 E36.79206
G1 X91.053 Y130.782 E36.80353
G1 X91.043 Y130.722 E36.80556
G1 X91.017 Y130.488 E36.81339
G1 X91.025 Y89.867 E38.16445
G1 X91.017 Y82.781 E38.40013
G1 X91.018 Y73.51 E38.70848
G1 X91.025 Y73.454 E38.71036
G1 X91.043 Y73.402 E38.71219
G1 X91.073 Y73.354 E38.71407
G1 X91.139 Y73.3 E38.71691
G1 X91.189 Y73.28 E38.7187
G1 X91.247 Y73.271 E38.72065
G1 X118.71 Y73.267 E39.63408
G1 X118.735 Y73.267 E39.63491
G1 X118.802 Y73.277 E39.63716
G1 X118.848 Y73.293 E39.63878
G1 X118.896 Y73.323 E39.64066
G1 X118.927 Y73.354 E39.64212
G1 X118.957 Y73.402 E39.644
G1 X118.975 Y73.454 E39.64583
G1 X118.983 Y73.513 E39.64781
G1 X118.983 Y73.538 E39.64865
G1 X118.984 Y130.485 E41.54271
G1 X118.956 Y130.722 E41.55065
G1 X118.943 Y130.805 E41.55344
G1 X118.904 Y131.067 E41.56225
G1 X118.887 Y131.174 E41.56586
G1 X118.855 Y131.257 E41.56881
G1 X118.847 Y131.277 E41.56953
G1 X118.792 Y131.336 E41.57221
G1 X118.736 Y131.395 E41.57492
G1 X118.713 Y131.354
G1 X118.678 Y131.292 E41.57568
G1 X118.603 Y131.159 E41.57906
G1 X118.577 Y131.018 E41.58287
G1 X118.548 Y130.755 E41.5909
G1 X118.517 Y130.487 E41.59988
G1 X118.515 Y76.292 E43.40241
M204 S5000
M205 X30 Y30
G0 F3600 X118.478 Y76.095
G0 X118.713 Y76.004
G1 F1800 X118.748 Y76.322 E43.40411
G1 X118.748 Y76.605 E43.40501
G1 X118.748 Y76.887 E43.4059
G1 X118.748 Y77.17 E43.40679
G1 X118.748 Y77.453 E43.40769
G1 X118.748 Y77.736 E43.40858
G1 X118.748 Y78.019 E43.40947
G1 X118.748 Y78.302 E43.41037
G1 X118.748 Y78.584 E43.41126
G1 X118.748 Y78.867 E43.41215
G1 X118.748 Y79.15 E43.41305
G1 X118.748 Y79.433 E43.41394
G1 X118.748 Y79.716 E43.41484
G1 X118.748 Y79.999 E43.41573
G1 X118.748 Y80.281 E43.41662
